; HEADER_BLOCK_START
; generated by OrcaSlicer 2.3.1-dev on 2025-11-23 at 16:13:05
; total layer number: 175
; filament_density: 1.27,1.27
; filament_diameter: 1.75,1.75
; max_z_height: 35.00
; HEADER_BLOCK_END

; THUMBNAIL_BLOCK_START

;
; THUMBNAIL_BLOCK_END

; THUMBNAIL_BLOCK_START

;
; THUMBNAIL_BLOCK_END

; external perimeters extrusion width = 0.40mm
; perimeters extrusion width = 0.45mm
; infill extrusion width = 0.45mm
; solid infill extrusion width = 0.40mm
; top infill extrusion width = 0.40mm
; support material extrusion width = 0.40mm
; first layer extrusion width = 0.40mm

; EXECUTABLE_BLOCK_START
M73 P0 R120
;TYPE:Custom
start_print BED_TEMP=80 EXTRUDER_TEMP=240 CHAMBER_TEMP=0

G90
G21
M83 ; use relative distances for extrusion
; MANUAL_TOOL_CHANGE T1
M104 S240 ; set nozzle temperature
; filament start gcode
;LAYER_CHANGE
;Z:0.2
;HEIGHT:0.2
;BEFORE_LAYER_CHANGE
;0.2
G92 E0

G1 E-3.3 F3600
;_SET_FAN_SPEED_CHANGING_LAYER
SET_VELOCITY_LIMIT ACCEL=300 ACCEL_TO_DECEL=150
SET_VELOCITY_LIMIT SQUARE_CORNER_VELOCITY=8
SET_VELOCITY_LIMIT SQUARE_CORNER_VELOCITY=8
G1 Z.6 F18000
G1 X32.157 Y32.223
G1 Z.6
G1 Z.2
G1 E3.3 F2400
;TYPE:Skirt
;WIDTH:0.4
G1 F3000
G1 X39.223 Y25.157 E.28189
G1 X40.476 Y24.473 E.04027
G1 X95.712 Y12.431 E1.59463
G1 X97.465 Y12.235 E.04975
G1 X98.974 Y12.385 E.04277
G1 X100.451 Y12.85 E.04367
G1 X101.801 Y13.607 E.04367
G1 X102.794 Y14.431 E.03637
G1 X206.977 Y118.615 E4.15593
G1 X207.801 Y119.607 E.03637
G1 X208.558 Y120.957 E.04367
G1 X209.023 Y122.434 E.04367
G1 X209.11 Y122.949 E.01471
G1 X209.155 Y124.496 E.04367
G1 X208.96 Y125.771 E.03637
G1 X195.84 Y178.249 E1.5258
G1 X195.479 Y179.318 E.03181
G1 X194.848 Y180.516 E.0382
G1 X193.858 Y181.75 E.04463
G1 X181.674 Y193.934 E.48601
G1 X180.44 Y194.923 E.04463
G1 X179.242 Y195.555 E.0382
G1 X178.173 Y195.916 E.03181
G1 X125.695 Y209.035 E1.5258
G1 X124.42 Y209.231 E.03637
G1 X122.873 Y209.186 E.04367
G1 X121.367 Y208.824 E.04367
G1 X119.967 Y208.162 E.04367
G1 X118.539 Y207.053 E.05102
G1 X14.355 Y102.87 E4.15593
G1 X13.531 Y101.877 E.03637
G1 X12.774 Y100.527 E.04367
G1 X12.584 Y100.041 E.01471
G1 X12.223 Y98.536 E.04367
G1 X12.177 Y96.988 E.04367
G1 X12.355 Y95.788 E.03421
G1 X24.397 Y40.552 E1.59463
G1 X25.081 Y39.299 E.04027
G1 X32.128 Y32.252 E.28112
G1 X32.381 Y32.504 F18000
G1 F3000
G1 X39.476 Y25.409 E.28301
G1 X40.552 Y24.821 E.0346
G1 X95.788 Y12.78 E1.59463
G1 X97.442 Y12.591 E.04696
G1 X98.879 Y12.73 E.0407
G1 X100.287 Y13.168 E.04161
G1 X101.576 Y13.884 E.04161
G1 X102.541 Y14.683 E.03533
G1 X206.725 Y118.867 E4.15593
G1 X207.524 Y119.832 E.03533
M73 P0 R119
G1 X208.241 Y121.121 E.04161
G1 X208.753 Y122.972 E.05416
G1 X208.802 Y124.446 E.04161
G1 X208.613 Y125.684 E.03533
G1 X195.493 Y178.163 E1.5258
G1 X195.142 Y179.2 E.0309
G1 X194.537 Y180.34 E.03639
G1 X193.605 Y181.498 E.04192
G1 X181.422 Y193.681 E.48601
G1 X180.264 Y194.613 E.04192
G1 X179.124 Y195.218 E.03639
G1 X178.087 Y195.569 E.0309
G1 X125.608 Y208.689 E1.5258
G1 X124.37 Y208.878 E.03533
G1 X122.896 Y208.829 E.04161
G1 X121.462 Y208.48 E.04161
G1 X120.131 Y207.845 E.04161
G1 X118.791 Y206.801 E.04792
G1 X14.607 Y102.617 E4.15593
G1 X13.808 Y101.652 E.03533
G1 X13.092 Y100.363 E.04161
G1 X12.579 Y98.513 E.05416
G1 X12.531 Y97.038 E.04161
G1 X12.704 Y95.864 E.03348
G1 X24.745 Y40.628 E1.59463
G1 X25.334 Y39.552 E.0346
G1 X32.353 Y32.533 E.27999
; printing object ForkCage.stl id:3152 copy 0
G1 E-2.31 F3600
;WIPE_START
G1 F3000
G1 X33.767 Y31.118 E-.99
;WIPE_END
G1 Z.6 F18000
G1 X27.921 Y41.368 Z.6
G1 Z.2
G1 E3.3 F2400
;TYPE:Inner wall
;WIDTH:0.399999
G1 F1500
G1 X41.292 Y27.997 E.53336
G1 X44.201 Y28.803 E.08515
G1 X44.587 Y28.79 E.01088
G1 X96.43 Y15.829 E1.50733
G1 X97.336 Y15.705 E.02581
G1 X98.141 Y15.757 E.02273
G1 X98.945 Y15.979 E.02355
G1 X99.687 Y16.362 E.02355
G1 X100.373 Y16.919 E.02492
G1 X204.489 Y121.035 E4.1532
G1 X205.046 Y121.721 E.02492
G1 X205.429 Y122.463 E.02355
G1 X205.606 Y123.101 E.01869
G1 X205.663 Y123.44 E.00968
G1 X205.705 Y124.101 E.01869
G1 X205.58 Y124.976 E.02492
G1 X192.482 Y177.366 E1.52325
G1 X192.228 Y178.096 E.0218
G1 X191.868 Y178.732 E.0206
G1 X191.373 Y179.325 E.0218
G1 X179.249 Y191.449 E.48363
G1 X178.656 Y191.944 E.0218
G1 X178.02 Y192.304 E.0206
G1 X177.291 Y192.558 E.0218
G1 X124.9 Y205.656 E1.52325
G1 X124.025 Y205.781 E.02492
G1 X123.192 Y205.728 E.02355
G1 X122.387 Y205.505 E.02355
G1 X121.645 Y205.122 E.02355
G1 X120.959 Y204.565 E.02492
G1 X16.844 Y100.449 E4.1532
G1 X16.286 Y99.763 E.02492
G1 X15.903 Y99.021 E.02355
G1 X15.681 Y98.217 E.02355
G1 X15.627 Y97.383 E.02355
G1 X15.752 Y96.509 E.02492
G1 X28.732 Y44.564 E1.51023
G1 X28.708 Y44.208 E.01008
G1 X27.932 Y41.407 E.08199
G1 X27.522 Y41.263 F18000
G1 F1500
G1 X41.187 Y27.598 E.54511
G1 X44.227 Y28.44 E.08899
G1 X44.5 Y28.443 E.0077
G1 X96.362 Y15.478 E1.50788
G1 X97.324 Y15.346 E.02737
G1 X98.2 Y15.403 E.02478
G1 X99.076 Y15.645 E.02564
G1 X99.884 Y16.062 E.02564
G1 X100.613 Y16.654 E.02648
G1 X204.754 Y120.796 E4.15424
G1 X205.346 Y121.524 E.02648
G1 X205.763 Y122.332 E.02564
G1 X205.95 Y123.006 E.01973
G1 X206.019 Y123.417 E.01175
G1 X206.064 Y124.115 E.01973
G1 X205.931 Y125.044 E.02648
G1 X192.825 Y177.469 E1.52423
G1 X192.555 Y178.244 E.02316
G1 X192.163 Y178.936 E.02242
G1 X191.637 Y179.567 E.02316
G1 X179.491 Y191.713 E.48454
G1 X178.86 Y192.239 E.02316
G1 X178.168 Y192.631 E.02242
G1 X177.393 Y192.901 E.02316
G1 X124.968 Y206.007 E1.52423
G1 X124.039 Y206.14 E.02648
G1 X123.132 Y206.082 E.02564
G1 X122.256 Y205.839 E.02564
G1 X121.448 Y205.422 E.02564
G1 X120.72 Y204.83 E.02648
G1 X16.578 Y100.689 E4.15424
G1 X15.986 Y99.96 E.02648
G1 X15.569 Y99.152 E.02564
G1 X15.327 Y98.276 E.02564
G1 X15.268 Y97.369 E.02564
G1 X15.401 Y96.44 E.02648
G1 X28.367 Y44.576 E1.50793
G1 X28.364 Y44.303 E.0077
M73 P1 R119
G1 X27.532 Y41.301 E.08786
G1 X27.098 Y41.151 F18000
;TYPE:Outer wall
G1 F1500
G1 X41.075 Y27.174 E.55756
G1 X44.368 Y28.086 E.09638
G1 X96.29 Y15.105 E1.50963
G1 X97.31 Y14.966 E.02903
M73 P1 R118
G1 X98.264 Y15.027 E.02696
G1 X99.215 Y15.291 E.02785
G1 X100.092 Y15.743 E.02785
G1 X100.867 Y16.373 E.02814
G1 X205.036 Y120.542 E4.15534
G1 X205.665 Y121.316 E.02814
G1 X206.117 Y122.193 E.02785
G1 X206.381 Y123.145 E.02785
G1 X206.444 Y124.13 E.02785
G1 X206.303 Y125.117 E.02814
G1 X193.188 Y177.577 E1.52526
G1 X192.901 Y178.401 E.02461
G1 X192.476 Y179.152 E.02435
G1 X191.917 Y179.822 E.02461
G1 X179.746 Y191.993 E.4855
G1 X179.076 Y192.552 E.02461
G1 X178.325 Y192.977 E.02435
G1 X177.501 Y193.264 E.02461
G1 X125.041 Y206.379 E1.52526
G1 X124.054 Y206.52 E.02814
G1 X123.069 Y206.457 E.02785
G1 X122.117 Y206.193 E.02785
G1 X121.24 Y205.741 E.02785
G1 X120.466 Y205.112 E.02814
G1 X16.297 Y100.942 E4.15534
G1 X15.667 Y100.168 E.02814
G1 X15.215 Y99.291 E.02785
G1 X14.951 Y98.34 E.02785
G1 X14.888 Y97.354 E.02785
G1 X15.029 Y96.367 E.02814
G1 X27.715 Y45.624 E1.47534
G1 X27.999 Y44.404 E.03533
G1 X27.109 Y41.19 E.09408
G1 E-2.31 F3600
;WIPE_START
G1 F1500
G1 X28.52 Y39.773 E-.99
;WIPE_END
G1 Z.6 F18000
G1 X174.107 Y113.901 Z.6
G1 Z.2
G1 E3.3 F2400
;TYPE:Inner wall
G1 F1500
G1 X174.82 Y113.482 E.02333
G1 X175.334 Y113.316 E.01522
G1 X175.928 Y113.18 E.01721
G1 X176.618 Y113.155 E.01947
G1 X177.524 Y113.313 E.02595
G1 X178.369 Y113.677 E.02595
G1 X179.139 Y114.252 E.02709
G1 X198.283 Y133.396 E.76366
G1 X198.834 Y134.099 E.02521
G1 X199.253 Y135.018 E.02848
G1 X199.425 Y136.013 E.02848
G1 X199.333 Y137.063 E.02972
G1 X191.113 Y169.944 E.95601
G1 X190.83 Y170.707 E.02297
G1 X190.334 Y171.482 E.02595
G1 X189.67 Y172.12 E.02595
G1 X188.877 Y172.586 E.02595
G1 X188.044 Y172.842 E.02459
G1 X187.791 Y172.887 E.00725
G1 X187.079 Y172.912 E.02009
G1 X186.173 Y172.754 E.02595
G1 X185.328 Y172.39 E.02595
G1 X184.558 Y171.815 E.02709
G1 X165.414 Y152.671 E.76366
G1 X164.863 Y151.968 E.02521
G1 X164.444 Y151.05 E.02848
G1 X164.289 Y150.169 E.02523
G1 X164.277 Y149.763 E.01144
G1 X164.36 Y149.052 E.02021
G1 X172.584 Y116.124 E.95732
G1 X172.867 Y115.36 E.02297
G1 X173.364 Y114.586 E.02595
G1 X174.027 Y113.948 E.02595
G1 X174.072 Y113.921 E.0015
G1 X174.213 Y114.263 F18000
G1 F1500
G1 X174.267 Y114.212 E.00212
G1 X174.993 Y113.794 E.02361
G1 X175.821 Y113.555 E.02431
G1 X176.631 Y113.512 E.02288
G1 X177.454 Y113.663 E.02361
G1 X178.219 Y114.001 E.02361
G1 X178.905 Y114.523 E.02431
G1 X198.03 Y133.649 E.76291
G1 X198.551 Y134.317 E.02391
G1 X198.924 Y135.157 E.0259
G1 X199.071 Y136.063 E.0259
G1 X198.98 Y137.004 E.02667
G1 X190.767 Y169.857 E.95519
G1 X190.496 Y170.581 E.02179
G1 X190.038 Y171.281 E.0236
G1 X189.43 Y171.856 E.02361
G1 X188.705 Y172.273 E.0236
G1 X187.949 Y172.498 E.02224
G1 X187.066 Y172.555 E.02494
G1 X186.243 Y172.404 E.02361
G1 X185.478 Y172.066 E.0236
G1 X184.792 Y171.544 E.02431
G1 X165.667 Y152.419 E.76291
G1 X165.146 Y151.75 E.02391
G1 X164.773 Y150.911 E.0259
G1 X164.642 Y150.118 E.02266
G1 X164.631 Y149.804 E.00885
G1 X164.714 Y149.093 E.02021
G1 X172.931 Y116.21 E.95603
G1 X173.201 Y115.487 E.02179
G1 X173.659 Y114.786 E.0236
G1 X174.184 Y114.291 E.02035
G1 X174.472 Y114.538 F18000
;TYPE:Outer wall
G1 F1500
G1 X174.522 Y114.491 E.00192
G1 X175.176 Y114.125 E.02112
G1 X175.919 Y113.92 E.02175
G1 X176.644 Y113.891 E.02047
G1 X177.379 Y114.034 E.02112
G1 X178.06 Y114.345 E.02112
G1 X178.656 Y114.809 E.0213
G1 X197.763 Y133.916 E.76218
G1 X198.252 Y134.548 E.02254
G1 X198.576 Y135.304 E.02318
G1 X198.697 Y136.117 E.02318
G1 X198.606 Y136.94 E.02337
G1 X190.399 Y169.765 E.95438
G1 X190.142 Y170.447 E.02054
G1 X189.725 Y171.068 E.02112
G1 X189.175 Y171.576 E.02112
G1 X188.522 Y171.942 E.02112
G1 X187.848 Y172.133 E.01976
G1 X187.053 Y172.177 E.02245
G1 X186.318 Y172.033 E.02112
G1 X185.637 Y171.722 E.02112
G1 X185.041 Y171.258 E.0213
G1 X165.934 Y152.151 E.76218
G1 X165.446 Y151.519 E.02254
G1 X165.122 Y150.764 E.02318
G1 X165.017 Y150.065 E.01993
G1 X165.007 Y149.848 E.00611
G1 X165.09 Y149.137 E.02021
G1 X173.298 Y116.302 E.95465
G1 X173.555 Y115.621 E.02054
G1 X173.972 Y114.999 E.02112
G1 X174.443 Y114.565 E.01807
G1 E-2.31 F3600
;WIPE_START
G1 F1500
G1 X174.522 Y114.491 E-.05356
G1 X175.176 Y114.125 E-.37071
G1 X175.919 Y113.92 E-.38175
G1 X176.291 Y113.905 E-.18398
;WIPE_END
G1 Z.6 F18000
G1 X198.183 Y128.752 Z.6
G1 Z.2
G1 E3.3 F2400
;TYPE:Inner wall
G1 F1500
G1 X198.102 Y128.712 E.00256
G1 X197.702 Y128.39 E.01448
G1 X176.471 Y107.159 E.84691
G1 X176.15 Y106.754 E.01457
G1 X175.879 Y106.18 E.0179
G1 X175.77 Y105.58 E.0172
G1 X175.783 Y105.194 E.01089
G1 X175.879 Y104.698 E.01426
G1 X176.083 Y104.224 E.01454
G1 X176.425 Y103.764 E.01616
G1 X177.889 Y102.3 E.0584
G1 X178.294 Y101.98 E.01457
G1 X178.868 Y101.709 E.0179
G1 X179.48 Y101.598 E.01755
G1 X180.118 Y101.648 E.01804
G1 X180.722 Y101.863 E.0181
G1 X181.277 Y102.248 E.01903
G1 X201.712 Y122.683 E.81516
G1 X202.028 Y123.081 E.01434
G1 X202.298 Y123.644 E.01762
G1 X202.415 Y124.258 E.01762
G1 X202.369 Y124.92 E.01873
G1 X201.784 Y127.259 E.068
G1 X201.529 Y127.88 E.01892
G1 X201.19 Y128.336 E.01606
G1 X200.753 Y128.701 E.01606
G1 X200.243 Y128.955 E.01605
G1 X199.689 Y129.083 E.01606
G1 X199.12 Y129.079 E.01605
G1 X198.567 Y128.943 E.01606
G1 X198.219 Y128.77 E.01097
G1 X198.341 Y128.431 F18000
G1 F1500
G1 X198.282 Y128.401 E.00185
G1 X197.954 Y128.137 E.01188
G1 X176.723 Y106.907 E.84691
G1 X176.394 Y106.478 E.01522
G1 X176.209 Y106.043 E.01334
G1 X176.124 Y105.533 E.01458
G1 X176.173 Y104.969 E.01596
G1 X176.363 Y104.462 E.01528
G1 X176.693 Y104.001 E.01599
G1 X178.141 Y102.553 E.05777
G1 X178.572 Y102.223 E.0153
G1 X179.076 Y102.015 E.01539
G1 X179.662 Y101.951 E.01664
G1 X180.213 Y102.039 E.01573
G1 X180.688 Y102.25 E.01466
G1 X181.077 Y102.553 E.0139
G1 X201.459 Y122.935 E.81307
G1 X201.789 Y123.365 E.01527
G1 X201.991 Y123.848 E.01478
G1 X202.063 Y124.445 E.01695
G1 X202.005 Y124.905 E.01308
G1 X201.438 Y127.173 E.06594
G1 X201.234 Y127.679 E.0154
G1 X200.949 Y128.072 E.01371
G1 X200.58 Y128.389 E.01371
G1 X200.148 Y128.611 E.0137
G1 X199.676 Y128.726 E.01371
G1 X199.19 Y128.729 E.01371
G1 X198.717 Y128.619 E.01371
G1 X198.377 Y128.449 E.01073
G1 X198.502 Y128.092 F18000
;TYPE:Outer wall
G1 F1500
G1 X198.222 Y127.87 E.0101
G1 X176.991 Y106.639 E.84691
G1 X176.708 Y106.259 E.01336
G1 X176.559 Y105.898 E.011
G1 X176.496 Y105.418 E.01366
G1 X176.559 Y104.979 E.01251
G1 X176.734 Y104.572 E.01251
G1 X176.991 Y104.239 E.01186
G1 X178.409 Y102.82 E.05657
G1 X178.777 Y102.543 E.01301
G1 X179.189 Y102.378 E.01251
G1 X179.616 Y102.327 E.01213
G1 X180.068 Y102.389 E.01288
G1 X180.476 Y102.563 E.01252
G1 X180.809 Y102.821 E.01186
G1 X201.192 Y123.203 E.81307
G1 X201.466 Y123.565 E.0128
G1 X201.63 Y123.969 E.01231
G1 X201.687 Y124.402 E.01231
G1 X201.638 Y124.813 E.01167
G1 X201.071 Y127.081 E.06594
G1 X200.921 Y127.466 E.01166
G1 X200.694 Y127.793 E.01122
G1 X200.397 Y128.058 E.01122
G1 X200.047 Y128.246 E.01122
G1 X199.663 Y128.348 E.01122
G1 X199.265 Y128.358 E.01122
G1 X198.876 Y128.275 E.01122
G1 X198.536 Y128.113 E.01063
G1 E-2.31 F3600
;WIPE_START
G1 F1500
G1 X198.222 Y127.87 E-.19671
G1 X197.088 Y126.737 E-.79329
;WIPE_END
G1 Z.6 F18000
G1 X144.773 Y87.079 Z.6
G1 Z.2
G1 E3.3 F2400
;TYPE:Inner wall
G1 F1500
G1 X145.196 Y86.418 E.02213
G1 X145.586 Y86.03 E.01553
G1 X146.029 Y85.659 E.0163
G1 X146.653 Y85.314 E.02009
G1 X147.561 Y85.043 E.02673
G1 X148.451 Y84.988 E.02516
G1 X149.357 Y85.146 E.02595
G1 X150.202 Y85.51 E.02595
G1 X150.972 Y86.085 E.02709
G1 X170.116 Y105.229 E.76366
G1 X170.754 Y106.069 E.02975
G1 X171.077 Y106.828 E.02327
G1 X171.166 Y107.204 E.01091
G1 X171.258 Y107.849 E.01837
G1 X171.211 Y108.501 E.01844
G1 X171.1 Y109.159 E.01883
G1 X162.946 Y141.777 E.94835
G1 X162.648 Y142.564 E.02374
G1 X162.166 Y143.314 E.02516
G1 X161.503 Y143.952 E.02595
G1 X160.71 Y144.418 E.02595
G1 X159.979 Y144.646 E.02161
G1 X159.561 Y144.722 E.01197
G1 X158.912 Y144.745 E.01832
G1 X158.152 Y144.617 E.02173
G1 X157.807 Y144.522 E.0101
G1 X157.161 Y144.223 E.02009
G1 X156.391 Y143.648 E.02709
G1 X150.661 Y137.918 E.22857
G1 X137.247 Y124.504 E.53509
G1 X136.696 Y123.801 E.02521
G1 X136.276 Y122.882 E.02848
G1 X136.105 Y121.887 E.02848
G1 X136.193 Y120.884 E.0284
G1 X136.341 Y120.258 E.01815
G1 X144.417 Y87.956 E.93917
G1 X144.7 Y87.193 E.02297
G1 X144.751 Y87.113 E.00269
G1 X145.069 Y87.265 F18000
G1 F1500
G1 X145.492 Y86.619 E.02176
G1 X146.1 Y86.044 E.02361
G1 X146.826 Y85.627 E.02361
G1 X147.654 Y85.388 E.02431
G1 X148.464 Y85.345 E.02288
G1 X149.287 Y85.496 E.02361
G1 X150.052 Y85.834 E.0236
G1 X150.738 Y86.356 E.02431
G1 X169.863 Y105.481 E.76291
G1 X170.384 Y106.15 E.02391
G1 X170.748 Y106.967 E.02521
G1 X170.849 Y107.51 E.01559
G1 X170.906 Y108.033 E.01486
G1 X170.816 Y108.807 E.02197
G1 X170.675 Y109.388 E.01686
G1 X162.599 Y141.69 E.93917
G1 X162.315 Y142.435 E.02249
M73 P1 R117
G1 X161.871 Y143.114 E.02288
G1 X161.263 Y143.688 E.02361
G1 X160.537 Y144.106 E.02361
G1 X159.883 Y144.302 E.01926
G1 X159.548 Y144.365 E.00961
G1 X158.899 Y144.388 E.01832
G1 X158.223 Y144.266 E.01939
G1 X157.957 Y144.198 E.00774
G1 X157.311 Y143.899 E.02009
G1 X156.625 Y143.377 E.02431
G1 X150.914 Y137.666 E.22782
G1 X137.5 Y124.252 E.53509
G1 X136.979 Y123.583 E.02391
G1 X136.606 Y122.744 E.0259
G1 X136.459 Y121.837 E.0259
G1 X136.547 Y120.926 E.02583
G1 X136.688 Y120.345 E.01686
G1 X144.763 Y88.043 E.93917
G1 X145.034 Y87.319 E.02179
G1 X145.048 Y87.298 E.00072
G1 X145.378 Y87.478 F18000
;TYPE:Outer wall
G1 F1500
G1 X145.388 Y87.454 E.00074
G1 X145.805 Y86.832 E.02112
G1 X146.355 Y86.324 E.02112
G1 X147.009 Y85.958 E.02112
G1 X147.752 Y85.753 E.02175
G1 X148.477 Y85.723 E.02047
G1 X149.212 Y85.867 E.02112
G1 X149.893 Y86.178 E.02112
G1 X150.488 Y86.642 E.0213
G1 X169.595 Y105.749 E.76218
G1 X170.084 Y106.381 E.02254
G1 X170.399 Y107.114 E.02248
G1 X170.529 Y107.949 E.02386
G1 X170.44 Y108.763 E.0231
G1 X170.308 Y109.296 E.01549
G1 X162.232 Y141.598 E.93917
G1 X161.962 Y142.299 E.02117
G1 X161.558 Y142.901 E.02047
G1 X161.008 Y143.409 E.02112
G1 X160.354 Y143.775 E.02112
G1 X159.782 Y143.938 E.01677
G1 X159.535 Y143.986 E.00711
G1 X158.886 Y144.01 E.01832
G1 X158.116 Y143.854 E.02215
