; HEADER_BLOCK_START
; generated by OrcaSlicer 2.3.1-dev on 2025-12-19 at 16:09:03
; total layer number: 40
; filament_density: 1.24,1.27
; filament_diameter: 1.75,1.75
; max_z_height: 8.00
; HEADER_BLOCK_END

; THUMBNAIL_BLOCK_START

;
; THUMBNAIL_BLOCK_END

; THUMBNAIL_BLOCK_START

;
; THUMBNAIL_BLOCK_END

; external perimeters extrusion width = 0.40mm
; perimeters extrusion width = 0.45mm
; infill extrusion width = 0.45mm
; solid infill extrusion width = 0.40mm
; top infill extrusion width = 0.40mm
; support material extrusion width = 0.40mm
; first layer extrusion width = 0.40mm

; external perimeters extrusion width = 0.40mm
; perimeters extrusion width = 0.45mm
; infill extrusion width = 0.45mm
; solid infill extrusion width = 0.40mm
; top infill extrusion width = 0.40mm
; support material extrusion width = 0.40mm
; first layer extrusion width = 0.40mm

; EXECUTABLE_BLOCK_START
M73 P0 R8
;TYPE:Custom
start_print BED_TEMP=60 EXTRUDER_TEMP=210 CHAMBER_TEMP=0

G90
G21
M83 ; use relative distances for extrusion
; filament start gcode
; MANUAL_TOOL_CHANGE T0
;LAYER_CHANGE
;Z:0.2
;HEIGHT:0.2
;BEFORE_LAYER_CHANGE
;0.2
G92 E0

G1 E-3.3 F3600
;_SET_FAN_SPEED_CHANGING_LAYER
SET_VELOCITY_LIMIT ACCEL=300 ACCEL_TO_DECEL=150
SET_VELOCITY_LIMIT SQUARE_CORNER_VELOCITY=8
SET_VELOCITY_LIMIT SQUARE_CORNER_VELOCITY=8
G1 Z.6 F18000
G1 X82.408 Y97.669
G1 Z.6
G1 Z.2
G1 E3.3 F2400
;TYPE:Skirt
;WIDTH:0.4
G1 F3000
G1 X82.715 Y97.492 E.01031
G1 X84.025 Y97.046 E.04027
G1 X85.057 Y96.864 E.03051
G1 X89.72 Y96.864 E.13565
G1 X111.322 Y98.339 E.63004
G1 X112.489 Y98.531 E.0344
G1 X113.923 Y98.939 E.04339
G1 X115.093 Y99.427 E.03688
G1 X116.392 Y100.158 E.04338
G1 X117.35 Y100.851 E.03441
G1 X118.234 Y101.637 E.03441
G1 X119.033 Y102.508 E.03441
G1 X119.741 Y103.455 E.0344
G1 X120.351 Y104.469 E.03441
G1 X120.855 Y105.538 E.0344
G1 X121.466 Y107.499 E.05977
G1 X121.66 Y108.665 E.0344
G1 X121.735 Y109.845 E.03441
G1 X121.691 Y111.027 E.03441
G1 X121.528 Y112.198 E.0344
G1 X121.249 Y113.347 E.03441
G1 X120.855 Y114.462 E.03441
G1 X120.39 Y115.456 E.03193
G1 X119.789 Y116.474 E.0344
G1 X119.033 Y117.492 E.03688
G1 X118.01 Y118.577 E.04338
G1 X117.107 Y119.339 E.03441
G1 X116.058 Y120.051 E.03688
G1 X115.016 Y120.61 E.03441
G1 X113.63 Y121.16 E.04338
G1 X112.405 Y121.486 E.03688
G1 X111.237 Y121.67 E.03441
G1 X89.834 Y123.646 E.62542
G1 X85.213 Y123.657 E.13446
G1 X84.098 Y123.49 E.0328
G1 X82.813 Y123.073 E.03931
G1 X78.676 Y120.692 E.13889
G1 X77.869 Y120.017 E.03061
G1 X76.96 Y118.978 E.04017
G1 X74.627 Y114.936 E.1358
G1 X74.266 Y113.948 E.03061
G1 X73.998 Y112.594 E.04017
G1 X73.998 Y107.926 E.1358
G1 X74.18 Y106.89 E.03061
G1 X74.578 Y105.679 E.0371
G1 X77.017 Y101.453 E.14198
G1 X77.924 Y100.447 E.03941
G1 X78.805 Y99.745 E.03278
G1 X82.373 Y97.689 E.11982
G1 X82.551 Y97.998 F18000
G1 F3000
G1 X82.874 Y97.812 E.01086
G1 X84.117 Y97.39 E.03818
G1 X85.212 Y97.216 E.03227
G1 X89.699 Y97.22 E.13055
G1 X111.277 Y98.694 E.62934
G1 X112.408 Y98.879 E.03336
G1 X113.808 Y99.278 E.04234
G1 X114.934 Y99.747 E.03549
G1 X115.94 Y100.295 E.03336
G1 X116.887 Y100.942 E.03336
G1 X117.763 Y101.681 E.03336
G1 X118.513 Y102.449 E.03123
G1 X119.229 Y103.344 E.03336
G1 X119.852 Y104.307 E.03336
G1 X120.375 Y105.327 E.03336
G1 X120.793 Y106.395 E.03336
G1 X121.101 Y107.499 E.03336
G1 X121.366 Y109.463 E.05768
G1 X121.363 Y110.61 E.03336
G1 X121.244 Y111.75 E.03336
G1 X121.01 Y112.873 E.03336
G1 X120.665 Y113.966 E.03336
M73 P1 R8
G1 X120.212 Y115.019 E.03336
G1 X119.655 Y116.021 E.03336
G1 X118.808 Y117.204 E.04234
G1 X117.986 Y118.105 E.03548
G1 X117.13 Y118.868 E.03336
G1 X115.94 Y119.705 E.04234
G1 X114.867 Y120.285 E.03549
G1 X113.515 Y120.822 E.04234
G1 X112.337 Y121.136 E.03549
G1 X111.204 Y121.314 E.03336
G1 X89.812 Y123.29 E.6251
G1 X85.213 Y123.3 E.13383
G1 X84.18 Y123.142 E.0304
G1 X82.972 Y122.754 E.03692
G1 X78.873 Y120.394 E.13763
G1 X78.122 Y119.764 E.02852
G1 X77.258 Y118.781 E.03809
G1 X74.946 Y114.777 E.13454
G1 X74.611 Y113.856 E.02852
G1 X74.355 Y112.572 E.03809
G1 X74.355 Y107.948 E.13454
G1 X74.525 Y106.983 E.02852
G1 X74.897 Y105.838 E.03502
G1 X77.315 Y101.65 E.14072
G1 X78.169 Y100.707 E.03701
G1 X78.983 Y100.054 E.03038
G1 X82.517 Y98.018 E.11865
; printing object kazooWasher.stl id:3152 copy 0
G1 E-2.31 F3600
;WIPE_START
G1 F3000
G1 X82.874 Y97.812 E-.20449
G1 X84.117 Y97.39 E-.64948
G1 X84.388 Y97.347 E-.13603
;WIPE_END
G1 Z.6 F18000
G1 X103.754 Y104.686 Z.6
G1 Z.2
G1 E3.3 F2400
;TYPE:Inner wall
;WIDTH:0.480962
G1 F1500
G1 X103.999 Y104.402 E.01339
;WIDTH:0.481729
G1 X104.671 Y103.749 E.03354
;WIDTH:0.485062
G1 X105.196 Y103.332 E.02413
G1 X105.985 Y102.832 E.03367
;WIDTH:0.486057
G1 X106.596 Y102.519 E.0248
;WIDTH:0.489636
G1 X107.367 Y102.216 E.03015
G1 X108.163 Y101.989 E.03014
;WIDTH:0.490202
G1 X108.979 Y101.846 E.03018
G1 X109.811 Y101.783 E.03041
;WIDTH:0.488889
G1 X110.608 Y101.805 E.02895
;WIDTH:0.483605
G1 X111.268 Y101.886 E.0239
;WIDTH:0.480864
G1 X112.181 Y102.082 E.03334
;WIDTH:0.480754
G1 X112.797 Y102.278 E.02306
;WIDTH:0.483122
G1 X113.418 Y102.529 E.024
G1 X114.243 Y102.967 E.03351
;WIDTH:0.484086
G1 X114.803 Y103.333 E.02407
G1 X115.544 Y103.939 E.03441
;WIDTH:0.481978
G1 X116.196 Y104.609 E.03344
;WIDTH:0.482693
G1 X116.616 Y105.13 E.02399
G1 X117.125 Y105.913 E.03348
;WIDTH:0.483553
G1 X117.428 Y106.484 E.02322
;WIDTH:0.487604
G1 X117.717 Y107.171 E.02699
G1 X117.97 Y107.992 E.03114
;WIDTH:0.488572
G1 X118.127 Y108.773 E.02894
G1 X118.21 Y109.597 E.03007
;WIDTH:0.485829
G1 X118.206 Y110.461 E.03118
;WIDTH:0.48702
G1 X118.124 Y111.249 E.02868
G1 X117.941 Y112.116 E.03206
G1 X117.71 Y112.85 E.02787
;WIDTH:0.490466
G1 X117.382 Y113.611 E.0302
G1 X116.983 Y114.336 E.0302
;WIDTH:0.491059
G1 X116.506 Y115.021 E.03047
G1 X116.115 Y115.49 E.02227
;WIDTH:0.484395
G1 X115.451 Y116.147 E.03363
;WIDTH:0.485575
G1 X114.934 Y116.574 E.02416
G1 X114.155 Y117.089 E.03371
;WIDTH:0.486349
G1 X113.53 Y117.423 E.0256
;WIDTH:0.489891
G1 X112.765 Y117.739 E.03016
G1 X111.966 Y117.981 E.03039
;WIDTH:0.487282
G1 X111.436 Y118.094 E.01963
;WIDTH:0.485991
G1 X110.507 Y118.201 E.03374
;WIDTH:0.487189
G1 X109.782 Y118.216 E.02625
G1 X108.883 Y118.141 E.03266
;WIDTH:0.484189
G1 X107.966 Y117.959 E.03361
;WIDTH:0.485336
G1 X107.324 Y117.771 E.02414
G1 X106.46 Y117.414 E.03369
;WIDTH:0.486217
G1 X105.842 Y117.09 E.02523
;WIDTH:0.489778
G1 X105.15 Y116.633 E.03016
G1 X104.506 Y116.113 E.03015
;WIDTH:0.490307
G1 X103.92 Y115.528 E.03019
G1 X103.392 Y114.885 E.03034
;WIDTH:0.48894
G1 X102.955 Y114.225 E.02876
;WIDTH:0.483987
G1 X102.633 Y113.639 E.02404
G1 X102.263 Y112.756 E.0344
;WIDTH:0.481921
G1 X101.997 Y111.841 E.0341
;WIDTH:0.480922
G1 X101.848 Y110.989 E.03087
;WIDTH:0.481127
G1 X101.792 Y110.252 E.02638
G1 X101.811 Y109.388 E.03087
;WIDTH:0.481421
G1 X101.895 Y108.672 E.02573
;WIDTH:0.484504
G1 X102.026 Y108.016 E.02408
G1 X102.312 Y107.107 E.03429
;WIDTH:0.484213
G1 X102.655 Y106.317 E.03098
G1 X103.018 Y105.677 E.02644
;WIDTH:0.480962
G1 X103.511 Y104.967 E.03086
G1 X103.727 Y104.717 E.01181
G1 X103.436 Y104.413 F18000
;WIDTH:0.399999
G1 F1500
G1 X104.25 Y103.578 E.03394
G1 X104.922 Y103.034 E.02515
G1 X105.649 Y102.558 E.02527
G1 X106.419 Y102.158 E.02527
G1 X107.227 Y101.838 E.02527
G1 X108.062 Y101.6 E.02528
G1 X108.917 Y101.448 E.02527
G1 X109.788 Y101.382 E.02542
G1 X110.363 Y101.386 E.01671
G1 X110.935 Y101.43 E.01671
G1 X111.798 Y101.569 E.02542
G1 X112.284 Y101.698 E.01464
G1 X112.938 Y101.906 E.01997
G1 X113.595 Y102.172 E.02063
G1 X114.455 Y102.63 E.02835
G1 X115.049 Y103.018 E.02065
G1 X115.82 Y103.651 E.02902
G1 X116.499 Y104.351 E.02836
M73 P2 R8
G1 X116.944 Y104.903 E.02064
G1 X117.473 Y105.721 E.02835
G1 X117.795 Y106.328 E.01998
G1 X118.1 Y107.051 E.02284
G1 X118.362 Y107.912 E.02617
G1 X118.526 Y108.733 E.02436
G1 X118.61 Y109.597 E.02527
G1 X118.61 Y110.434 E.02436
G1 X118.523 Y111.298 E.02527
G1 X118.349 Y112.15 E.02527
G1 X118.09 Y112.979 E.02527
G1 X117.75 Y113.778 E.02527
G1 X117.33 Y114.538 E.02527
G1 X116.833 Y115.257 E.02542
G1 X116.472 Y115.696 E.01657
G1 X115.862 Y116.322 E.02542
G1 X115.196 Y116.879 E.02527
G1 X114.477 Y117.367 E.02527
G1 X113.713 Y117.78 E.02527
G1 X112.911 Y118.114 E.02527
G1 X112.075 Y118.368 E.02542
G1 X111.518 Y118.486 E.01657
G1 X110.652 Y118.596 E.02542
G1 X109.783 Y118.618 E.02527
G1 X108.917 Y118.552 E.02527
G1 X108.062 Y118.4 E.02527
G1 X107.227 Y118.162 E.02527
G1 X106.419 Y117.842 E.02528
G1 X105.649 Y117.442 E.02527
G1 X104.922 Y116.966 E.02528
G1 X104.247 Y116.419 E.02527
G1 X103.63 Y115.808 E.02527
G1 X103.076 Y115.135 E.02537
G1 X102.711 Y114.601 E.01879
G1 X102.317 Y113.908 E.02322
G1 X101.962 Y113.114 E.0253
G1 X101.689 Y112.289 E.02527
G1 X101.501 Y111.441 E.02527
G1 X101.399 Y110.579 E.02527
G1 X101.385 Y109.71 E.02527
G1 X101.458 Y108.845 E.02527
G1 X101.617 Y107.991 E.02527
G1 X101.862 Y107.158 E.02527
G1 X102.191 Y106.349 E.02541
G1 X102.45 Y105.84 E.01659
G1 X102.909 Y105.098 E.0254
G1 X103.411 Y104.445 E.02398
G1 X103.149 Y104.165 F18000
;TYPE:Outer wall
G1 F1500
G1 X103.995 Y103.298 E.03524
G1 X104.699 Y102.728 E.02635
G1 X105.457 Y102.231 E.02639
G1 X106.262 Y101.814 E.02638
G1 X107.105 Y101.479 E.02638
G1 X107.977 Y101.231 E.02639
G1 X108.87 Y101.072 E.02638
G1 X109.776 Y101.003 E.02643
G1 X110.379 Y101.008 E.01755
G1 X110.98 Y101.054 E.01755
G1 X111.877 Y101.198 E.02643
G1 X112.381 Y101.332 E.01519
G1 X113.072 Y101.552 E.02108
G1 X113.764 Y101.833 E.02174
G1 X114.657 Y102.31 E.02946
G1 X115.282 Y102.72 E.02176
G1 X116.082 Y103.378 E.03013
G1 X116.787 Y104.105 E.02947
G1 X117.255 Y104.688 E.02175
G1 X117.805 Y105.538 E.02946
G1 X118.143 Y106.179 E.02109
G1 X118.461 Y106.939 E.02395
G1 X118.733 Y107.836 E.02728
G1 X118.903 Y108.695 E.02547
G1 X118.989 Y109.597 E.02637
G1 X118.989 Y110.453 E.02492
G1 X118.898 Y111.356 E.02639
G1 X118.716 Y112.244 E.02639
G1 X118.446 Y113.11 E.02638
G1 X118.09 Y113.944 E.02639
G1 X117.652 Y114.738 E.02639
G1 X117.136 Y115.485 E.02643
G1 X116.754 Y115.949 E.0175
G1 X116.119 Y116.6 E.02643
G1 X115.424 Y117.182 E.02639
G1 X114.674 Y117.691 E.02639
G1 X113.876 Y118.122 E.02638
G1 X113.039 Y118.471 E.02639
G1 X112.17 Y118.735 E.02643
G1 X111.582 Y118.86 E.01749
G1 X110.68 Y118.974 E.02644
G1 X109.774 Y118.997 E.02638
G1 X108.87 Y118.928 E.02639
G1 X107.977 Y118.769 E.02639
G1 X107.105 Y118.521 E.02639
G1 X106.262 Y118.186 E.02639
G1 X105.457 Y117.769 E.02638
G1 X104.699 Y117.272 E.02639
G1 X103.994 Y116.702 E.02639
G1 X103.35 Y116.063 E.02639
G1 X102.773 Y115.362 E.02642
G1 X102.39 Y114.802 E.01974
G1 X101.979 Y114.079 E.0242
G1 X101.609 Y113.251 E.02639
G1 X101.324 Y112.39 E.02639
G1 X101.128 Y111.505 E.02638
G1 X101.021 Y110.604 E.02639
G1 X101.006 Y109.698 E.02638
G1 X101.082 Y108.794 E.02639
G1 X101.249 Y107.903 E.02638
G1 X101.504 Y107.033 E.02639
G1 X101.847 Y106.191 E.02643
G1 X102.119 Y105.655 E.01751
G1 X102.597 Y104.883 E.02642
G1 X103.125 Y104.196 E.02518
G1 E-2.31 F3600
;WIPE_START
G1 F1500
G1 X103.995 Y103.298 E-.61914
G1 X104.577 Y102.826 E-.37086
;WIPE_END
G1 Z.6 F18000
G1 X117.115 Y113.128 Z.6
G1 Z.2
G1 E3.3 F2400
;TYPE:Inner wall
;WIDTH:0.481231
G1 F1500
G1 X116.749 Y113.862 E.02927
G1 X116.417 Y114.392 E.02235
;WIDTH:0.485277
G1 X115.873 Y115.098 E.03212
;WIDTH:0.487257
G1 X115.28 Y115.708 E.03081
G1 X114.758 Y116.152 E.02479
;WIDTH:0.486072
G1 X114.03 Y116.652 E.03192
G1 X113.475 Y116.957 E.02284
;WIDTH:0.482332
G1 X112.922 Y117.206 E.02174
;WIDTH:0.481795
G1 X112.078 Y117.492 E.03186
;WIDTH:0.484322
G1 X111.47 Y117.637 E.02251
;WIDTH:0.485654
G1 X110.586 Y117.755 E.03214
G1 X109.961 Y117.776 E.02258
;WIDTH:0.48447
G1 X109.071 Y117.721 E.03207
;WIDTH:0.487472
G1 X108.243 Y117.574 E.03046
G1 X107.574 Y117.388 E.02516
M73 P3 R8
;WIDTH:0.486314
G1 X106.76 Y117.069 E.03158
G1 X106.188 Y116.778 E.02321
;WIDTH:0.482492
G1 X105.671 Y116.459 E.02175
;WIDTH:0.481908
G1 X104.961 Y115.921 E.03186
;WIDTH:0.48315
G1 X104.501 Y115.497 E.02245
;WIDTH:0.481381
G1 X103.909 Y114.831 E.03184
;WIDTH:0.48725
G1 X103.423 Y114.145 E.03044
G1 X103.077 Y113.543 E.02514
;WIDTH:0.487677
G1 X102.748 Y112.8 E.02944
;WIDTH:0.489758
G1 X102.507 Y112.059 E.02839
;WIDTH:0.489964
G1 X102.339 Y111.297 E.02842
G1 X102.244 Y110.518 E.02858
;WIDTH:0.489595
G1 X102.234 Y109.735 E.02851
G1 X102.297 Y108.953 E.02856
;WIDTH:0.487466
G1 X102.427 Y108.231 E.02659
;WIDTH:0.487154
G1 X102.663 Y107.427 E.03031
;WIDTH:0.488446
G1 X102.964 Y106.696 E.0287
G1 X103.335 Y105.996 E.02876
;WIDTH:0.481318
G1 X103.799 Y105.311 E.02955
G1 X104.239 Y104.781 E.02462
;WIDTH:0.487271
G1 X104.825 Y104.198 E.02991
G1 X105.364 Y103.757 E.02522
;WIDTH:0.486587
G1 X106.084 Y103.282 E.03117
G1 X106.662 Y102.977 E.02365
;WIDTH:0.482687
G1 X107.221 Y102.739 E.02176
;WIDTH:0.482047
G1 X108.07 Y102.468 E.03188
G1 X108.681 Y102.337 E.02239
;WIDTH:0.481481
G1 X109.567 Y102.237 E.03185
;WIDTH:0.489246
G1 X110.334 Y102.234 E.0279
G1 X110.838 Y102.271 E.01838
;WIDTH:0.490844
G1 X111.621 Y102.401 E.02898
G1 X112.38 Y102.599 E.02861
;WIDTH:0.487524
G1 X113.118 Y102.875 E.02857
;WIDTH:0.48854
G1 X113.818 Y103.229 E.02848
G1 X114.456 Y103.625 E.02728
;WIDTH:0.487573
G1 X115.099 Y104.13 E.02961
;WIDTH:0.489696
G1 X115.659 Y104.673 E.02838
G1 X116.171 Y105.266 E.02854
;WIDTH:0.488978
G1 X116.613 Y105.914 E.0285
G1 X116.992 Y106.593 E.02826
;WIDTH:0.485273
G1 X117.235 Y107.149 E.02189
;WIDTH:0.484052
G1 X117.514 Y107.995 E.03202
G1 X117.65 Y108.606 E.0225
;WIDTH:0.483095
G1 X117.76 Y109.49 E.03196
;WIDTH:0.484529
G1 X117.769 Y110.33 E.03022
G1 X117.71 Y111.017 E.02481
G1 X117.542 Y111.898 E.03228
G1 X117.364 Y112.498 E.02251
;WIDTH:0.481479
G1 X117.146 Y113.065 E.0217
;WIDTH:0.481231
G1 X117.132 Y113.093 E.00112
G1 X116.76 Y112.953 F18000
;WIDTH:0.399999
G1 F1500
G1 X116.394 Y113.682 E.02375
G1 X116.081 Y114.179 E.01708
G1 X115.558 Y114.852 E.0248
G1 X114.995 Y115.426 E.0234
G1 X114.504 Y115.845 E.01878
G1 X113.805 Y116.321 E.02459
G1 X113.285 Y116.607 E.01727
G1 X112.76 Y116.843 E.01676
G1 X111.952 Y117.115 E.02479
G1 X111.381 Y117.248 E.01708
G1 X110.536 Y117.358 E.02479
G1 X109.949 Y117.378 E.01708
G1 X109.098 Y117.322 E.0248
G1 X108.317 Y117.18 E.02311
G1 X107.685 Y117.006 E.01907
G1 X106.909 Y116.698 E.0243
G1 X106.371 Y116.424 E.01756
G1 X105.881 Y116.121 E.01677
G1 X105.203 Y115.605 E.02479
G1 X104.773 Y115.206 E.01708
G1 X104.207 Y114.568 E.02481
G1 X103.752 Y113.917 E.02311
G1 X103.426 Y113.349 E.01907
G1 X103.116 Y112.64 E.0225
G1 X102.892 Y111.943 E.02132
G1 X102.734 Y111.225 E.02137
G1 X102.644 Y110.484 E.02172
G1 X102.636 Y109.741 E.02162
G1 X102.695 Y108.997 E.02172
G1 X102.819 Y108.308 E.02037
G1 X103.047 Y107.543 E.02323
G1 X103.333 Y106.855 E.02168
G1 X103.684 Y106.187 E.02195
G1 X104.127 Y105.536 E.02291
G1 X104.543 Y105.035 E.01896
G1 X105.104 Y104.486 E.02284
G1 X105.613 Y104.069 E.01913
G1 X106.302 Y103.618 E.02396
G1 X106.845 Y103.33 E.0179
G1 X107.376 Y103.105 E.01676
G1 X108.188 Y102.848 E.02479
G1 X108.762 Y102.726 E.01708
G1 X109.61 Y102.633 E.0248
G1 X110.33 Y102.636 E.02097
G1 X111.056 Y102.698 E.0212
G1 X111.891 Y102.869 E.02479
G1 X112.452 Y103.041 E.01707
G1 X112.97 Y103.246 E.01622
G1 X113.634 Y103.585 E.02168
G1 X114.239 Y103.96 E.02072
G1 X114.849 Y104.444 E.02265
G1 X115.373 Y104.956 E.02132
G1 X115.86 Y105.519 E.02167
G1 X116.278 Y106.136 E.02168
G1 X116.639 Y106.78 E.02148
G1 X116.87 Y107.308 E.01676
G1 X117.134 Y108.118 E.02479
G1 X117.262 Y108.691 E.01708
G1 X117.364 Y109.537 E.0248
G1 X117.37 Y110.332 E.02312
G1 X117.313 Y110.981 E.01896
G1 X117.15 Y111.821 E.0249
G1 X116.983 Y112.383 E.01707
G1 X116.778 Y112.917 E.01664
G1 X116.423 Y112.784 F18000
;TYPE:Outer wall
G1 F1500
G1 X116.056 Y113.511 E.02372
G1 X115.762 Y113.976 E.01601
G1 X115.26 Y114.619 E.02373
G1 X114.726 Y115.16 E.02211
G1 X114.262 Y115.553 E.01771
G1 X113.593 Y116.007 E.02352
G1 X113.105 Y116.274 E.0162
G1 X112.606 Y116.497 E.01591
G1 X111.833 Y116.756 E.02372
G1 X111.296 Y116.879 E.01601
G1 X110.488 Y116.983 E.02372
G1 X109.938 Y117 E.01601
G1 X109.124 Y116.945 E.02373
G1 X108.387 Y116.808 E.02182
G1 X107.791 Y116.642 E.018
G1 X107.05 Y116.346 E.02323
