; HEADER_BLOCK_START
; generated by OrcaSlicer 2.3.1-dev on 2025-12-21 at 22:35:10
; total layer number: 15
; filament_density: 1.24,1.24
; filament_diameter: 1.75,1.75
; max_z_height: 3.00
; HEADER_BLOCK_END

; THUMBNAIL_BLOCK_START

;
; THUMBNAIL_BLOCK_END

; THUMBNAIL_BLOCK_START

;
; THUMBNAIL_BLOCK_END

; external perimeters extrusion width = 0.40mm
; perimeters extrusion width = 0.45mm
; infill extrusion width = 0.45mm
; solid infill extrusion width = 0.40mm
; top infill extrusion width = 0.40mm
; support material extrusion width = 0.40mm
; first layer extrusion width = 0.40mm

; EXECUTABLE_BLOCK_START
M73 P0 R13
M73 C8
;TYPE:Custom
start_print BED_TEMP=60 EXTRUDER_TEMP=210 CHAMBER_TEMP=0

G90
G21
M83 ; use relative distances for extrusion
; filament start gcode
; MANUAL_TOOL_CHANGE T0
;LAYER_CHANGE
;Z:0.2
;HEIGHT:0.2
;BEFORE_LAYER_CHANGE
;0.2
G92 E0

G1 E-3.3 F3600
;_SET_FAN_SPEED_CHANGING_LAYER
SET_VELOCITY_LIMIT ACCEL=300 ACCEL_TO_DECEL=150
SET_VELOCITY_LIMIT SQUARE_CORNER_VELOCITY=8
SET_VELOCITY_LIMIT SQUARE_CORNER_VELOCITY=8
G1 Z.3 F18000
G1 X99.788 Y82.702
G1 Z.3
G1 Z.2
G1 E3.3 F2400
;TYPE:Skirt
;WIDTH:0.4
G1 F3000
G1 X100.096 Y81.795 E.02789
G1 X100.457 Y80.946 E.02682
G1 X100.868 Y80.257 E.02336
G1 X101.423 Y79.573 E.02563
G1 X102.069 Y79 E.02512
G1 X102.816 Y78.541 E.02552
G1 X103.38 Y78.309 E.01774
G1 X103.988 Y78.153 E.01826
G1 X104.901 Y78.084 E.02664
G1 X129.519 Y79.241 E.71711
G1 X130.731 Y79.509 E.03612
G1 X131.807 Y80.094 E.03565
G1 X132.834 Y81.102 E.04185
G1 X133.558 Y82.343 E.0418
G1 X141.973 Y105.958 E.72948
G1 X142.234 Y107.17 E.03605
G1 X142.241 Y107.873 E.02047
G1 X142.116 Y108.618 E.02197
G1 X141.832 Y109.353 E.02294
G1 X141.169 Y110.284 E.03324
G1 X118.007 Y133.447 E.95316
G1 X117.367 Y133.918 E.0231
G1 X116.775 Y134.15 E.01852
G1 X116.13 Y134.248 E.01897
G1 X115.149 Y134.141 E.0287
G1 X114.406 Y133.869 E.02305
G1 X113.71 Y133.403 E.02435
G1 X94.421 Y116.354 E.74909
G1 X91.874 Y113.474 E.11187
G1 X91.192 Y112.403 E.03695
G1 X90.877 Y111.437 E.02955
G1 X90.761 Y110.489 E.02781
G1 X90.79 Y109.638 E.02476
G1 X90.958 Y108.696 E.02784
G1 X99.775 Y82.74 E.79765
G1 X100.113 Y82.855 F18000
G1 F3000
G1 X100.43 Y81.92 E.02872
G1 X100.779 Y81.1 E.02592
G1 X101.156 Y80.468 E.02142
G1 X101.689 Y79.812 E.02458
G1 X102.274 Y79.292 E.02279
G1 X102.983 Y78.857 E.02422
G1 X103.503 Y78.644 E.01635
G1 X104.062 Y78.502 E.01678
G1 X104.884 Y78.441 E.02398
G1 X129.502 Y79.598 E.71711
G1 X130.615 Y79.847 E.03318
G1 X131.605 Y80.389 E.03285
G1 X132.544 Y81.312 E.03832
G1 X133.234 Y82.493 E.0398
G1 X141.637 Y106.078 E.72852
G1 X141.88 Y107.214 E.03381
G1 X141.885 Y107.86 E.01878
G1 X141.768 Y108.537 E.01998
G1 X141.509 Y109.202 E.02078
G1 X140.917 Y110.031 E.02964
G1 X117.754 Y133.194 E.95316
G1 X117.201 Y133.602 E.01998
G1 X116.677 Y133.806 E.01637
G1 X116.11 Y133.892 E.01669
G1 X115.229 Y133.793 E.02579
G1 X114.571 Y133.553 E.02037
G1 X113.947 Y133.135 E.02185
G1 X94.689 Y116.117 E.74781
G1 X92.142 Y113.237 E.11187
M73 P1 R13
G1 X91.513 Y112.245 E.03419
G1 X91.229 Y111.373 E.02668
G1 X91.117 Y110.465 E.02663
G1 X91.144 Y109.685 E.02271
G1 X91.306 Y108.775 E.02691
G1 X100.1 Y82.893 E.79538
; printing object Robbi_Simple.stl id:265874880 copy 0
G1 E-2.31 F3600
;WIPE_START
G1 F3000
G1 X100.43 Y81.92 E-.50844
G1 X100.779 Y81.1 E-.44096
G1 X100.821 Y81.03 E-.0406
;WIPE_END
G1 Z.3 F18000
G1 X104.518 Y105.074 Z.3
G1 Z.2
G1 E3.3 F2400
;TYPE:Inner wall
;WIDTH:0.399999
G1 F1500
G1 X104.384 Y104.934 E.00562
G1 X104.094 Y104.803 E.00927
G1 X103.806 Y104.779 E.0084
G1 X103.259 Y105.026 E.01747
G1 X102.469 Y106.076 E.03823
G1 X101.877 Y107.017 E.03234
G1 X101.546 Y107.609 E.01975
G1 X101.211 Y108.314 E.02271
G1 X100.952 Y108.972 E.02057
G1 X100.757 Y109.582 E.01865
G1 X100.615 Y110.144 E.01687
G1 X100.512 Y110.659 E.01529
G1 X100.317 Y111.872 E.03575
G1 X100.171 Y112.448 E.01727
G1 X99.929 Y112.921 E.01547
G1 X99.582 Y113.289 E.01471
G1 X98.955 Y113.683 E.02155
G1 X98.228 Y113.964 E.02268
G1 X97.732 Y114.051 E.01465
G1 X99.086 Y112.78 E.05404
G1 X99.271 Y112.537 E.00888
G1 X99.371 Y112.128 E.01226
G1 X99.38 Y109.498 E.07653
G1 X99.287 Y109.097 E.01197
G1 X99.078 Y108.825 E.00999
G1 X98.926 Y108.717 E.00542
G1 X98.543 Y108.604 E.01161
G1 X95.797 Y108.432 E.08007
;WIDTH:0.447852
G1 X95.708 Y108.468 E.00315
;WIDTH:0.495705
G1 X95.62 Y108.504 E.00352
;WIDTH:0.543558
G1 X95.531 Y108.54 E.0039
G1 X95.27 Y108.805 E.01517
;WIDTH:0.531176
G1 X94.975 Y109.215 E.02012
;WIDTH:0.502044
G1 X94.292 Y110.111 E.04215
G1 X94.392 Y109.499 E.0232
G1 X94.596 Y108.959 E.0216
;WIDTH:0.526102
G1 X95.007 Y108.368 E.02833
G1 X95.593 Y107.884 E.02994
;WIDTH:0.522623
G1 X95.739 Y107.81 E.0064
;WIDTH:0.481749
G1 X95.885 Y107.736 E.00586
;WIDTH:0.440874
G1 X96.031 Y107.662 E.00531
;WIDTH:0.399999
G1 X97.402 Y107.258 E.04158
G1 X98.378 Y106.872 E.03055
G1 X98.919 Y106.602 E.01759
G1 X99.457 Y106.295 E.01802
G1 X100.596 Y105.516 E.04015
G1 X101.338 Y104.924 E.02761
G1 X102.279 Y104.105 E.03631
G1 X103.133 Y103.284 E.03447
G1 X103.306 Y103.053 E.0084
G1 X103.4 Y102.749 E.00927
G1 X103.386 Y102.453 E.00862
G1 X103.173 Y101.988 E.01487
G1 X102.47 Y100.825 E.03956
G1 X102.33 Y100.277 E.01645
G1 X102.317 Y99.476 E.02332
G1 X102.415 Y98.805 E.01972
G1 X102.546 Y98.191 E.01827
G1 X102.828 Y97.373 E.02518
G1 X103.085 Y96.855 E.01682
G1 X103.412 Y96.383 E.0167
G1 X103.841 Y96.166 E.01401
G1 X104.167 Y95.864 E.01293
G1 X104.52 Y95.463 E.01556
G1 X104.885 Y94.808 E.02182
G1 X105.038 Y94.317 E.01494
G1 X105.093 Y93.796 E.01526
G1 X105.038 Y93.29 E.0148
G1 X103.969 Y88.444 E.1444
G1 X103.86 Y87.028 E.04132
G1 X103.8 Y86.781 E.00739
G1 X103.418 Y85.782 E.03113
G1 X103.23 Y84.971 E.02422
G1 X103.172 Y84.234 E.02151
G1 X103.212 Y83.696 E.01571
G1 X103.333 Y83.102 E.01763
G1 X103.524 Y82.597 E.0157
G1 X103.746 Y82.22 E.01275
G1 X104.025 Y81.899 E.01237
G1 X104.284 Y81.707 E.00936
G1 X104.649 Y81.568 E.01139
G1 X105.022 Y81.607 E.0109
G1 X105.321 Y81.759 E.00977
G1 X105.67 Y82.072 E.01363
G1 X106.045 Y82.591 E.01864
G1 X106.296 Y83.105 E.01662
G1 X106.736 Y84.111 E.03196
G1 X106.931 Y84.299 E.00789
G1 X107.255 Y84.442 E.0103
G1 X107.778 Y84.547 E.01553
G1 X108.54 Y84.607 E.02224
G1 X124.551 Y85.398 E.46646
G1 X125.208 Y85.416 E.01912
M73 C7
G1 X125.899 Y85.393 E.02011
G1 X126.563 Y85.274 E.01963
G1 X127.022 Y85.022 E.01524
G1 X127.271 Y84.724 E.0113
G1 X127.53 Y84.22 E.01648
G1 X127.903 Y83.636 E.02016
G1 X128.294 Y83.18 E.01747
G1 X128.639 Y82.907 E.01281
G1 X128.928 Y82.768 E.00933
G1 X129.299 Y82.715 E.01092
G1 X129.644 Y82.84 E.01067
G1 X129.966 Y83.099 E.01204
G1 X130.286 Y83.546 E.016
G1 X130.477 Y84.011 E.01462
G1 X130.599 Y84.566 E.01653
G1 X130.635 Y85.198 E.0184
G1 X130.567 Y85.893 E.02032
G1 X130.378 Y86.639 E.02239
G1 X130.045 Y87.444 E.02538
G1 X129.778 Y87.952 E.01669
G1 X129.673 Y88.25 E.00919
G1 X129.584 Y88.795 E.01607
G1 X129.465 Y89.284 E.01463
G1 X127.685 Y93.807 E.14143
G1 X127.626 Y94.059 E.00754
G1 X127.679 Y94.584 E.01535
G1 X127.783 Y94.9 E.00969
G1 X128.023 Y95.442 E.01724
G1 X128.393 Y96.08 E.02146
G1 X129.169 Y97.232 E.04043
G1 X129.457 Y97.807 E.0187
G1 X129.636 Y98.462 E.01976
G1 X129.691 Y99.178 E.02089
G1 X129.626 Y99.698 E.01525
G1 X129.311 Y100.864 E.03514
G1 X129.179 Y101.539 E.02
G1 X129.258 Y101.903 E.01084
G1 X129.513 Y102.232 E.01213
G1 X129.771 Y102.377 E.00862
G1 X131.967 Y103.162 E.06787
G1 X132.271 Y103.223 E.00901
G1 X132.502 Y103.199 E.00675
G1 X132.887 Y102.997 E.01267
G1 X132.974 Y102.906 E.00365
G1 X135.077 Y103.982 E.06873
G1 X135.884 Y104.427 E.02682
G1 X136.53 Y104.81 E.02188
G1 X137.746 Y105.648 E.04294
M73 P1 R12
G1 X138.155 Y106.008 E.01585
G1 X138.392 Y106.397 E.01328
G1 X138.685 Y107.086 E.02177
G1 X138.778 Y107.601 E.01523
G1 X138.759 Y107.725 E.00364
G1 X138.627 Y107.888 E.00612
G1 X138.22 Y108.156 E.01417
G1 X137.623 Y108.373 E.0185
G1 X137.025 Y108.522 E.01794
G1 X136.685 Y108.551 E.00991
G1 X136.035 Y108.439 E.01919
G1 X135.484 Y108.288 E.01664
G1 X134.825 Y108.067 E.02021
G1 X133.644 Y107.605 E.03689
G1 X132.751 Y107.216 E.02835
G1 X131.716 Y106.737 E.03319
G1 X131.482 Y106.677 E.00703
G1 X131.49 Y106.613 E.00187
G1 X131.358 Y106.216 E.01218
G1 X131.187 Y106.016 E.00766
G1 X130.937 Y105.863 E.00854
G1 X128.863 Y105.02 E.06513
G1 X128.537 Y104.955 E.00967
G1 X128.131 Y105.047 E.01213
G1 X127.901 Y105.211 E.00822
G1 X127.703 Y105.503 E.01025
M73 P2 R12
G1 X127.469 Y106.065 E.01772
G1 X126.849 Y107.041 E.03364
G1 X126.529 Y107.457 E.01526
G1 X126.088 Y107.875 E.01768
G1 X125.736 Y108.088 E.01198
G1 X125.377 Y108.191 E.01085
G1 X125.01 Y108.201 E.0107
G1 X124.51 Y108.158 E.01461
G1 X123.871 Y108.18 E.0186
G1 X123.314 Y108.23 E.01627
G1 X122.986 Y108.325 E.00993
G1 X122.508 Y108.604 E.0161
G1 X122.033 Y109.06 E.01915
G1 X121.803 Y109.557 E.01593
G1 X121.731 Y109.865 E.00922
G1 X121.645 Y111.593 E.05034
G1 X121.497 Y113.041 E.04233
G1 X121.275 Y114.436 E.04112
G1 X120.982 Y115.777 E.03993
G1 X120.624 Y117.063 E.03885
G1 X120.428 Y117.665 E.01842
G1 X119.985 Y118.848 E.03675
G1 X119.495 Y119.947 E.03502
G1 X118.964 Y120.963 E.03336
G1 X118.398 Y121.89 E.03159
G1 X117.804 Y122.72 E.02969
G1 X117.191 Y123.447 E.02769
G1 X116.566 Y124.066 E.02559
G1 X116.113 Y124.433 E.01697
G1 X115.677 Y124.738 E.01547
G1 X115.034 Y125.108 E.02158
G1 X114.276 Y125.396 E.0236
G1 X113.981 Y125.582 E.01014
G1 X113.743 Y125.879 E.01108
G1 X113.594 Y125.743 E.00588
G1 X113.245 Y125.536 E.0118
G1 X112.717 Y125.394 E.01593
G1 X112.098 Y125.162 E.01924
G1 X111.696 Y124.897 E.014
G1 X111.294 Y124.531 E.01583
G1 X110.897 Y124.049 E.01816
G1 X110.51 Y123.443 E.02092
G1 X110.201 Y122.824 E.02014
G1 X109.972 Y122.299 E.01667
G1 X109.645 Y121.35 E.02921
G1 X109.357 Y120.271 E.03248
G1 X109.112 Y119.051 E.03622
G1 X108.913 Y117.686 E.04012
G1 X108.766 Y116.17 E.04433
G1 X108.713 Y115.368 E.02339
G1 X108.651 Y113.626 E.05072
G1 X108.65 Y111.733 E.05509
G1 X108.71 Y109.427 E.06711
G1 X108.58 Y108.913 E.01544
G1 X108.44 Y108.625 E.00929
G1 X108.13 Y108.205 E.01521
G1 X107.874 Y107.99 E.00972
G1 X107.349 Y107.724 E.01712
G1 X106.775 Y107.642 E.01688
G1 X106.274 Y107.524 E.015
G1 X105.815 Y107.321 E.01459
G1 X105.528 Y107.114 E.0103
G1 X105.309 Y106.849 E.00999
G1 X104.636 Y105.198 E.05187
G1 X104.545 Y105.103 E.00383
G1 X104.262 Y105.319 F18000
G1 F1500
G1 X104.116 Y105.19 E.00569
G1 X103.835 Y105.135 E.00833
G1 X103.506 Y105.283 E.01048
G1 X102.764 Y106.277 E.03608
G1 X102.188 Y107.192 E.03147
G1 X101.868 Y107.763 E.01905
G1 X101.543 Y108.445 E.02199
G1 X101.292 Y109.081 E.01988
G1 X101.103 Y109.67 E.01801
G1 X100.965 Y110.215 E.01634
G1 X100.865 Y110.716 E.01488
G1 X100.666 Y111.954 E.03647
G1 X100.468 Y112.652 E.02111
G1 X100.181 Y113.178 E.01743
G1 X99.8 Y113.574 E.016
G1 X99.116 Y114.004 E.02352
G1 X98.324 Y114.309 E.02469
G1 X97.564 Y114.444 E.02245
G1 X97.241 Y114.445 E.0094
G1 X96.931 Y114.369 E.00929
G1 X97.111 Y114.159 E.00806
G1 X97.809 Y113.476 E.0284
G1 X98.843 Y112.518 E.04101
G1 X98.954 Y112.372 E.00533
G1 X99.014 Y112.127 E.00735
G1 X99.023 Y109.497 E.07653
G1 X98.95 Y109.225 E.00819
G1 X98.751 Y109.028 E.00815
G1 X98.521 Y108.96 E.00697
G1 X96.098 Y108.809 E.07064
G1 X95.882 Y108.84 E.00635
G1 X95.639 Y109.019 E.00878
G1 X94.037 Y111.109 E.07663
G1 X93.891 Y110.587 E.01577
G1 X93.883 Y110.017 E.01658
G1 X93.992 Y109.404 E.01812
G1 X94.215 Y108.801 E.01872
G1 X94.539 Y108.256 E.01844
G1 X94.949 Y107.811 E.0176
G1 X95.413 Y107.502 E.01624
G1 X95.93 Y107.32 E.01595
G1 X97.285 Y106.92 E.04111
G1 X98.22 Y106.552 E.02923
G1 X99.073 Y106.103 E.02805
G1 X99.695 Y105.708 E.02143
G1 X100.378 Y105.233 E.0242
G1 X101.103 Y104.655 E.027
G1 X102.038 Y103.842 E.03605
G1 X102.885 Y103.027 E.0342
G1 X103.031 Y102.78 E.00833
G1 X103.042 Y102.552 E.00665
G1 X102.861 Y102.161 E.01254
G1 X102.142 Y100.97 E.04046
G1 X101.973 Y100.312 E.01977
G1 X101.96 Y99.453 E.02502
G1 X102.062 Y98.754 E.02056
G1 X102.204 Y98.09 E.01974
G1 X102.498 Y97.235 E.02632
G1 X102.836 Y96.553 E.02215
G1 X103.161 Y96.123 E.01569
G1 X103.576 Y95.905 E.01366
G1 X103.736 Y95.793 E.00566
G1 X104.21 Y95.286 E.0202
G1 X104.528 Y94.727 E.01872
G1 X104.673 Y94.308 E.01289
G1 X104.733 Y93.881 E.01256
G1 X104.689 Y93.367 E.01501
G1 X103.676 Y88.771 E.13694
G1 X103.596 Y88.213 E.01642
G1 X103.544 Y87.454 E.02212
G1 X103.469 Y86.915 E.01583
G1 X103.075 Y85.881 E.03219
G1 X102.876 Y85.026 E.02556
G1 X102.814 Y84.235 E.02308
G1 X102.868 Y83.511 E.02112
G1 X102.985 Y83.019 E.01472
G1 X103.195 Y82.458 E.01744
G1 X103.465 Y81.998 E.01552
G1 X103.887 Y81.532 E.0183
G1 X104.24 Y81.315 E.01204
G1 X104.614 Y81.206 E.01134
G1 X105.136 Y81.265 E.01526
G1 X105.525 Y81.462 E.0127
G1 X105.937 Y81.831 E.01612
G1 X106.353 Y82.407 E.02065
G1 X106.748 Y83.219 E.02627
G1 X106.942 Y83.752 E.01652
G1 X107.055 Y83.936 E.00627
G1 X107.273 Y84.077 E.00754
G1 X107.806 Y84.191 E.01588
G1 X108.558 Y84.25 E.02193
G1 X124.565 Y85.041 E.46634
G1 X125.2 Y85.059 E.01848
G1 X125.847 Y85.04 E.01883
G1 X126.377 Y84.959 E.01562
G1 X126.804 Y84.739 E.01396
G1 X126.953 Y84.56 E.00678
G1 X127.22 Y84.042 E.01697
G1 X127.687 Y83.312 E.02522
G1 X128.146 Y82.814 E.0197
G1 X128.581 Y82.512 E.0154
G1 X128.977 Y82.372 E.01222
G1 X129.338 Y82.355 E.01051
G1 X129.681 Y82.446 E.01033
G1 X130.015 Y82.645 E.0113
G1 X130.329 Y82.957 E.01289
G1 X130.662 Y83.523 E.01911
G1 X130.852 Y84.055 E.01645
G1 X130.963 Y84.673 E.01825
G1 X130.977 Y85.362 E.02007
G1 X130.88 Y86.108 E.02189
G1 X130.657 Y86.9 E.02393
G1 X130.319 Y87.691 E.02503
G1 X130.026 Y88.308 E.01987
G1 X129.935 Y88.865 E.01643
G1 X129.803 Y89.4 E.01604
G1 X127.986 Y94.017 E.14437
G1 X128.033 Y94.533 E.01506
G1 X128.11 Y94.758 E.00694
G1 X128.333 Y95.264 E.0161
G1 X128.686 Y95.876 E.02055
G1 X129.321 Y96.789 E.03237
G1 X129.579 Y97.223 E.01469
G1 X129.79 Y97.677 E.01455
G1 X129.944 Y98.155 E.01461
G1 X130.034 Y98.66 E.01493
G1 X130.049 Y99.195 E.01559
G1 X129.977 Y99.77 E.01684
G1 X129.659 Y100.945 E.03543
G1 X129.539 Y101.592 E.01915
G1 X129.636 Y101.848 E.00797
G1 X129.891 Y102.041 E.0093
G1 X132.113 Y102.835 E.06865
G1 X132.418 Y102.852 E.0089
G1 X132.709 Y102.668 E.01
G1 X132.986 Y102.118 E.01794
G1 X133.075 Y102.521 E.01201
G1 X133.242 Y102.653 E.00621
G1 X135.244 Y103.666 E.06528
G1 X136.061 Y104.117 E.02716
G1 X136.76 Y104.531 E.02366
G1 X137.584 Y105.078 E.02876
G1 X138.021 Y105.41 E.01596
G1 X138.396 Y105.745 E.01463
G1 X138.547 Y105.936 E.0071
G1 X138.792 Y106.425 E.01592
G1 X139.056 Y107.118 E.02156
G1 X139.135 Y107.614 E.01461
G1 X139.076 Y107.895 E.00834
G1 X138.802 Y108.227 E.01256
G1 X138.373 Y108.48 E.01446
G1 X137.727 Y108.715 E.02
G1 X136.938 Y108.912 E.02368
G1 X136.652 Y108.907 E.00831
G1 X135.957 Y108.788 E.02051
G1 X135.38 Y108.629 E.01744
G1 X134.703 Y108.403 E.02075
G1 X133.508 Y107.935 E.03734
G1 X132.605 Y107.542 E.02867
M73 P3 R12
G1 X131.566 Y107.061 E.03331
G1 X131.23 Y107.023 E.00984
G1 X130.971 Y107.232 E.00969
G1 X131.103 Y106.876 E.01106
G1 X131.114 Y106.538 E.00984
G1 X130.952 Y106.285 E.00873
G1 X130.802 Y106.193 E.00512
G1 X128.709 Y105.343 E.06573
G1 X128.389 Y105.33 E.00933
G1 X128.181 Y105.439 E.00683
G1 X128.033 Y105.641 E.0073
G1 X127.786 Y106.231 E.01861
G1 X127.365 Y106.894 E.02284
G1 X126.947 Y107.499 E.02142
G1 X126.56 Y107.937 E.01699
G1 X126.063 Y108.335 E.01853
G1 X125.661 Y108.509 E.01274
G1 X125.205 Y108.579 E.01342
G1 X124.521 Y108.515 E.02001
G1 X123.903 Y108.536 E.01799
G1 X123.24 Y108.606 E.01938
G1 X122.784 Y108.84 E.01493
G1 X122.399 Y109.184 E.01503
G1 X122.262 Y109.378 E.00691
G1 X122.088 Y109.883 E.01554
G1 X122.001 Y111.62 E.05061
G1 X121.852 Y113.087 E.04289
G1 X121.626 Y114.502 E.04171
G1 X121.329 Y115.863 E.04052
G1 X120.966 Y117.167 E.03937
G1 X120.765 Y117.783 E.01888
G1 X120.315 Y118.983 E.03729
G1 X119.817 Y120.103 E.03566
G1 X119.275 Y121.139 E.03404
G1 X118.696 Y122.087 E.03231
G1 X118.086 Y122.939 E.03048
G1 X117.454 Y123.689 E.02856
G1 X116.805 Y124.333 E.02658
G1 X116.15 Y124.863 E.02452
G1 X115.634 Y125.188 E.01773
G1 X115.178 Y125.435 E.01511
G1 X114.403 Y125.73 E.02411
G1 X114.226 Y125.841 E.00608
G1 X113.935 Y126.221 E.01391
G1 X113.814 Y126.499 E.00883
G1 X113.739 Y126.392 E.0038
