; HEADER_BLOCK_START
; generated by OrcaSlicer 2.3.1-dev on 2025-12-21 at 19:05:47
; total layer number: 15
; filament_density: 1.24,1.24
; filament_diameter: 1.75,1.75
; max_z_height: 3.00
; HEADER_BLOCK_END

; THUMBNAIL_BLOCK_START

;
; THUMBNAIL_BLOCK_END

; THUMBNAIL_BLOCK_START

;
; THUMBNAIL_BLOCK_END

; external perimeters extrusion width = 0.40mm
; perimeters extrusion width = 0.45mm
; infill extrusion width = 0.45mm
; solid infill extrusion width = 0.40mm
; top infill extrusion width = 0.40mm
; support material extrusion width = 0.40mm
; first layer extrusion width = 0.40mm

; EXECUTABLE_BLOCK_START
M73 P0 R35
;TYPE:Custom
start_print BED_TEMP=60 EXTRUDER_TEMP=210 CHAMBER_TEMP=0

G90
G21
M83 ; use relative distances for extrusion
; MANUAL_TOOL_CHANGE T0
M104 S210 ; set nozzle temperature
; filament start gcode
;LAYER_CHANGE
;Z:0.2
;HEIGHT:0.2
;BEFORE_LAYER_CHANGE
;0.2
G92 E0

G1 E-3.3 F3600
;_SET_FAN_SPEED_CHANGING_LAYER
SET_VELOCITY_LIMIT ACCEL=300 ACCEL_TO_DECEL=150
SET_VELOCITY_LIMIT SQUARE_CORNER_VELOCITY=8
SET_VELOCITY_LIMIT SQUARE_CORNER_VELOCITY=8
G1 Z.6 F18000
G1 X76.288 Y63.761
G1 Z.6
G1 Z.2
G1 E3.3 F2400
;TYPE:Skirt
;WIDTH:0.4
G1 F3000
G1 X76.828 Y62.23 E.04724
G1 X77.347 Y61.222 E.03299
G1 X78.221 Y59.997 E.04378
G1 X79.037 Y59.174 E.0337
G1 X80.211 Y58.347 E.0418
G1 X81.006 Y57.972 E.02558
G1 X81.859 Y57.706 E.02599
G1 X83.03 Y57.548 E.03437
G1 X132.661 Y56.802 E1.4443
G1 X133.547 Y56.938 E.02609
G1 X134.389 Y57.195 E.02562
G1 X135.176 Y57.559 E.02524
G1 X135.903 Y58.016 E.02498
G1 X136.567 Y58.554 E.02486
G1 X137.555 Y59.633 E.04258
G1 X138.058 Y60.361 E.02575
G1 X138.593 Y61.347 E.03264
G1 X158.14 Y107.021 E1.44559
G1 X158.447 Y107.922 E.0277
G1 X158.652 Y108.882 E.02858
G1 X158.711 Y109.876 E.02895
G1 X158.587 Y110.893 E.02982
G1 X158.255 Y111.888 E.03052
G1 X157.506 Y113.08 E.04095
G1 X114.163 Y162.208 E1.90632
G1 X113.529 Y162.739 E.02405
G1 X112.848 Y163.052 E.02181
G1 X111.701 Y163.218 E.03373
G1 X110.855 Y163.126 E.02476
G1 X109.962 Y162.863 E.02708
G1 X109.04 Y162.333 E.03096
G1 X68.642 Y130.917 E1.48907
G1 X63.199 Y125.486 E.22373
G1 X62.658 Y124.848 E.02434
G1 X62.114 Y123.969 E.03008
G1 X61.625 Y122.732 E.0387
G1 X61.327 Y121.137 E.04722
G1 X61.294 Y119.935 E.035
G1 X61.486 Y118.26 E.04906
G1 X76.277 Y63.799 E1.64206
G1 X76.622 Y63.893 F18000
G1 F3000
G1 X76.629 Y63.865 E.00084
G1 X77.159 Y62.363 E.04634
G1 X77.648 Y61.414 E.03106
G1 X78.501 Y60.219 E.04273
G1 X79.26 Y59.453 E.03138
G1 X80.398 Y58.652 E.0405
G1 X81.15 Y58.298 E.02419
G1 X81.955 Y58.05 E.02451
G1 X83.035 Y57.905 E.0317
G1 X132.618 Y57.156 E1.44288
G1 X133.452 Y57.282 E.02456
G1 X134.247 Y57.523 E.02417
G1 X134.993 Y57.865 E.02388
G1 X135.684 Y58.298 E.02371
G1 X136.317 Y58.809 E.02368
G1 X137.28 Y59.86 E.04148
G1 X138.266 Y61.488 E.05539
G1 X157.812 Y107.161 E1.44556
G1 X158.108 Y108.034 E.02682
G1 X158.301 Y108.949 E.02722
G1 X158.354 Y109.885 E.02727
G1 X158.235 Y110.834 E.02783
G1 X157.922 Y111.757 E.02836
G1 X157.238 Y112.844 E.03736
G1 X113.895 Y161.972 E1.90632
G1 X113.344 Y162.434 E.02093
G1 X112.729 Y162.716 E.01967
G1 X111.717 Y162.861 E.02977
G1 X110.912 Y162.774 E.02354
G1 X110.108 Y162.537 E.02441
G1 X109.259 Y162.051 E.02846
G1 X68.894 Y130.664 E1.48779
G1 X63.451 Y125.233 E.22373
G1 X62.934 Y124.621 E.02332
G1 X62.424 Y123.792 E.02832
G1 X61.971 Y122.647 E.03583
G1 X61.681 Y121.091 E.04604
G1 X61.65 Y119.959 E.03295
G1 X61.877 Y118.129 E.05367
G1 X76.611 Y63.932 E1.63424
; printing object Robbi_Simple.stl id:3152 copy 0
G1 E-2.31 F3600
;WIPE_START
G1 F3000
G1 X76.629 Y63.865 E-.03409
G1 X77.159 Y62.363 E-.78826
G1 X77.314 Y62.062 E-.16765
;WIPE_END
G1 Z.6 F18000
G1 X138.673 Y109.035 Z.6
G1 Z.2
G1 E3.3 F2400
;TYPE:Inner wall
;WIDTH:0.399999
G1 F1500
G1 X138.688 Y108.774 E.0076
G1 X138.533 Y108.408 E.01156
G1 X138.353 Y108.222 E.00754
G1 X138.093 Y108.084 E.00858
G1 X133.928 Y106.688 E.12781
G1 X133.601 Y106.643 E.00962
G1 X133.274 Y106.723 E.00977
G1 X132.981 Y106.937 E.01057
G1 X132.801 Y107.243 E.01033
G1 X132.388 Y108.437 E.03676
G1 X131.83 Y109.492 E.03474
G1 X131.221 Y110.554 E.03562
G1 X130.576 Y111.511 E.03357
G1 X130.029 Y112.147 E.02441
G1 X129.66 Y112.526 E.0154
G1 X129.131 Y112.946 E.01966
G1 X128.521 Y113.273 E.02013
G1 X127.848 Y113.499 E.02068
G1 X127.349 Y113.575 E.01466
G1 X126.8 Y113.589 E.01599
G1 X126.137 Y113.527 E.01937
G1 X125.628 Y113.56 E.01486
G1 X124.755 Y113.643 E.02551
G1 X123.659 Y113.812 E.03227
G1 X123.338 Y113.927 E.00993
G1 X122.659 Y114.349 E.02326
G1 X122.105 Y114.852 E.02178
G1 X121.814 Y115.262 E.01461
G1 X121.607 Y115.728 E.01484
G1 X121.493 Y116.259 E.0158
G1 X121.476 Y116.779 E.01516
G1 X121.527 Y118.318 E.0448
G1 X121.533 Y119.825 E.04384
G1 X121.497 Y121.312 E.0433
G1 X121.419 Y122.78 E.04275
G1 X121.3 Y124.225 E.04219
G1 X121.144 Y125.646 E.04161
G1 X120.949 Y127.042 E.04102
G1 X120.72 Y128.405 E.04021
G1 X120.155 Y131.07 E.07926
G1 X119.826 Y132.342 E.03823
G1 X119.466 Y133.588 E.03773
G1 X119.077 Y134.798 E.037
G1 X118.66 Y135.972 E.03625
G1 X118.217 Y137.108 E.03547
G1 X117.75 Y138.204 E.03467
G1 X117.259 Y139.258 E.03384
G1 X116.746 Y140.269 E.03298
G1 X116.214 Y141.235 E.0321
G1 X115.663 Y142.155 E.0312
G1 X115.095 Y143.027 E.03027
G1 X114.511 Y143.848 E.02933
G1 X113.914 Y144.619 E.02836
G1 X113.305 Y145.336 E.02738
G1 X112.686 Y145.999 E.02639
G1 X112.059 Y146.606 E.02539
G1 X111.426 Y147.156 E.0244
G1 X110.788 Y147.648 E.02342
G1 X110.149 Y148.079 E.02246
G1 X109.509 Y148.45 E.02153
G1 X108.87 Y148.76 E.02065
G1 X108.195 Y149.024 E.02111
G1 X107.787 Y149.274 E.0139
G1 X107.45 Y149.674 E.01523
G1 X107.193 Y150.137 E.0154
G1 X107.079 Y150.459 E.00996
G1 X106.947 Y151.04 E.01733
G1 X106.571 Y150.564 E.01765
G1 X106.282 Y150.283 E.01172
G1 X105.741 Y149.819 E.02075
G1 X105.286 Y149.587 E.01487
G1 X105.002 Y149.499 E.00865
G1 X104.32 Y149.406 E.02002
G1 X103.82 Y149.297 E.01489
G1 X103.328 Y149.142 E.015
G1 X102.84 Y148.941 E.01538
G1 X102.354 Y148.689 E.01592
G1 X101.871 Y148.386 E.0166
G1 X101.39 Y148.029 E.01741
G1 X100.914 Y147.616 E.01835
G1 X100.442 Y147.145 E.0194
G1 X99.976 Y146.614 E.02056
G1 X99.517 Y146.022 E.0218
G1 X99.066 Y145.367 E.02313
G1 X98.625 Y144.648 E.02454
G1 X98.196 Y143.864 E.02601
G1 X97.778 Y143.014 E.02755
G1 X97.375 Y142.098 E.02915
G1 X96.986 Y141.113 E.03081
G1 X96.613 Y140.059 E.03252
G1 X96.257 Y138.937 E.03427
G1 X95.92 Y137.743 E.03609
G1 X95.601 Y136.479 E.03794
G1 X95.302 Y135.142 E.03985
G1 X95.024 Y133.733 E.04179
G1 X94.769 Y132.25 E.04379
G1 X94.536 Y130.693 E.04582
G1 X94.326 Y129.06 E.04789
G1 X94.141 Y127.351 E.05001
G1 X93.982 Y125.566 E.05217
G1 X93.848 Y123.702 E.05436
G1 X93.742 Y121.76 E.0566
G1 X93.664 Y119.738 E.05887
G1 X93.608 Y117.395 E.06821
G1 X93.471 Y116.805 E.0176
G1 X93.331 Y116.477 E.01038
G1 X92.934 Y115.813 E.02253
G1 X92.397 Y115.266 E.0223
G1 X91.967 Y114.993 E.0148
G1 X91.492 Y114.818 E.01473
G1 X91.242 Y114.766 E.00743
G1 X89.941 Y114.687 E.03793
G1 X89.421 Y114.603 E.01532
G1 X88.755 Y114.422 E.02008
G1 X88.171 Y114.194 E.01826
G1 X87.668 Y113.927 E.01656
G1 X87.246 Y113.631 E.01502
G1 X86.759 Y113.14 E.02009
G1 X86.428 Y112.641 E.01743
G1 X86.036 Y111.689 E.02996
G1 X85.142 Y109.814 E.06043
G1 X84.901 Y109.562 E.01015
G1 X84.563 Y109.417 E.0107
G1 X84.261 Y109.409 E.00878
G1 X83.887 Y109.554 E.01167
G1 X83.644 Y109.799 E.01004
G1 X83.016 Y110.745 E.03304
G1 X82.302 Y111.909 E.03973
G1 X82.006 Y112.417 E.01712
G1 X81.429 Y113.498 E.03565
G1 X80.853 Y114.704 E.03889
G1 X80.289 Y116.107 E.04399
G1 X79.872 Y117.392 E.03932
G1 X79.576 Y118.557 E.03498
G1 X79.366 Y119.671 E.03299
G1 X79.229 Y120.676 E.02951
G1 X78.986 Y123.179 E.07318
M73 P1 R35
G1 X78.884 Y123.864 E.02013
G1 X78.74 Y124.486 E.01859
G1 X78.537 Y125.061 E.01774
G1 X78.253 Y125.612 E.01804
G1 X77.862 Y126.161 E.01962
G1 X77.37 Y126.675 E.02069
G1 X76.757 Y127.17 E.02294
G1 X76.044 Y127.628 E.02464
G1 X75.266 Y128.029 E.02546
G1 X74.458 Y128.357 E.02539
G1 X73.653 Y128.597 E.02443
G1 X72.89 Y128.738 E.02257
G1 X72.207 Y128.773 E.01991
G1 X71.702 Y128.717 E.01479
G1 X71.242 Y128.538 E.01435
G1 X71.772 Y127.858 E.0251
G1 X73.092 Y126.395 E.05734
G1 X74.651 Y124.757 E.06579
G1 X75.139 Y124.215 E.02122
G1 X75.246 Y123.959 E.00808
G1 X75.27 Y123.696 E.00769
G1 X74.963 Y118.503 E.15135
G1 X74.842 Y118.105 E.01212
G1 X74.717 Y117.94 E.00601
G1 X74.465 Y117.755 E.0091
G1 X74.071 Y117.663 E.01177
G1 X69.795 Y117.663 E.12444
G1 X69.089 Y117.684 E.02054
G1 X68.743 Y117.843 E.0111
G1 X68.533 Y118.066 E.0089
G1 X66.918 Y120.524 E.08559
G1 X65.754 Y122.227 E.06002
G1 X65.397 Y122.703 E.01731
G1 X65.172 Y122.325 E.01281
G1 X64.98 Y121.841 E.01516
G1 X64.85 Y121.315 E.01576
G1 X64.776 Y120.74 E.01686
G1 X64.76 Y120.129 E.01779
G1 X64.804 Y119.494 E.01852
G1 X64.907 Y118.848 E.01902
G1 X65.069 Y118.205 E.01931
G1 X65.288 Y117.575 E.01939
G1 X65.562 Y116.972 E.01927
G1 X65.887 Y116.407 E.01898
G1 X66.261 Y115.89 E.01857
G1 X66.68 Y115.43 E.01808
G1 X67.143 Y115.033 E.01777
G1 X67.582 Y114.743 E.01529
G1 X68.042 Y114.506 E.01506
G1 X69.201 Y114.061 E.03611
G1 X70.512 Y113.617 E.04028
G1 X71.316 Y113.312 E.02503
G1 X72.174 Y112.942 E.0272
G1 X73.101 Y112.479 E.03015
G1 X74.077 Y111.918 E.03275
G1 X75.174 Y111.194 E.03824
G1 X76.526 Y110.173 E.04931
G1 X76.94 Y109.837 E.01552
G1 X78.198 Y108.734 E.04869
G1 X79.61 Y107.375 E.05702
G1 X80.349 Y106.615 E.03085
G1 X81.997 Y104.795 E.07143
G1 X82.117 Y104.485 E.00966
G1 X82.118 Y104.17 E.00916
G1 X81.991 Y103.844 E.01018
G1 X81.266 Y102.708 E.03924
G1 X80.912 Y102.211 E.01775
G1 X80.505 Y101.703 E.01894
G1 X80.145 Y101.144 E.01936
G1 X79.884 Y100.508 E.01999
G1 X79.698 Y99.764 E.02232
G1 X79.592 Y98.932 E.02439
G1 X79.564 Y98.038 E.02602
G1 X79.609 Y97.106 E.02716
G1 X79.72 Y96.16 E.02773
G1 X79.891 Y95.222 E.02773
G1 X80.112 Y94.316 E.02714
G1 X80.375 Y93.465 E.02592
G1 X80.668 Y92.692 E.02405
G1 X80.917 Y92.158 E.01716
G1 X81.185 Y91.672 E.01614
G1 X81.512 Y91.199 E.01673
G1 X81.79 Y90.922 E.01142
G1 X82.284 Y90.687 E.01592
G1 X82.72 Y90.357 E.01591
G1 X83.126 Y89.945 E.01683
G1 X83.568 Y89.33 E.02203
G1 X83.897 Y88.739 E.0197
G1 X84.187 Y88.012 E.02277
G1 X84.37 Y87.212 E.02389
G1 X84.395 Y86.361 E.02476
G1 X84.263 Y85.604 E.02235
G1 X81.6 Y76.328 E.28081
G1 X81.435 Y75.62 E.02116
G1 X81.352 Y75.042 E.01698
G1 X81.233 Y73.921 E.0328
G1 X81.108 Y73.154 E.02263
G1 X80.938 Y72.659 E.01522
G1 X80.473 Y71.74 E.02997
G1 X80.105 Y70.866 E.0276
G1 X79.814 Y70.009 E.02635
G1 X79.598 Y69.17 E.02519
G1 X79.451 Y68.355 E.0241
G1 X79.369 Y67.566 E.02308
G1 X79.349 Y66.807 E.02211
G1 X79.387 Y66.08 E.02118
G1 X79.478 Y65.389 E.02027
G1 X79.619 Y64.738 E.01939
G1 X79.805 Y64.13 E.0185
G1 X80.032 Y63.568 E.01762
G1 X80.294 Y63.056 E.01674
G1 X80.588 Y62.598 E.01585
G1 X80.908 Y62.195 E.01497
G1 X81.385 Y61.741 E.01916
G1 X81.815 Y61.436 E.01535
G1 X82.346 Y61.175 E.01721
G1 X82.917 Y61.045 E.01703
G1 X83.507 Y61.033 E.01718
G1 X84.15 Y61.191 E.01927
G1 X84.772 Y61.48 E.01996
G1 X85.223 Y61.792 E.01596
G1 X85.684 Y62.2 E.01791
G1 X86.149 Y62.711 E.02011
G1 X86.612 Y63.331 E.02253
G1 X87.069 Y64.066 E.02515
G1 X87.512 Y64.918 E.02797
G1 X87.959 Y65.943 E.03253
G1 X88.162 Y66.232 E.01027
G1 X88.497 Y66.446 E.01157
G1 X88.834 Y66.542 E.0102
G1 X90.038 Y66.636 E.03515
G1 X91.921 Y66.637 E.05476
G1 X123.105 Y66.223 E.90746
G1 X124.339 Y66.182 E.03594
G1 X125.557 Y66.077 E.03556
G1 X126.218 Y65.959 E.01955
G1 X126.817 Y65.771 E.01826
G1 X127.153 Y65.597 E.01102
G1 X127.488 Y65.29 E.01321
G1 X127.66 Y65.027 E.00915
G1 X128.096 Y64 E.03247
G1 X128.512 Y63.179 E.02677
G1 X128.855 Y62.616 E.01919
G1 X129.155 Y62.185 E.0153
G1 X129.524 Y61.721 E.01724
G1 X129.959 Y61.267 E.0183
G1 X130.418 Y60.89 E.01728
G1 X130.872 Y60.607 E.01556
G1 X131.342 Y60.404 E.01491
G1 X131.923 Y60.268 E.01735
G1 X132.497 Y60.279 E.01673
G1 X133.074 Y60.408 E.0172
G1 X133.601 Y60.662 E.01701
G1 X134.039 Y60.964 E.01549
G1 X134.521 Y61.409 E.01908
G1 X134.848 Y61.805 E.01494
G1 X135.15 Y62.256 E.0158
G1 X135.423 Y62.76 E.01667
G1 X135.661 Y63.313 E.01754
G1 X135.861 Y63.913 E.0184
G1 X136.018 Y64.556 E.01926
G1 X136.128 Y65.24 E.02013
G1 X136.186 Y65.96 E.02102
G1 X136.188 Y66.713 E.02193
G1 X136.131 Y67.498 E.02288
G1 X136.011 Y68.31 E.02389
G1 X135.823 Y69.146 E.02495
G1 X135.564 Y70.004 E.02608
G1 X135.157 Y71.036 E.03228
G1 X134.75 Y71.941 E.02887
G1 X134.584 Y72.597 E.01968
G1 X134.483 Y73.864 E.03698
G1 X134.324 Y74.548 E.02044
G1 X131.34 Y83.719 E.2806
G1 X131.295 Y84.25 E.01551
G1 X131.327 Y84.534 E.00832
G1 X131.494 Y85.093 E.01699
G1 X131.757 Y85.661 E.01819
G1 X132.095 Y86.26 E.02001
G1 X132.846 Y87.397 E.03966
G1 X133.24 Y87.927 E.01921
G1 X134.254 Y89.174 E.04677
G1 X134.831 Y90.019 E.02977
G1 X135.319 Y90.921 E.02982
G1 X135.697 Y91.881 E.03005
G1 X135.951 Y92.925 E.03126
G1 X136.019 Y93.449 E.01537
G1 X136.048 Y94.01 E.01634
G1 X136.035 Y94.593 E.01697
G1 X135.974 Y95.2 E.01774
G1 X135.862 Y95.835 E.01877
G1 X135.585 Y96.984 E.03437
G1 X135.323 Y98.564 E.0466
G1 X135.357 Y98.91 E.01014
G1 X135.522 Y99.219 E.01019
G1 X135.822 Y99.455 E.01112
G1 X136.149 Y99.563 E.01002
G1 X140.534 Y100.829 E.13279
G1 X140.934 Y100.792 E.0117
G1 X141.277 Y100.594 E.01152
G1 X141.5 Y100.269 E.01146
G1 X141.878 Y99.302 E.03021
;WIDTH:0.388162
G1 X142.177 Y98.506 E.02393
;WIDTH:0.355683
G1 X142.46 Y98.6 E.00758
G1 X142.418 Y98.744 E.00382
;WIDTH:0.388162
G1 X142.237 Y99.327 E.01717
;WIDTH:0.399999
G1 X142.44 Y100.102 E.02333
G1 X142.761 Y100.331 E.01146
G1 X144.927 Y101.237 E.06833
G1 X146.839 Y102.083 E.06084
G1 X148.538 Y102.887 E.05469
G1 X150.023 Y103.646 E.04853
G1 X151.291 Y104.36 E.04233
G1 X152.339 Y105.023 E.0361
G1 X153.164 Y105.63 E.02979
G1 X153.713 Y106.125 E.02152
G1 X154.337 Y107.144 E.03476
G1 X154.71 Y107.857 E.02341
G1 X154.985 Y108.509 E.02061
G1 X155.16 Y109.099 E.0179
G1 X155.234 Y109.711 E.01794
G1 X155.18 Y110.221 E.01492
G1 X154.971 Y110.662 E.01421
G1 X154.691 Y111.004 E.01287
G1 X154.207 Y111.406 E.0183
G1 X153.717 Y111.699 E.01661
G1 X153.121 Y111.985 E.01924
G1 X152.423 Y112.263 E.02186
G1 X151.628 Y112.532 E.02442
G1 X150.836 Y112.767 E.02404
G1 X150.201 Y112.797 E.01849
G1 X149.315 Y112.724 E.02588
G1 X148.217 Y112.534 E.03244
G1 X146.919 Y112.223 E.03881
G1 X145.43 Y111.791 E.04512
G1 X143.753 Y111.237 E.0514
G1 X141.891 Y110.562 E.05765
G1 X139.663 Y109.694 E.06956
G1 X139.206 Y109.725 E.01334
G1 X138.652 Y110.273 E.02267
;WIDTH:0.363008
G1 X138.57 Y110.505 E.00642
;WIDTH:0.40311
G1 X138.524 Y110.559 E.00208
;WIDTH:0.450967
G1 X138.478 Y110.613 E.00235
;WIDTH:0.498824
G1 X138.433 Y110.667 E.00263
;WIDTH:0.546682
G1 X138.387 Y110.721 E.00291
;WIDTH:0.594539
G1 X138.341 Y110.775 E.00318
;WIDTH:0.642396
G1 X138.296 Y110.83 E.00346
G1 X138.292 Y110.759 E.00346
;WIDTH:0.594539
G1 X138.288 Y110.688 E.00318
;WIDTH:0.546682
G1 X138.285 Y110.617 E.00291
;WIDTH:0.498824
G1 X138.281 Y110.547 E.00263
;WIDTH:0.450967
G1 X138.277 Y110.476 E.00235
;WIDTH:0.40311
G1 X138.274 Y110.405 E.00208
;WIDTH:0.363008
G1 X138.348 Y110.171 E.00642
;WIDTH:0.399999
G1 X138.664 Y109.188 E.03003
G1 X138.671 Y109.075 E.00329
G1 X138.327 Y109.07 F18000
G1 F1500
G1 X138.352 Y108.985 E.00257
G1 X138.321 Y108.774 E.00622
G1 X138.191 Y108.555 E.0074
G1 X137.979 Y108.423 E.00728
G1 X133.815 Y107.027 E.12781
G1 X133.541 Y107.009 E.00797
G1 X133.293 Y107.13 E.00803
G1 X133.138 Y107.36 E.00806
G1 X132.716 Y108.58 E.03756
G1 X132.143 Y109.665 E.03572
G1 X131.524 Y110.743 E.03617
G1 X130.861 Y111.728 E.03455
G1 X130.125 Y112.584 E.03284
G1 X129.742 Y112.935 E.01513
G1 X129.329 Y113.244 E.015
G1 X128.892 Y113.501 E.01476
G1 X128.426 Y113.704 E.01479
G1 X127.924 Y113.849 E.01518
G1 X127.381 Y113.932 E.016
G1 X126.788 Y113.947 E.01726
G1 X126.104 Y113.883 E.01998
G1 X124.809 Y113.996 E.03782
G1 X123.713 Y114.165 E.03227
G1 X123.521 Y114.234 E.00596
G1 X122.898 Y114.615 E.02123
G1 X122.436 Y115.023 E.01795
G1 X122.173 Y115.361 E.01247
G1 X121.968 Y115.775 E.01344
G1 X121.851 Y116.265 E.01464
G1 X121.833 Y116.768 E.01464
G1 X121.884 Y118.312 E.04495
G1 X121.89 Y119.829 E.04414
G1 X121.853 Y121.326 E.0436
G1 X121.775 Y122.804 E.04305
