; HEADER_BLOCK_START
; generated by OrcaSlicer 2.3.1-dev on 2025-11-02 at 20:13:41
; total layer number: 56
; filament_density: 1.24,1.27
; filament_diameter: 1.75,1.75
; max_z_height: 7.60
; HEADER_BLOCK_END

; THUMBNAIL_BLOCK_START

;
; THUMBNAIL_BLOCK_END

; THUMBNAIL_BLOCK_START

;
; THUMBNAIL_BLOCK_END

; external perimeters extrusion width = 0.40mm
; perimeters extrusion width = 0.45mm
; infill extrusion width = 0.45mm
; solid infill extrusion width = 0.40mm
; top infill extrusion width = 0.40mm
; support material extrusion width = 0.40mm
; first layer extrusion width = 0.40mm

; external perimeters extrusion width = 0.40mm
; perimeters extrusion width = 0.45mm
; infill extrusion width = 0.45mm
; solid infill extrusion width = 0.40mm
; top infill extrusion width = 0.40mm
; support material extrusion width = 0.40mm
; first layer extrusion width = 0.40mm

; external perimeters extrusion width = 0.40mm
; perimeters extrusion width = 0.45mm
; infill extrusion width = 0.45mm
; solid infill extrusion width = 0.40mm
; top infill extrusion width = 0.40mm
; support material extrusion width = 0.40mm
; first layer extrusion width = 0.40mm

; external perimeters extrusion width = 0.40mm
; perimeters extrusion width = 0.45mm
; infill extrusion width = 0.45mm
; solid infill extrusion width = 0.40mm
; top infill extrusion width = 0.40mm
; support material extrusion width = 0.40mm
; first layer extrusion width = 0.40mm

; EXECUTABLE_BLOCK_START
M73 P0 R49
;TYPE:Custom
start_print BED_TEMP=80 EXTRUDER_TEMP=240 CHAMBER_TEMP=0

G90
G21
M83 ; use relative distances for extrusion
; MANUAL_TOOL_CHANGE T1
M104 S240 ; set nozzle temperature
; filament start gcode
;LAYER_CHANGE
;Z:0.2
;HEIGHT:0.2
;BEFORE_LAYER_CHANGE
;0.2
G92 E0

G1 E-3 F3600
;_SET_FAN_SPEED_CHANGING_LAYER
SET_VELOCITY_LIMIT ACCEL=300 ACCEL_TO_DECEL=150
SET_VELOCITY_LIMIT SQUARE_CORNER_VELOCITY=8
SET_VELOCITY_LIMIT SQUARE_CORNER_VELOCITY=8
G1 Z.6 F18000
G1 X68.514 Y80.547
G1 Z.6
G1 Z.2
G1 E3 F2400
;TYPE:Skirt
;WIDTH:0.4
G1 F3000
G1 X114.921 Y79.034 E1.3097
G1 X126.928 Y79.042 E.33866
G1 X157.53 Y81.753 E.86658
G1 X158.448 Y82.015 E.02693
G1 X158.857 Y82.221 E.01291
G1 X159.979 Y83.343 E.04476
G1 X160.425 Y84.504 E.03509
G1 X166.616 Y124.938 E1.15381
G1 X166.807 Y126.889 E.05529
G1 X166.788 Y129.231 E.06605
G1 X166.543 Y131.295 E.05864
G1 X166.153 Y133.072 E.05129
G1 X165.382 Y135.379 E.06863
G1 X164.535 Y137.214 E.05701
G1 X163.607 Y138.8 E.05183
G1 X162.225 Y140.681 E.06584
G1 X160.814 Y142.215 E.05878
G1 X159.248 Y143.596 E.0589
G1 X157.536 Y144.812 E.05923
G1 X155.734 Y145.83 E.05837
G1 X154.068 Y146.567 E.05139
G1 X152.086 Y147.223 E.05889
G1 X150.049 Y147.667 E.0588
G1 X147.978 Y147.898 E.0588
G1 X94.007 Y147.595 E1.52237
G1 X92.195 Y147.406 E.05137
G1 X90.154 Y146.989 E.05879
G1 X88.163 Y146.36 E.05888
G1 X86.029 Y145.416 E.06582
G1 X84.214 Y144.361 E.05923
G1 X82.735 Y143.294 E.05142
G1 X81.18 Y141.925 E.05845
G1 X79.591 Y140.177 E.06662
G1 X60.336 Y113.188 E.93517
G1 X59.883 Y112.332 E.0273
G1 X59.67 Y111.639 E.02046
G1 X59.596 Y111.017 E.01766
G1 X59.554 Y91.775 E.54277
G1 X60.017 Y83.997 E.21976
G1 X60.133 Y83.315 E.01953
G1 X60.46 Y82.518 E.0243
G1 X60.873 Y81.93 E.02026
G1 X61.758 Y81.197 E.03241
G1 X62.609 Y80.839 E.02605
G1 X63.457 Y80.712 E.0242
G1 X68.474 Y80.548 E.14157
G1 X68.485 Y80.905 F18000
G1 F3000
G1 X114.933 Y79.39 E1.31083
G1 X126.896 Y79.398 E.33744
G1 X157.499 Y82.109 E.86658
G1 X158.288 Y82.333 E.02313
G1 X158.696 Y82.54 E.01291
G1 X159.66 Y83.504 E.03846
G1 X160.075 Y84.57 E.03228
G1 X166.263 Y124.992 E1.15345
G1 X166.452 Y126.923 E.05473
G1 X166.433 Y129.191 E.06396
G1 X166.194 Y131.219 E.0576
G1 X165.805 Y132.995 E.05129
G1 X165.057 Y135.232 E.06652
G1 X164.227 Y137.034 E.05597
G1 X163.299 Y138.62 E.05183
G1 X161.961 Y140.441 E.06375
G1 X160.576 Y141.949 E.05774
G1 X159.039 Y143.306 E.05785
G1 X157.359 Y144.503 E.05819
G1 X155.59 Y145.503 E.05732
G1 X153.924 Y146.241 E.05139
G1 X151.976 Y146.883 E.05784
G1 X149.976 Y147.318 E.05775
G1 X147.941 Y147.543 E.05775
G1 X94.258 Y147.252 E1.51424
G1 X92.009 Y147.016 E.06378
G1 X90.008 Y146.581 E.05775
G1 X88.273 Y146.02 E.05144
G1 X86.206 Y145.106 E.06373
G1 X84.422 Y144.071 E.05817
G1 X82.944 Y143.005 E.05142
G1 X81.418 Y141.658 E.0574
G1 X79.879 Y139.966 E.06453
G1 X60.626 Y112.981 E.93502
G1 X60.218 Y112.21 E.0246
G1 X60.022 Y111.576 E.01872
G1 X59.953 Y111.014 E.01598
G1 X59.912 Y91.775 E.54268
G1 X60.372 Y84.032 E.21877
G1 X60.475 Y83.418 E.01756
G1 X60.777 Y82.683 E.02242
G1 X61.149 Y82.157 E.01818
G1 X61.929 Y81.511 E.02858
G1 X62.713 Y81.18 E.02397
G1 X63.469 Y81.068 E.02157
G1 X68.445 Y80.906 E.14044
; printing object Safety_Glasses_Holder.stl id:746429026 copy 0
G1 E-2.1 F3600
;WIPE_START
G1 F3000
G1 X70.444 Y80.841 E-.9
;WIPE_END
G1 Z.6 F18000
G1 X141.265 Y129.892 Z.6
G1 Z.2
G1 E3 F2400
;TYPE:Support
G1 F1500
G1 X141.265 Y126.504 E.09558
G1 X141.383 Y126.04 E.01349
G1 X141.622 Y125.494 E.01683
G1 X141.622 Y130.306 E.13574
G1 X141.763 Y130.626 E.00985
G1 X141.98 Y130.958 E.01118
G1 X141.98 Y124.842 E.17251
G1 X142.337 Y124.321 E.01783
G1 X142.337 Y131.479 E.20192
G1 X142.694 Y131.867 E.01487
G1 X142.694 Y123.933 E.22381
G1 X142.921 Y123.686 E.00946
M73 P0 R48
G1 X143.051 Y123.585 E.00464
G1 X143.051 Y132.215 E.24343
G1 X143.408 Y132.493 E.01276
G1 X143.408 Y123.307 E.25911
G1 X143.667 Y123.105 E.00928
G1 X143.765 Y123.052 E.00313
G1 X143.765 Y132.748 E.27348
G1 X144.122 Y132.941 E.01145
G1 X144.122 Y122.859 E.28439
G1 X144.479 Y122.666 E.01145
G1 X144.479 Y133.134 E.29529
G1 X144.836 Y133.261 E.01069
G1 X144.836 Y122.539 E.30243
G1 X145.193 Y122.416 E.01065
G1 X145.193 Y133.383 E.30934
G1 X145.394 Y133.452 E.00599
G1 X145.55 Y133.479 E.00447
G1 X145.55 Y122.321 E.3147
G1 X145.907 Y122.262 E.01021
G1 X145.907 Y133.538 E.31807
G1 X146.264 Y133.598 E.01021
G1 X146.264 Y122.202 E.32143
G1 X146.622 Y122.192 E.01008
G1 X146.622 Y133.608 E.32202
G1 X146.979 Y133.608 E.01007
G1 X146.979 Y122.192 E.32202
G1 X147.273 Y122.192 E.00831
G1 X147.336 Y122.202 E.00179
G1 X147.336 Y133.598 E.32143
G1 X147.693 Y133.538 E.01021
G1 X147.693 Y122.262 E.31807
G1 X148.05 Y122.321 E.01021
G1 X148.05 Y133.479 E.31471
G1 X148.206 Y133.452 E.00447
G1 X148.407 Y133.384 E.00599
G1 X148.407 Y122.416 E.30935
G1 X148.764 Y122.539 E.01065
G1 X148.764 Y133.261 E.30243
G1 X149.121 Y133.134 E.01069
G1 X149.121 Y122.666 E.29529
G1 X149.478 Y122.859 E.01145
G1 X149.478 Y132.941 E.28439
G1 X149.835 Y132.748 E.01145
G1 X149.835 Y123.052 E.27349
G1 X149.933 Y123.105 E.00313
G1 X150.192 Y123.307 E.00927
G1 X150.192 Y132.493 E.25911
G1 X150.549 Y132.215 E.01276
G1 X150.549 Y123.585 E.24344
G1 X150.679 Y123.686 E.00465
G1 X150.907 Y123.933 E.00946
G1 X150.906 Y131.867 E.22381
G1 X151.264 Y131.479 E.01487
G1 X151.264 Y124.321 E.20193
G1 X151.621 Y124.842 E.01783
G1 X151.621 Y130.958 E.17251
G1 X151.838 Y130.626 E.01118
M73 P1 R48
G1 X151.978 Y130.306 E.00985
G1 X151.978 Y125.494 E.13576
G1 X152.218 Y126.04 E.01684
G1 X152.335 Y126.503 E.01348
G1 X152.335 Y129.892 E.09559
G1 X147.308 Y121.872 F18000
G1 F1500
G1 X148.285 Y122.035 E.02794
G1 X149.23 Y122.359 E.02819
G1 X150.109 Y122.835 E.02819
G1 X150.898 Y123.449 E.02819
G1 X151.575 Y124.184 E.02819
G1 X152.121 Y125.02 E.02819
G1 X152.523 Y125.935 E.02819
G1 X152.768 Y126.904 E.02819
G1 X152.85 Y127.9 E.02819
G1 X152.768 Y128.896 E.02819
G1 X152.523 Y129.864 E.02819
G1 X152.121 Y130.78 E.02819
G1 X151.575 Y131.616 E.02818
G1 X150.898 Y132.351 E.02819
G1 X150.109 Y132.965 E.02819
G1 X149.23 Y133.441 E.02819
G1 X148.285 Y133.765 E.02819
G1 X147.3 Y133.93 E.02819
G1 X146.301 Y133.93 E.02819
G1 X145.315 Y133.765 E.02819
G1 X144.37 Y133.441 E.02818
G1 X143.491 Y132.965 E.02819
G1 X142.702 Y132.351 E.02819
G1 X142.026 Y131.616 E.02819
G1 X141.479 Y130.78 E.02819
G1 X141.078 Y129.864 E.02819
G1 X140.832 Y128.896 E.02819
G1 X140.75 Y127.9 E.02819
G1 X140.832 Y126.904 E.02819
G1 X141.078 Y125.935 E.02819
G1 X141.479 Y125.02 E.02819
G1 X142.026 Y124.184 E.02819
G1 X142.702 Y123.449 E.02819
G1 X143.491 Y122.835 E.02818
G1 X144.37 Y122.359 E.02819
G1 X145.315 Y122.035 E.02819
G1 X146.301 Y121.87 E.02819
G1 X147.255 Y121.87 E.02692
G1 E-2.1 F3600
;WIPE_START
G1 F1500
G1 X146.301 Y121.87 E-.42944
G1 X145.315 Y122.035 E-.44966
G1 X145.271 Y122.05 E-.0209
;WIPE_END
G1 Z.6 F18000
G1 X156.986 Y85.214 Z.6
G1 Z.2
G1 E3 F2400
;TYPE:Inner wall
;WIDTH:0.399999
G1 F1500
G1 X156.999 Y112.485 E.76923
G1 X157.128 Y113.253 E.02196
G1 X157.277 Y113.74 E.01436
G1 X157.487 Y114.365 E.0186
G1 X157.856 Y115.177 E.02515
G1 X158.412 Y116.043 E.02905
G1 X159.797 Y117.633 E.05946
G1 X160.792 Y119.037 E.04853
G1 X161.637 Y120.537 E.04857
G1 X162.328 Y122.136 E.04914
G1 X162.841 Y123.776 E.04845
G1 X163.182 Y125.458 E.04842
G1 X163.347 Y127.257 E.05095
G1 X163.333 Y128.891 E.04611
G1 X163.142 Y130.6 E.04849
G1 X162.773 Y132.279 E.0485
G1 X162.201 Y133.99 E.05088
G1 X161.515 Y135.503 E.04685
G1 X160.636 Y137.005 E.04908
G1 X159.623 Y138.383 E.04826
G1 X158.464 Y139.659 E.04861
G1 X157.179 Y140.808 E.04865
G1 X155.767 Y141.825 E.04906
G1 X154.284 Y142.676 E.04822
G1 X152.708 Y143.374 E.04864
G1 X151.065 Y143.904 E.04869
G1 X149.616 Y144.211 E.04179
G1 X148.975 Y144.303 E.01824
G1 X149.431 Y143.907 E.01703
G1 X149.87 Y143.346 E.02009
G1 X150.19 Y142.709 E.02009
G1 X150.38 Y142.023 E.0201
G1 X150.433 Y141.312 E.02009
G1 X150.346 Y140.605 E.02009
G1 X150.123 Y139.929 E.0201
G1 X149.762 Y139.296 E.02055
G1 X149.307 Y138.769 E.01963
G1 X148.746 Y138.331 E.0201
G1 X148.11 Y138.01 E.02009
G1 X147.375 Y137.815 E.02145
G1 X146.713 Y137.767 E.01872
G1 X146.032 Y137.85 E.01934
G1 X145.329 Y138.077 E.02083
G1 X144.854 Y138.331 E.01518
G1 X144.592 Y138.524 E.0092
G1 X144.169 Y138.893 E.01582
G1 X143.838 Y139.296 E.01472
G1 X143.649 Y139.608 E.01029
G1 X143.41 Y140.09 E.01518
G1 X143.22 Y140.777 E.0201
G1 X143.167 Y141.312 E.01518
G1 X143.181 Y141.628 E.00889
G1 X143.254 Y142.195 E.01613
G1 X143.477 Y142.871 E.0201
G1 X143.828 Y143.491 E.02009
G1 X144.169 Y143.907 E.01518
G1 X144.625 Y144.303 E.01703
G1 X144.224 Y144.261 E.01137
G1 X142.538 Y143.905 E.04861
G1 X140.895 Y143.375 E.04869
G1 X139.331 Y142.683 E.04825
G1 X137.824 Y141.819 E.049
G1 X136.424 Y140.81 E.04867
G1 X135.148 Y139.671 E.04827
G1 X133.979 Y138.386 E.049
G1 X132.958 Y136.996 E.04864
G1 X132.093 Y135.518 E.04829
G1 X131.376 Y133.936 E.049
G1 X130.832 Y132.3 E.04862
G1 X130.461 Y130.614 E.04869
G1 X130.269 Y128.915 E.04823
G1 X130.253 Y127.192 E.04861
G1 X130.42 Y125.45 E.04935
G1 X130.762 Y123.763 E.04856
G1 X131.278 Y122.121 E.04856
G1 X131.963 Y120.539 E.04863
G1 X132.808 Y119.037 E.04859
G1 X133.803 Y117.633 E.04855
G1 X135.188 Y116.044 E.05946
G1 X135.758 Y115.148 E.02996
G1 X136.073 Y114.47 E.02109
G1 X136.316 Y113.777 E.02071
G1 X136.468 Y113.275 E.01481
G1 X136.611 Y112.34 E.02667
G1 X136.648 Y85.216 E.76508
G1 X156.946 Y85.214 E.57254
G1 X157.283 Y84.915 F18000
G1 F1500
G1 X157.343 Y85.036 E.00381
G1 X157.351 Y112.426 E.77259
G1 X157.48 Y113.194 E.02196
G1 X157.616 Y113.629 E.01286
G1 X157.812 Y114.217 E.01747
G1 X158.181 Y115.029 E.02515
G1 X158.681 Y115.809 E.02614
G1 X160.078 Y117.412 E.05996
G1 X161.094 Y118.845 E.04956
G1 X161.957 Y120.378 E.04962
G1 X162.663 Y122.012 E.05019
G1 X163.188 Y123.686 E.0495
G1 X163.536 Y125.406 E.04949
G1 X163.704 Y127.242 E.052
G1 X163.69 Y128.913 E.04713
G1 X163.494 Y130.658 E.04953
G1 X163.118 Y132.375 E.04957
G1 X162.533 Y134.121 E.05194
G1 X161.833 Y135.667 E.0479
G1 X160.935 Y137.201 E.05013
G1 X159.9 Y138.61 E.04931
G1 X158.716 Y139.913 E.04966
G1 X157.402 Y141.087 E.0497
G1 X155.961 Y142.126 E.05012
G1 X154.446 Y142.995 E.04926
G1 X152.835 Y143.708 E.04969
G1 X151.157 Y144.25 E.04974
G1 X149.435 Y144.614 E.04966
G1 X148.206 Y144.743 E.03486
;WIDTH:0.436886
G1 X147.946 Y144.752 E.00809
;WIDTH:0.473772
G1 X147.686 Y144.76 E.00885
;WIDTH:0.508984
G1 X147.605 Y144.743 E.00304
;WIDTH:0.544196
G1 X147.524 Y144.725 E.00327
;WIDTH:0.579408
G1 X147.444 Y144.708 E.0035
G1 X147.512 Y144.674 E.00324
;WIDTH:0.545076
G1 X147.709 Y144.585 E.00857
;WIDTH:0.496717
G1 X147.906 Y144.497 E.00774
;WIDTH:0.448358
G1 X148.103 Y144.408 E.00692
;WIDTH:0.399999
G1 X148.665 Y144.096 E.01813
G1 X149.155 Y143.681 E.01813
G1 X149.555 Y143.177 E.01813
G1 X149.848 Y142.606 E.01813
G1 X150.025 Y141.988 E.01813
G1 X150.078 Y141.347 E.01813
G1 X150.005 Y140.709 E.01813
G1 X149.808 Y140.097 E.01813
G1 X149.486 Y139.523 E.01858
G1 X149.081 Y139.045 E.01766
G1 X148.578 Y138.645 E.01813
G1 X148.006 Y138.352 E.01813
G1 X147.34 Y138.17 E.01948
G1 X146.748 Y138.122 E.01675
G1 X146.133 Y138.192 E.01744
G1 X145.497 Y138.392 E.01879
G1 X144.935 Y138.704 E.01813
G1 X144.445 Y139.119 E.01813
G1 X144.046 Y139.623 E.01813
G1 X143.752 Y140.194 E.01813
G1 X143.575 Y140.812 E.01813
G1 X143.522 Y141.347 E.01518
G1 X143.596 Y142.091 E.02107
G1 X143.792 Y142.703 E.01813
G1 X144.104 Y143.265 E.01813
G1 X144.545 Y143.775 E.01903
G1 X145.023 Y144.154 E.01721
G1 X145.594 Y144.448 E.01813
;WIDTH:0.443274
G1 X145.747 Y144.514 E.00525
;WIDTH:0.486549
G1 X145.899 Y144.58 E.00581
;WIDTH:0.529824
G1 X146.051 Y144.645 E.00638
;WIDTH:0.573098
G1 X146.204 Y144.711 E.00695
G1 X146.111 Y144.731 E.00396
;WIDTH:0.532747
G1 X146.019 Y144.751 E.00366
;WIDTH:0.492395
G1 X145.926 Y144.772 E.00336
;WIDTH:0.452043
G1 X145.729 Y144.764 E.00638
;WIDTH:0.426021
G1 X145.532 Y144.757 E.00597
;WIDTH:0.399999
G1 X144.168 Y144.615 E.03867
G1 X142.446 Y144.251 E.04966
G1 X140.768 Y143.709 E.04974
G1 X139.17 Y143.002 E.04929
G1 X137.63 Y142.12 E.05005
G1 X136.2 Y141.089 E.04972
G1 X134.896 Y139.925 E.04931
G1 X133.702 Y138.612 E.05005
G1 X132.659 Y137.192 E.0497
G1 X131.776 Y135.682 E.04933
G1 X131.043 Y134.066 E.05005
G1 X130.488 Y132.395 E.04968
G1 X130.108 Y130.673 E.04974
G1 X129.912 Y128.937 E.04927
G1 X129.895 Y127.177 E.04967
G1 X130.066 Y125.398 E.05041
G1 X130.416 Y123.674 E.04961
G1 X130.943 Y121.996 E.0496
G1 X131.643 Y120.38 E.04968
G1 X132.506 Y118.846 E.04964
G1 X133.522 Y117.412 E.04957
G1 X134.918 Y115.809 E.05996
G1 X135.435 Y114.995 E.02719
G1 X135.738 Y114.348 E.02017
G1 X135.921 Y113.843 E.01515
G1 X136.118 Y113.207 E.01877
G1 X136.254 Y112.34 E.02477
G1 X136.291 Y85.024 E.77048
G1 X136.322 Y84.903 E.00354
G1 X136.422 Y84.859 E.00306
G1 X157.11 Y84.857 E.58354
G1 X157.245 Y84.902 E.00402
G1 X157.566 Y84.633 F18000
;TYPE:Outer wall
G1 F1500
G1 X157.722 Y84.947 E.00987
G1 X157.722 Y111.209 E.74078
G1 X157.744 Y112.478 E.0358
G1 X157.859 Y113.154 E.01933
G1 X158.143 Y114.023 E.02579
G1 X158.536 Y114.891 E.02688
G1 X158.967 Y115.56 E.02244
G1 X160.376 Y117.177 E.0605
G1 X161.414 Y118.642 E.05065
G1 X162.297 Y120.21 E.05074
G1 X163.018 Y121.88 E.05131
G1 X163.555 Y123.592 E.05062
G1 X163.911 Y125.351 E.05062
G1 X164.059 Y126.961 E.0456
G1 X164.081 Y127.493 E.01502
G1 X164.069 Y128.936 E.0407
G1 X163.868 Y130.72 E.05064
G1 X163.484 Y132.475 E.0507
G1 X162.886 Y134.259 E.05306
G1 X162.169 Y135.842 E.049
G1 X161.252 Y137.409 E.05124
G1 X160.193 Y138.85 E.05042
G1 X158.983 Y140.182 E.05077
G1 X157.64 Y141.383 E.05082
G1 X156.166 Y142.444 E.05123
G1 X154.617 Y143.333 E.05037
G1 X152.97 Y144.062 E.0508
G1 X151.255 Y144.616 E.05085
G1 X149.494 Y144.989 E.05077
G1 X147.703 Y145.176 E.05078
G1 X145.9 Y145.176 E.05086
G1 X144.11 Y144.989 E.05078
G1 X142.348 Y144.617 E.05077
G1 X140.633 Y144.063 E.05085
G1 X138.999 Y143.34 E.0504
G1 X137.425 Y142.439 E.05116
G1 X135.963 Y141.385 E.05083
G1 X134.629 Y140.194 E.05042
G1 X133.409 Y138.852 E.05116
G1 X132.342 Y137.4 E.05081
G1 X131.439 Y135.857 E.05045
G1 X130.69 Y134.205 E.05117
G1 X130.122 Y132.496 E.05079
G1 X129.734 Y130.735 E.05085
G1 X129.533 Y128.96 E.05038
G1 X129.517 Y127.16 E.05078
G1 X129.691 Y125.342 E.05153
G1 X130.049 Y123.579 E.05073
G1 X130.588 Y121.864 E.05072
G1 X131.303 Y120.211 E.05079
G1 X132.186 Y118.643 E.05075
G1 X133.224 Y117.178 E.05066
G1 X134.339 Y115.898 E.04788
G1 X134.769 Y115.351 E.01962
G1 X135.092 Y114.834 E.01721
G1 X135.382 Y114.218 E.01919
G1 X135.56 Y113.729 E.01467
G1 X135.746 Y113.136 E.01755
G1 X135.876 Y112.339 E.02276
G1 X135.912 Y85.024 E.77048
G1 X136.017 Y84.623 E.01168
