; HEADER_BLOCK_START
; generated by OrcaSlicer 2.3.1-dev on 2025-11-01 at 23:53:54
; total layer number: 157
; filament_density: 1.24,1.27
; filament_diameter: 1.75,1.75
; max_z_height: 50.12
; HEADER_BLOCK_END

; THUMBNAIL_BLOCK_START

;
; THUMBNAIL_BLOCK_END

; THUMBNAIL_BLOCK_START

;
; THUMBNAIL_BLOCK_END

; external perimeters extrusion width = 0.40mm
; perimeters extrusion width = 0.45mm
; infill extrusion width = 0.45mm
; solid infill extrusion width = 0.40mm
; top infill extrusion width = 0.40mm
; first layer extrusion width = 0.40mm

; EXECUTABLE_BLOCK_START
M73 P0 R38
;TYPE:Custom
start_print BED_TEMP=60 EXTRUDER_TEMP=210 CHAMBER_TEMP=0

G90
G21
M83 ; use relative distances for extrusion
; filament start gcode
; MANUAL_TOOL_CHANGE T0
;LAYER_CHANGE
;Z:0.2
;HEIGHT:0.2
;BEFORE_LAYER_CHANGE
;0.2
G92 E0

G1 E-3 F3600
;_SET_FAN_SPEED_CHANGING_LAYER
SET_VELOCITY_LIMIT ACCEL=300 ACCEL_TO_DECEL=150
SET_VELOCITY_LIMIT SQUARE_CORNER_VELOCITY=8
SET_VELOCITY_LIMIT SQUARE_CORNER_VELOCITY=8
G1 Z.6 F18000
G1 X76.744 Y76.668
G1 Z.6
G1 Z.2
G1 E3 F2400
;TYPE:Skirt
;WIDTH:0.4
G1 F3000
G1 X77.164 Y76.233 E.01759
G1 X78.469 Y75.353 E.04578
G1 X79.928 Y74.765 E.04578
G1 X81.477 Y74.492 E.04578
G1 X138.523 Y74.492 E1.65987
G1 X139.05 Y74.547 E.01542
G1 X140.072 Y74.765 E.03042
G1 X141.531 Y75.353 E.04578
G1 X142.836 Y76.233 E.04578
G1 X143.23 Y76.588 E.01543
G1 X144.241 Y77.793 E.04578
G1 X144.764 Y78.699 E.03041
G1 X145.302 Y80.177 E.04578
G1 X145.522 Y81.735 E.04578
G1 X145.536 Y138 E1.63717
G1 X145.412 Y139.305 E.03813
G1 X144.979 Y140.817 E.04578
G1 X144.241 Y142.207 E.04578
G1 X143.929 Y142.636 E.01542
G1 X142.836 Y143.767 E.04579
G1 X141.531 Y144.646 E.04578
G1 X140.072 Y145.236 E.04579
G1 X138.523 Y145.508 E.04578
G1 X81.477 Y145.508 E1.65987
G1 X79.928 Y145.236 E.04578
G1 X79.424 Y145.072 E.01543
G1 X78.469 Y144.646 E.03042
G1 X77.164 Y143.767 E.04578
G1 X76.071 Y142.636 E.04578
G1 X75.236 Y141.302 E.04578
G1 X74.698 Y139.823 E.04578
G1 X74.464 Y138 E.05348
G1 X74.464 Y82 E1.62946
G1 X74.588 Y80.695 E.03813
G1 X75.021 Y79.183 E.04578
G1 X75.236 Y78.698 E.01542
G1 X76.071 Y77.364 E.04578
G1 X76.716 Y76.696 E.02703
G1 X76.967 Y76.908 F18000
G1 F3000
G1 X77.035 Y76.827 E.0031
G1 X78.614 Y75.68 E.05677
G1 X80.002 Y75.114 E.04362
G1 X81.477 Y74.849 E.04362
G1 X138.976 Y74.896 E1.67305
G1 X139.998 Y75.114 E.03042
G1 X141.386 Y75.68 E.04362
G1 X142.965 Y76.827 E.05678
G1 X143.664 Y77.603 E.03041
G1 X144.454 Y78.877 E.04362
G1 X144.963 Y80.287 E.04361
G1 X145.167 Y81.772 E.04361
G1 X145.179 Y138 E1.63609
G1 X145.057 Y139.267 E.03705
G1 X144.64 Y140.707 E.04361
G1 X143.932 Y142.028 E.04361
G1 X142.965 Y143.173 E.04362
G1 X141.78 Y144.093 E.04362
G1 X140.431 Y144.745 E.04361
G1 X138.523 Y145.151 E.05678
G1 X81.477 Y145.151 E1.65987
G1 X79.569 Y144.745 E.05678
G1 X78.219 Y144.093 E.04362
G1 X77.035 Y143.173 E.04362
G1 X76.068 Y142.028 E.04361
G1 X75.36 Y140.707 E.04362
G1 X74.943 Y139.267 E.04362
G1 X74.821 Y138 E.03704
G1 X74.821 Y82 E1.62946
G1 X74.943 Y80.733 E.03704
G1 X75.36 Y79.293 E.04362
G1 X76.068 Y77.972 E.04362
G1 X76.941 Y76.938 E.03935
; printing object square_tower.stl id:3152 copy 0
G1 E-2.1 F3600
;WIPE_START
G1 F3000
G1 X77.035 Y76.827 E-.06591
G1 X78.535 Y75.737 E-.83409
;WIPE_END
G1 Z.6 F18000
G1 X139.693 Y133.894 Z.6
G1 Z.2
G1 E3 F2400
;TYPE:Inner wall
;WIDTH:0.399999
G1 F1500
G1 X139.761 Y133.951 E.00257
G1 X140.22 Y134.155 E.01463
G1 X140.971 Y134.701 E.02701
G1 X141.592 Y135.39 E.02701
G1 X142.056 Y136.194 E.02701
G1 X142.343 Y137.077 E.02701
G1 X142.44 Y138 E.02701
G1 X142.343 Y138.923 E.02701
G1 X142.056 Y139.806 E.02701
G1 X141.592 Y140.61 E.02701
G1 X140.971 Y141.299 E.02701
G1 X140.22 Y141.845 E.02701
G1 X139.372 Y142.223 E.02701
G1 X138.464 Y142.416 E.02701
G1 X137.536 Y142.416 E.02701
G1 X136.628 Y142.223 E.02701
G1 X135.78 Y141.845 E.02701
G1 X135.029 Y141.299 E.02701
G1 X134.408 Y140.61 E.02701
G3 X133.86 Y139.65 I68.059 J-39.512 E.03216
G1 X133.604 Y139.47 E.00912
G1 X133.437 Y139.443 E.00492
G1 X86.563 Y139.443 E1.36391
G1 X86.396 Y139.47 E.00492
G1 X86.14 Y139.65 E.00912
G3 X85.592 Y140.61 I-16.336 J-8.694 E.03216
G1 X84.971 Y141.299 E.02701
G1 X84.22 Y141.845 E.02701
G1 X83.372 Y142.223 E.02701
G1 X82.464 Y142.416 E.02701
G1 X81.536 Y142.416 E.02701
G1 X80.628 Y142.223 E.02701
G1 X79.78 Y141.845 E.02701
G1 X79.029 Y141.299 E.02701
G1 X78.408 Y140.61 E.02701
G1 X77.944 Y139.806 E.02701
G1 X77.657 Y138.923 E.02701
G1 X77.56 Y138 E.02701
G1 X77.657 Y137.077 E.02701
G1 X77.944 Y136.194 E.02701
G1 X78.408 Y135.39 E.02701
G1 X79.029 Y134.701 E.02701
G1 X79.78 Y134.155 E.02701
G2 X80.401 Y133.839 I-1.111 J-2.954 E.02031
G1 X80.531 Y133.626 E.00728
G1 X80.557 Y133.461 E.00485
G1 X80.557 Y86.539 E1.36532
G1 X80.461 Y86.232 E.00936
G1 X80.239 Y86.049 E.00834
G1 X79.78 Y85.845 E.01463
G1 X79.029 Y85.299 E.02701
G1 X78.408 Y84.61 E.02701
G1 X77.944 Y83.806 E.02701
G1 X77.657 Y82.923 E.02701
G1 X77.56 Y82 E.02701
G1 X77.657 Y81.077 E.02701
G1 X77.944 Y80.194 E.02701
G1 X78.408 Y79.39 E.02701
G1 X79.029 Y78.701 E.02701
G1 X79.78 Y78.155 E.02701
G1 X80.628 Y77.777 E.02701
G1 X81.536 Y77.584 E.02701
G1 X82.464 Y77.584 E.02701
G1 X83.372 Y77.777 E.02701
G1 X84.22 Y78.155 E.02701
G1 X84.971 Y78.701 E.02701
G1 X85.592 Y79.39 E.02701
G3 X86.14 Y80.35 I-66.948 J38.873 E.03215
G1 X86.396 Y80.53 E.00912
G1 X86.563 Y80.557 E.00492
G1 X133.437 Y80.557 E1.36391
G1 X133.604 Y80.53 E.00492
G1 X133.86 Y80.35 E.00912
G3 X134.408 Y79.39 I16.656 J8.877 E.03216
G1 X135.029 Y78.701 E.02701
G1 X135.78 Y78.155 E.02701
G1 X136.628 Y77.777 E.02701
G1 X137.536 Y77.584 E.02701
G1 X138.464 Y77.584 E.02701
G1 X139.372 Y77.777 E.02701
G1 X140.22 Y78.155 E.02701
G1 X140.971 Y78.701 E.02701
G1 X141.592 Y79.39 E.02701
G1 X142.056 Y80.194 E.02701
G1 X142.343 Y81.077 E.02701
G1 X142.44 Y82 E.02701
G1 X142.343 Y82.923 E.02701
G1 X142.056 Y83.806 E.02701
G1 X141.592 Y84.61 E.02701
G1 X140.971 Y85.299 E.02701
G1 X140.22 Y85.845 E.02701
G1 X139.761 Y86.049 E.01463
G1 X139.539 Y86.232 E.00834
G1 X139.443 Y86.539 E.00936
G1 X139.443 Y133.534 E1.36745
G1 X139.539 Y133.768 E.00736
M73 P1 R38
G1 X139.662 Y133.869 E.00461
G1 X139.906 Y133.624 F18000
;TYPE:Outer wall
G1 F1500
G1 X140.399 Y133.844 E.01572
G1 X141.211 Y134.434 E.02919
G1 X141.882 Y135.179 E.02919
G1 X142.384 Y136.048 E.02919
G1 X142.694 Y137.002 E.02919
G1 X142.799 Y138 E.02919
G1 X142.694 Y138.998 E.02919
G1 X142.384 Y139.952 E.02919
G1 X141.882 Y140.821 E.02919
G1 X141.211 Y141.566 E.02919
G1 X140.399 Y142.156 E.02919
G1 X139.483 Y142.564 E.02919
G1 X138.502 Y142.773 E.02919
G1 X137.498 Y142.773 E.02919
G1 X136.517 Y142.564 E.02919
G1 X135.601 Y142.156 E.02919
G1 X134.789 Y141.566 E.02919
G1 X134.118 Y140.821 E.02919
G3 X133.578 Y139.869 I37.951 J-22.152 E.03183
G1 X133.437 Y139.8 E.00457
G1 X86.563 Y139.8 E1.36391
G1 X86.46 Y139.833 E.00316
G2 X85.882 Y140.821 I11.312 J7.273 E.03329
G1 X85.211 Y141.566 E.02919
G1 X84.399 Y142.156 E.02919
G1 X83.483 Y142.564 E.02919
G1 X82.502 Y142.773 E.02919
G1 X81.498 Y142.773 E.02919
G1 X80.517 Y142.564 E.02919
G1 X79.601 Y142.156 E.02919
G1 X78.789 Y141.566 E.02919
G1 X78.118 Y140.821 E.02919
G1 X77.616 Y139.952 E.02919
G1 X77.306 Y138.998 E.02919
G1 X77.201 Y138 E.02919
G1 X77.306 Y137.002 E.02919
G1 X77.616 Y136.048 E.02919
G1 X78.118 Y135.179 E.02919
G1 X78.789 Y134.434 E.02919
G1 X79.601 Y133.844 E.02919
G1 X80.128 Y133.604 E.01686
G1 X80.2 Y133.461 E.00466
G1 X80.2 Y86.494 E1.36664
G1 X80.094 Y86.376 E.00461
G1 X79.601 Y86.156 E.01572
G1 X78.789 Y85.566 E.02919
G1 X78.118 Y84.821 E.02919
G1 X77.616 Y83.952 E.02919
G1 X77.306 Y82.998 E.02919
G1 X77.201 Y82 E.02919
G1 X77.306 Y81.002 E.02919
G1 X77.616 Y80.048 E.02919
G1 X78.118 Y79.179 E.02919
G1 X78.789 Y78.434 E.02919
G1 X79.601 Y77.844 E.02919
G1 X80.517 Y77.436 E.02919
G1 X81.498 Y77.227 E.02919
G1 X82.502 Y77.227 E.02919
G1 X83.483 Y77.436 E.02919
G1 X84.399 Y77.844 E.02919
G1 X85.211 Y78.434 E.02919
G1 X85.882 Y79.179 E.02919
G3 X86.422 Y80.131 I-37.599 J21.95 E.03183
G1 X86.563 Y80.2 E.00457
G1 X133.437 Y80.2 E1.36391
G1 X133.54 Y80.167 E.00316
G2 X134.118 Y79.179 I-11.128 J-7.166 E.0333
G1 X134.789 Y78.434 E.02919
G1 X135.601 Y77.844 E.02919
G1 X136.517 Y77.436 E.02919
G1 X137.498 Y77.227 E.02919
G1 X138.502 Y77.227 E.02919
G1 X139.483 Y77.436 E.02919
G1 X140.399 Y77.844 E.02919
G1 X141.211 Y78.434 E.02919
G1 X141.882 Y79.179 E.02919
G1 X142.384 Y80.048 E.02919
G1 X142.694 Y81.002 E.02919
G1 X142.799 Y82 E.02919
G1 X142.694 Y82.998 E.02919
G1 X142.384 Y83.952 E.02919
G1 X141.882 Y84.821 E.02919
G1 X141.211 Y85.566 E.02919
G1 X140.399 Y86.156 E.02919
G1 X139.872 Y86.396 E.01686
G1 X139.8 Y86.539 E.00466
G1 X139.8 Y133.506 E1.36664
G1 X139.879 Y133.595 E.00345
G1 E-2.1 F3600
;WIPE_START
G1 F1500
G1 X140.399 Y133.844 E-.25965
G1 X141.211 Y134.434 E-.45147
G1 X141.492 Y134.746 E-.18889
;WIPE_END
G1 Z.6 F18000
G1 X135.557 Y111.539 Z.6
G1 Z.2
G1 E3 F2400
;TYPE:Inner wall
G1 F1500
G1 X135.557 Y135.021 E.68327
G1 X135.48 Y135.298 E.00835
G1 X135.279 Y135.491 E.00812
G1 X135.021 Y135.557 E.00773
G1 X111.539 Y135.557 E.68327
G1 X111.344 Y135.949 E.01274
G1 X111.095 Y136.057 E.00789
G1 X108.979 Y136.057 E.0616
G3 X108.656 Y135.949 I0 J-.536 E.01007
G1 X108.461 Y135.557 E.01274
G1 X84.979 Y135.557 E.68327
G1 X84.721 Y135.491 E.00774
G1 X84.52 Y135.298 E.00812
G1 X84.443 Y135.021 E.00835
G1 X84.443 Y107.539 E.79966
G1 X84.051 Y107.344 E.01274
G1 X83.943 Y107.095 E.00789
G1 X83.943 Y104.979 E.0616
G3 X84.051 Y104.656 I.536 J0 E.01007
G1 X84.443 Y104.461 E.01274
G1 X84.443 Y84.979 E.56688
G1 X84.52 Y84.702 E.00834
G1 X84.721 Y84.509 E.00812
G1 X84.979 Y84.443 E.00774
G1 X108.461 Y84.443 E.68327
G1 X108.656 Y84.051 E.01274
G1 X108.905 Y83.943 E.00789
G1 X111.021 Y83.943 E.0616
G3 X111.344 Y84.051 I0 J.536 E.01007
G1 X111.539 Y84.443 E.01274
G1 X135.021 Y84.443 E.68327
G1 X135.279 Y84.509 E.00773
G1 X135.48 Y84.702 E.00812
G1 X135.557 Y84.979 E.00834
G1 X135.557 Y108.461 E.68327
G1 X135.949 Y108.656 E.01274
G3 X136.057 Y108.979 I-.428 J.323 E.01007
G1 X136.057 Y111.021 E.05944
G3 X135.949 Y111.344 I-.536 J0 E.01007
G1 X135.593 Y111.522 E.01158
G1 X135.2 Y111.2 F18000
;TYPE:Outer wall
G1 F1500
G1 X135.2 Y135.021 E.69314
G1 X135.131 Y135.162 E.00456
G1 X135.021 Y135.2 E.00337
G1 X111.2 Y135.2 E.69314
G1 X111.2 Y135.521 E.00935
M73 P2 R38
G1 X111.073 Y135.7 E.00638
G1 X108.979 Y135.7 E.06093
G1 X108.871 Y135.664 E.0033
G1 X108.8 Y135.521 E.00463
G1 X108.8 Y135.2 E.00935
G1 X84.979 Y135.2 E.69314
G1 X84.836 Y135.129 E.00463
G1 X84.8 Y135.021 E.0033
G1 X84.8 Y107.2 E.80953
G1 X84.479 Y107.2 E.00935
G1 X84.3 Y107.073 E.00638
G1 X84.3 Y104.979 E.06093
G1 X84.336 Y104.871 E.0033
G1 X84.479 Y104.8 E.00463
G1 X84.8 Y104.8 E.00935
G1 X84.8 Y84.979 E.57675
G1 X84.869 Y84.838 E.00456
G1 X84.979 Y84.8 E.00337
G1 X108.8 Y84.8 E.69314
G1 X108.8 Y84.479 E.00935
G1 X108.927 Y84.3 E.00638
G1 X111.021 Y84.3 E.06093
G1 X111.129 Y84.336 E.0033
G1 X111.2 Y84.479 E.00463
G1 X111.2 Y84.8 E.00935
G1 X135.021 Y84.8 E.69314
G1 X135.164 Y84.871 E.00463
G1 X135.2 Y84.979 E.0033
G1 X135.2 Y108.8 E.69314
G1 X135.521 Y108.8 E.00935
G1 X135.7 Y108.927 E.00638
G1 X135.7 Y111.021 E.06093
G1 X135.664 Y111.129 E.0033
G1 X135.521 Y111.2 E.00463
G1 X135.24 Y111.2 E.00819
G1 E-2.1 F3600
;WIPE_START
G1 F1500
G1 X135.237 Y113.2 E-.9
;WIPE_END
G1 Z.6 F18000
G1 X142.118 Y80.733 Z.6
G1 Z.2
G1 E3 F2400
;TYPE:Bottom surface
;WIDTH:0.400172
G1 F1800
G1 X139.524 Y78.138 E.10681
G1 X139.289 Y78.034 E.00749
G1 X138.813 Y77.932 E.01417
G1 X142.087 Y81.207 E.1348
G1 X142.147 Y81.771 E.01653
G1 X138.227 Y77.852 E.16135
G1 X137.722 Y77.852 E.01471
G1 X142.142 Y82.272 E.18196
G1 X142.094 Y82.729 E.01338
G1 X137.278 Y77.913 E.19828
G1 X136.861 Y78.002 E.0124
G1 X141.993 Y83.133 E.21127
G1 X141.869 Y83.515 E.01167
G1 X136.487 Y78.133 E.22156
G1 X136.138 Y78.289 E.01114
G1 X141.713 Y83.864 E.22953
G1 X141.528 Y84.184 E.01077
G1 X135.809 Y78.465 E.23546
G1 X135.516 Y78.678 E.01053
G1 X141.334 Y84.496 E.23953
G1 X141.095 Y84.762 E.01041
M73 P2 R37
G1 X135.224 Y78.89 E.24172
G1 X134.982 Y79.154 E.01041
G1 X140.855 Y85.027 E.24183
G3 X140.577 Y85.254 I-.673 J-.541 E.01053
G1 X134.742 Y79.419 E.24023
G2 X134.531 Y79.714 I.576 J.636 E.01062
G1 X140.285 Y85.467 E.23686
G3 X139.974 Y85.662 I-.629 J-.656 E.01074
G1 X134.347 Y80.035 E.23167
G1 X134.163 Y80.356 E.01078
G1 X139.627 Y85.82 E.22493
G2 X139.347 Y86.045 I.473 J.871 E.01052
G1 X133.942 Y80.64 E.22254
G1 X133.903 Y80.677 E.00156
G1 X133.687 Y80.786 E.00704
G1 X133.597 Y80.8 E.00266
G1 X139.196 Y86.399 E.2305
G2 X139.175 Y86.884 I1.529 J.308 E.01417
G1 X133.116 Y80.825 E.24944
G1 X132.611 Y80.825 E.01471
G1 X139.175 Y87.389 E.27024
G1 X139.175 Y87.894 E.01471
G1 X132.106 Y80.825 E.29104
G1 X131.601 Y80.825 E.01471
G1 X134.951 Y84.175 E.13793
G3 X135.825 Y85.049 I.06 J.814 E.04082
G1 X139.175 Y88.399 E.13793
G1 X139.175 Y88.905 E.01471
G1 X135.825 Y85.554 E.13793
G1 X135.825 Y86.06 E.01471
G1 X139.175 Y89.41 E.13793
G1 X139.175 Y89.915 E.01471
G1 X135.825 Y86.565 E.13793
G1 X135.825 Y87.07 E.01471
G1 X139.175 Y90.42 E.13793
G1 X139.175 Y90.925 E.01471
G1 X135.825 Y87.575 E.13793
G1 X135.825 Y88.08 E.01471
G1 X139.175 Y91.431 E.13793
G1 X139.175 Y91.936 E.01471
G1 X135.825 Y88.586 E.13793
G1 X135.825 Y89.091 E.01471
G1 X139.175 Y92.441 E.13793
G1 X139.175 Y92.946 E.01471
G1 X135.825 Y89.596 E.13793
G1 X135.825 Y90.101 E.01471
G1 X139.175 Y93.452 E.13793
G1 X139.175 Y93.957 E.01471
G1 X135.825 Y90.607 E.13793
G1 X135.825 Y91.112 E.01471
G1 X139.175 Y94.462 E.13793
G1 X139.175 Y94.967 E.01471
G1 X135.825 Y91.617 E.13793
G1 X135.825 Y92.122 E.01471
G1 X139.175 Y95.473 E.13793
G1 X139.175 Y95.978 E.01471
G1 X135.825 Y92.628 E.13793
G1 X135.825 Y93.133 E.01471
G1 X139.175 Y96.483 E.13793
G1 X139.175 Y96.988 E.01471
G1 X135.825 Y93.638 E.13793
G1 X135.825 Y94.143 E.01471
G1 X139.175 Y97.493 E.13793
G1 X139.175 Y97.999 E.01471
G1 X135.825 Y94.648 E.13793
G1 X135.825 Y95.154 E.01471
G1 X139.175 Y98.504 E.13793
G1 X139.175 Y99.009 E.01471
G1 X135.825 Y95.659 E.13793
G1 X135.825 Y96.164 E.01471
G1 X139.175 Y99.514 E.13793
G1 X139.175 Y100.02 E.01471
G1 X135.825 Y96.669 E.13793
G1 X135.825 Y97.175 E.01471
G1 X139.175 Y100.525 E.13793
G1 X139.175 Y101.03 E.01471
G1 X135.825 Y97.68 E.13793
G1 X135.825 Y98.185 E.01471
G1 X139.175 Y101.535 E.13793
G1 X139.175 Y102.041 E.01471
G1 X135.825 Y98.69 E.13793
G1 X135.825 Y99.196 E.01471
G1 X139.175 Y102.546 E.13793
G1 X139.175 Y103.051 E.01471
G1 X135.825 Y99.701 E.13793
G1 X135.825 Y100.206 E.01471
M73 P3 R37
G1 X139.175 Y103.556 E.13793
G1 X139.175 Y104.061 E.01471
G1 X135.825 Y100.711 E.13793
G1 X135.825 Y101.216 E.01471
G1 X139.175 Y104.567 E.13793
G1 X139.175 Y105.072 E.01471
G1 X135.825 Y101.722 E.13793
G1 X135.825 Y102.227 E.01471
G1 X139.175 Y105.577 E.13793
G1 X139.175 Y106.082 E.01471
G1 X135.825 Y102.732 E.13793
G1 X135.825 Y103.237 E.01471
G1 X139.175 Y106.588 E.13793
G1 X139.175 Y107.093 E.01471
G1 X135.825 Y103.743 E.13793
G1 X135.825 Y104.248 E.01471
G1 X139.175 Y107.598 E.13793
G1 X139.175 Y108.103 E.01471
G1 X135.825 Y104.753 E.13793
G1 X135.825 Y105.258 E.01471
G1 X139.175 Y108.609 E.13793
G1 X139.175 Y109.114 E.01471
G1 X135.825 Y105.764 E.13793
G1 X135.825 Y106.269 E.01471
G1 X139.175 Y109.619 E.13793
G1 X139.175 Y110.124 E.01471
G1 X135.825 Y106.774 E.13793
G1 X135.825 Y107.279 E.01471
G1 X139.175 Y110.629 E.13793
G1 X139.175 Y111.135 E.01471
G1 X135.825 Y107.784 E.13793
G1 X135.825 Y108.29 E.01471
G1 X139.175 Y111.64 E.13793
G1 X139.175 Y112.145 E.01471
G1 X136.325 Y109.295 E.11734
G1 X136.325 Y109.8 E.01471
G1 X139.175 Y112.65 E.11734
G1 X139.175 Y113.156 E.01471
G1 X136.325 Y110.305 E.11734
G1 X136.325 Y110.811 E.01471
G1 X139.175 Y113.661 E.11734
G1 X139.175 Y114.166 E.01471
G1 X136.284 Y111.275 E.11904
G1 X136.157 Y111.519 E.00801
G1 X136.067 Y111.563 E.00292
G1 X139.175 Y114.671 E.12795
G1 X139.175 Y115.177 E.01471
G1 X135.825 Y111.826 E.13793
G1 X135.825 Y112.332 E.01471
G1 X139.175 Y115.682 E.13793
G1 X139.175 Y116.187 E.01471
G1 X135.825 Y112.837 E.13793
G1 X135.825 Y113.342 E.01471
G1 X139.175 Y116.692 E.13793
