; HEADER_BLOCK_START
; generated by OrcaSlicer 2.3.1-dev on 2025-11-02 at 15:31:48
; total layer number: 167
; filament_density: 1.24,1.27
; filament_diameter: 1.75,1.75
; max_z_height: 50.10
; HEADER_BLOCK_END

; THUMBNAIL_BLOCK_START

;
; THUMBNAIL_BLOCK_END

; THUMBNAIL_BLOCK_START

;
; THUMBNAIL_BLOCK_END

; external perimeters extrusion width = 0.40mm
; perimeters extrusion width = 0.45mm
; infill extrusion width = 0.45mm
; solid infill extrusion width = 0.40mm
; top infill extrusion width = 0.40mm
; first layer extrusion width = 0.40mm

; EXECUTABLE_BLOCK_START
M73 P0 R54
;TYPE:Custom
start_print BED_TEMP=60 EXTRUDER_TEMP=210 CHAMBER_TEMP=0

G90
G21
M83 ; use relative distances for extrusion
; filament start gcode
; MANUAL_TOOL_CHANGE T0
;LAYER_CHANGE
;Z:0.3
;HEIGHT:0.3
;BEFORE_LAYER_CHANGE
;0.3
G92 E0

G1 E-3 F3600
;_SET_FAN_SPEED_CHANGING_LAYER
SET_VELOCITY_LIMIT ACCEL=300 ACCEL_TO_DECEL=150
SET_VELOCITY_LIMIT SQUARE_CORNER_VELOCITY=8
SET_VELOCITY_LIMIT SQUARE_CORNER_VELOCITY=8
G1 Z.7 F18000
G1 X76.767 Y76.69
G1 Z.7
G1 Z.3
G1 E3 F2400
;TYPE:Skirt
;WIDTH:0.4
G1 F3000
G1 X77.183 Y76.259 E.02456
G1 X78.482 Y75.383 E.06427
G1 X79.934 Y74.796 E.06427
G1 X81.477 Y74.524 E.06427
G1 X138.523 Y74.524 E2.34017
G1 X139.043 Y74.579 E.02147
G1 X140.066 Y74.796 E.04288
G1 X141.518 Y75.383 E.06427
G1 X142.817 Y76.259 E.06427
G1 X143.206 Y76.609 E.02147
G1 X143.906 Y77.386 E.04288
G1 X144.736 Y78.715 E.06427
G1 X145.272 Y80.187 E.06427
G1 X145.49 Y81.738 E.06427
G1 X145.503 Y138 E2.30803
G1 X145.38 Y139.301 E.05362
M73 P0 R53
G1 X144.949 Y140.807 E.06427
G1 X144.213 Y142.191 E.06427
G1 X143.906 Y142.614 E.02147
G1 X142.817 Y143.741 E.06428
G1 X141.518 Y144.617 E.06427
G1 X140.066 Y145.204 E.06428
G1 X138.523 Y145.476 E.06427
G1 X81.477 Y145.476 E2.34017
G1 X79.934 Y145.204 E.06427
G1 X79.437 Y145.042 E.02148
G1 X78.482 Y144.617 E.04288
G1 X77.183 Y143.741 E.06427
G1 X76.095 Y142.614 E.06427
G1 X75.264 Y141.285 E.06427
G1 X74.728 Y139.813 E.06427
G1 X74.497 Y138 E.07499
G1 X74.497 Y82 E2.29729
G1 X74.62 Y80.699 E.05362
G1 X75.051 Y79.193 E.06427
G1 X75.264 Y78.715 E.02147
G1 X76.095 Y77.386 E.06427
G1 X76.739 Y76.718 E.03807
G1 X76.974 Y76.916 F18000
G1 F3000
G1 X77.043 Y76.834 E.00444
G1 X78.618 Y75.689 E.07986
G1 X80.004 Y75.124 E.0614
G1 X81.477 Y74.86 E.0614
G1 X138.973 Y74.907 E2.35866
G1 X139.996 Y75.124 E.04288
G1 X141.382 Y75.689 E.0614
G1 X142.957 Y76.834 E.07986
G1 X143.656 Y77.611 E.04288
G1 X144.445 Y78.882 E.0614
G1 X144.952 Y80.291 E.0614
G1 X145.156 Y81.773 E.0614
G1 X145.168 Y138 E2.30659
G1 X145.047 Y139.266 E.05218
G1 X144.629 Y140.704 E.0614
G1 X143.923 Y142.023 E.0614
G1 X142.957 Y143.166 E.0614
G1 X141.774 Y144.084 E.06141
G1 X140.427 Y144.736 E.0614
G1 X138.523 Y145.14 E.07987
G1 X81.477 Y145.14 E2.34017
G1 X79.573 Y144.736 E.07986
G1 X78.226 Y144.084 E.0614
G1 X77.043 Y143.166 E.0614
G1 X76.078 Y142.023 E.0614
G1 X75.371 Y140.704 E.0614
G1 X74.953 Y139.266 E.0614
G1 X74.832 Y138 E.05218
G1 X74.832 Y82 E2.29729
G1 X74.953 Y80.734 E.05218
G1 X75.371 Y79.296 E.0614
G1 X76.078 Y77.977 E.0614
G1 X76.948 Y76.947 E.05532
; printing object square_tower.stl id:658152688 copy 0
G1 E-2.1 F3600
;WIPE_START
G1 F3000
G1 X77.043 Y76.834 E-.06666
G1 X78.542 Y75.745 E-.83334
;WIPE_END
G1 Z.7 F18000
G1 X139.475 Y134.127 Z.7
G1 Z.3
G1 E3 F2400
;TYPE:Inner wall
;WIDTH:0.4
G1 F1500
G1 X139.553 Y134.197 E.00431
G1 X140.062 Y134.429 E.02295
G1 X140.76 Y134.935 E.03537
G1 X141.336 Y135.576 E.03537
G1 X141.767 Y136.323 E.03537
G1 X142.034 Y137.143 E.03537
G1 X142.124 Y138 E.03537
G1 X142.034 Y138.857 E.03537
G1 X141.767 Y139.677 E.03537
G1 X141.336 Y140.424 E.03537
G1 X140.76 Y141.065 E.03537
G1 X140.062 Y141.571 E.03537
G1 X139.274 Y141.922 E.03537
G1 X138.431 Y142.101 E.03537
G1 X137.569 Y142.101 E.03537
G1 X136.726 Y141.922 E.03537
G1 X135.938 Y141.571 E.03537
G1 X135.24 Y141.065 E.03537
G1 X134.666 Y140.426 E.03524
G1 X134.169 Y139.553 E.04119
G1 X133.93 Y139.287 E.01468
G1 X133.704 Y139.171 E.01043
G1 X133.44 Y139.129 E.01096
G1 X86.445 Y139.129 E1.92788
G1 X86.07 Y139.287 E.01671
G1 X85.83 Y139.553 E.01468
G1 X85.334 Y140.426 E.04119
G1 X84.759 Y141.065 E.03524
G1 X84.062 Y141.571 E.03537
G1 X83.274 Y141.922 E.03537
G1 X82.431 Y142.101 E.03537
G1 X81.569 Y142.101 E.03537
G1 X80.726 Y141.922 E.03537
G1 X79.938 Y141.571 E.03537
G1 X79.241 Y141.065 E.03537
G1 X78.664 Y140.424 E.03537
G1 X78.233 Y139.677 E.03537
G1 X77.966 Y138.857 E.03537
G1 X77.876 Y138 E.03537
G1 X77.966 Y137.143 E.03537
G1 X78.233 Y136.323 E.03537
G1 X78.664 Y135.576 E.03537
G1 X79.241 Y134.935 E.03537
G1 X79.938 Y134.429 E.03537
G1 X80.373 Y134.235 E.01955
G1 X80.625 Y134.062 E.01253
G1 X80.83 Y133.728 E.01609
G1 X80.871 Y133.468 E.01077
G1 X80.871 Y86.532 E1.92547
G1 X80.83 Y86.272 E.01077
G1 X80.718 Y86.049 E.01027
G1 X80.447 Y85.803 E.015
G1 X79.938 Y85.571 E.02295
G1 X79.241 Y85.065 E.03537
G1 X78.664 Y84.424 E.03537
G1 X78.233 Y83.677 E.03537
G1 X77.966 Y82.857 E.03537
G1 X77.876 Y82 E.03537
G1 X77.966 Y81.143 E.03537
G1 X78.233 Y80.323 E.03537
G1 X78.664 Y79.576 E.03537
G1 X79.241 Y78.935 E.03537
G1 X79.938 Y78.429 E.03537
G1 X80.726 Y78.078 E.03537
G1 X81.569 Y77.899 E.03537
G1 X82.431 Y77.899 E.03537
G1 X83.274 Y78.078 E.03537
G1 X84.062 Y78.429 E.03537
G1 X84.759 Y78.935 E.03537
G1 X85.334 Y79.574 E.03524
G1 X85.83 Y80.447 E.04119
G1 X86.07 Y80.713 E.01468
G1 X86.296 Y80.829 E.01043
G1 X86.56 Y80.871 E.01096
G1 X133.555 Y80.871 E1.92788
G1 X133.93 Y80.713 E.01671
G1 X134.17 Y80.447 E.01468
G1 X134.666 Y79.574 E.04119
G1 X135.24 Y78.935 E.03524
G1 X135.938 Y78.429 E.03537
G1 X136.726 Y78.078 E.03537
G1 X137.569 Y77.899 E.03537
G1 X138.431 Y77.899 E.03536
G1 X139.274 Y78.078 E.03537
G1 X140.062 Y78.429 E.03537
G1 X140.76 Y78.935 E.03537
G1 X141.336 Y79.576 E.03537
G1 X141.767 Y80.323 E.03537
G1 X142.034 Y81.143 E.03537
G1 X142.124 Y82 E.03537
G1 X142.034 Y82.857 E.03537
G1 X141.767 Y83.677 E.03537
G1 X141.336 Y84.424 E.03537
G1 X140.76 Y85.065 E.03537
G1 X140.062 Y85.571 E.03537
G1 X139.627 Y85.765 E.01955
G1 X139.375 Y85.938 E.01253
G1 X139.17 Y86.272 E.01608
G1 X139.129 Y86.532 E.01077
G1 X139.129 Y133.583 E1.93017
G1 X139.282 Y133.951 E.01638
G1 X139.445 Y134.1 E.00905
G1 X139.699 Y133.876 F18000
G1 F1500
G1 X139.763 Y133.928 E.00338
G1 X140.231 Y134.136 E.021
G1 X140.985 Y134.685 E.03826
G1 X141.609 Y135.378 E.03826
G1 X142.076 Y136.185 E.03826
G1 X142.364 Y137.072 E.03826
G1 X142.461 Y138 E.03826
G1 X142.364 Y138.928 E.03826
G1 X142.076 Y139.815 E.03826
G1 X141.609 Y140.622 E.03826
G1 X140.985 Y141.315 E.03826
G1 X140.231 Y141.864 E.03826
G1 X139.379 Y142.243 E.03826
G1 X138.466 Y142.437 E.03826
G1 X137.534 Y142.437 E.03826
G1 X136.621 Y142.243 E.03826
G1 X135.769 Y141.864 E.03826
G1 X135.015 Y141.315 E.03826
G1 X134.392 Y140.624 E.03819
G1 X133.878 Y139.719 E.04269
G1 X133.734 Y139.559 E.00881
G1 X133.44 Y139.464 E.01268
G1 X86.491 Y139.464 E1.926
G1 X86.266 Y139.559 E.01002
G1 X86.122 Y139.719 E.00881
G1 X85.608 Y140.624 E.04269
G1 X84.985 Y141.315 E.03819
G1 X84.231 Y141.864 E.03826
G1 X83.379 Y142.243 E.03826
G1 X82.466 Y142.437 E.03826
G1 X81.534 Y142.437 E.03826
G1 X80.621 Y142.243 E.03826
G1 X79.769 Y141.864 E.03826
G1 X79.015 Y141.315 E.03826
G1 X78.391 Y140.622 E.03826
G1 X77.924 Y139.815 E.03826
G1 X77.636 Y138.928 E.03826
G1 X77.539 Y138 E.03826
G1 X77.636 Y137.072 E.03826
G1 X77.924 Y136.185 E.03826
G1 X78.391 Y135.378 E.03826
G1 X79.015 Y134.685 E.03826
G1 X79.769 Y134.136 E.03826
G1 X80.111 Y133.984 E.01533
G1 X80.388 Y133.824 E.01313
G1 X80.511 Y133.624 E.00965
G1 X80.536 Y133.468 E.00646
G1 X80.536 Y86.532 E1.92547
G1 X80.444 Y86.242 E.01248
G1 X80.237 Y86.072 E.01098
G1 X79.769 Y85.864 E.021
G1 X79.015 Y85.315 E.03826
G1 X78.391 Y84.622 E.03826
G1 X77.924 Y83.815 E.03826
G1 X77.636 Y82.928 E.03826
G1 X77.539 Y82 E.03826
G1 X77.636 Y81.072 E.03826
G1 X77.924 Y80.185 E.03826
G1 X78.391 Y79.378 E.03826
G1 X79.015 Y78.685 E.03826
G1 X79.769 Y78.136 E.03826
G1 X80.621 Y77.757 E.03826
G1 X81.534 Y77.563 E.03826
G1 X82.466 Y77.563 E.03826
G1 X83.379 Y77.757 E.03826
G1 X84.231 Y78.136 E.03826
G1 X84.985 Y78.685 E.03826
G1 X85.608 Y79.376 E.03819
G1 X86.122 Y80.281 E.04269
G1 X86.266 Y80.441 E.00881
G1 X86.56 Y80.536 E.01268
G1 X133.509 Y80.536 E1.926
G1 X133.734 Y80.441 E.01002
M73 P1 R53
G1 X133.878 Y80.281 E.00881
G1 X134.392 Y79.376 E.04269
G1 X135.015 Y78.685 E.03819
G1 X135.769 Y78.136 E.03826
G1 X136.621 Y77.757 E.03826
G1 X137.534 Y77.563 E.03826
G1 X138.466 Y77.563 E.03826
G1 X139.379 Y77.757 E.03826
G1 X140.231 Y78.136 E.03826
G1 X140.985 Y78.685 E.03826
G1 X141.609 Y79.378 E.03826
G1 X142.076 Y80.185 E.03826
G1 X142.364 Y81.072 E.03826
G1 X142.461 Y82 E.03826
G1 X142.364 Y82.928 E.03826
G1 X142.076 Y83.815 E.03826
G1 X141.609 Y84.622 E.03826
G1 X140.985 Y85.315 E.03826
G1 X140.231 Y85.864 E.03826
G1 X139.763 Y86.072 E.021
G1 X139.556 Y86.242 E.01098
G1 X139.464 Y86.532 E.01248
G1 X139.464 Y133.537 E1.92829
G1 X139.556 Y133.758 E.00983
G1 X139.668 Y133.85 E.00596
G1 X139.9 Y133.622 F18000
;TYPE:Outer wall
G1 F1500
G1 X140.399 Y133.844 E.02245
G1 X141.211 Y134.434 E.04116
G1 X141.882 Y135.179 E.04116
G1 X142.384 Y136.048 E.04115
G1 X142.694 Y137.002 E.04116
G1 X142.799 Y138 E.04116
G1 X142.694 Y138.998 E.04116
G1 X142.384 Y139.952 E.04116
G1 X141.882 Y140.821 E.04115
G1 X141.211 Y141.566 E.04116
G1 X140.399 Y142.156 E.04116
G1 X139.483 Y142.564 E.04116
G1 X138.502 Y142.773 E.04116
G1 X137.498 Y142.773 E.04115
G1 X136.517 Y142.564 E.04116
G1 X135.601 Y142.156 E.04116
G1 X134.789 Y141.566 E.04116
G1 X134.118 Y140.821 E.04113
G1 X133.568 Y139.859 E.04546
G1 X133.44 Y139.8 E.00578
G1 X86.535 Y139.8 E1.92421
G1 X86.414 Y139.885 E.00605
G1 X85.882 Y140.821 E.04418
G1 X85.211 Y141.566 E.04113
G1 X84.399 Y142.156 E.04116
G1 X83.483 Y142.564 E.04116
G1 X82.502 Y142.773 E.04116
G1 X81.498 Y142.773 E.04116
G1 X80.517 Y142.564 E.04116
G1 X79.601 Y142.156 E.04116
G1 X78.789 Y141.566 E.04116
G1 X78.118 Y140.821 E.04116
G1 X77.616 Y139.952 E.04115
G1 X77.306 Y138.998 E.04115
G1 X77.201 Y138 E.04116
G1 X77.306 Y137.002 E.04116
G1 X77.616 Y136.048 E.04115
G1 X78.118 Y135.179 E.04115
G1 X78.789 Y134.434 E.04116
G1 X79.601 Y133.844 E.04116
G1 X80.132 Y133.603 E.02395
G1 X80.2 Y133.468 E.00619
G1 X80.2 Y86.489 E1.92723
G1 X80.1 Y86.379 E.0061
G1 X79.601 Y86.156 E.02245
G1 X78.789 Y85.566 E.04116
G1 X78.118 Y84.821 E.04116
G1 X77.616 Y83.952 E.04116
G1 X77.306 Y82.998 E.04116
G1 X77.201 Y82 E.04116
G1 X77.306 Y81.002 E.04116
G1 X77.616 Y80.048 E.04116
G1 X78.118 Y79.179 E.04116
G1 X78.789 Y78.434 E.04116
G1 X79.601 Y77.844 E.04116
G1 X80.517 Y77.436 E.04116
G1 X81.498 Y77.227 E.04116
G1 X82.502 Y77.227 E.04116
G1 X83.483 Y77.436 E.04116
G1 X84.399 Y77.844 E.04116
G1 X85.211 Y78.434 E.04116
G1 X85.882 Y79.179 E.04113
G1 X86.432 Y80.141 E.04546
G1 X86.56 Y80.2 E.00578
G1 X133.465 Y80.2 E1.92421
G1 X133.586 Y80.115 E.00605
G1 X134.118 Y79.179 E.04418
G1 X134.789 Y78.434 E.04113
G1 X135.601 Y77.844 E.04116
G1 X136.517 Y77.436 E.04116
G1 X137.498 Y77.227 E.04116
G1 X138.502 Y77.227 E.04115
G1 X139.483 Y77.436 E.04116
G1 X140.399 Y77.844 E.04116
G1 X141.211 Y78.434 E.04116
G1 X141.882 Y79.179 E.04116
G1 X142.384 Y80.048 E.04116
G1 X142.694 Y81.002 E.04116
G1 X142.799 Y82 E.04116
G1 X142.694 Y82.998 E.04116
G1 X142.384 Y83.952 E.04116
G1 X141.882 Y84.821 E.04116
G1 X141.211 Y85.566 E.04115
G1 X140.399 Y86.156 E.04116
G1 X139.868 Y86.397 E.02395
G1 X139.8 Y86.532 E.00619
G1 X139.8 Y133.511 E1.92723
G1 X139.873 Y133.592 E.00446
G1 E-2.1 F3600
;WIPE_START
G1 F1500
G1 X140.399 Y133.844 E-.26279
G1 X141.211 Y134.434 E-.45147
G1 X141.487 Y134.741 E-.18574
;WIPE_END
G1 Z.7 F18000
G1 X135.871 Y111.703 Z.7
G1 Z.3
G1 E3 F2400
;TYPE:Inner wall
G1 F1500
G1 X135.871 Y135.032 E.95705
G1 X135.792 Y135.389 E.015
G1 X135.578 Y135.67 E.01448
G1 X135.382 Y135.795 E.00953
G1 X135.032 Y135.871 E.01468
G1 X111.703 Y135.871 E.95705
G1 X111.539 Y136.201 E.01512
G1 X111.148 Y136.371 E.01747
G1 X108.968 Y136.371 E.08945
G1 X108.694 Y136.325 E.0114
G1 X108.461 Y136.201 E.0108
G1 X108.297 Y135.871 E.01512
G1 X84.968 Y135.871 E.95705
G1 X84.618 Y135.795 E.01468
G1 X84.336 Y135.584 E.01445
G1 X84.171 Y135.295 E.01366
G1 X84.129 Y135.032 E.01092
G1 X84.129 Y107.703 E1.12114
G1 X83.799 Y107.539 E.01512
G1 X83.629 Y107.148 E.01747
G1 X83.629 Y104.968 E.08945
G1 X83.675 Y104.694 E.0114
G1 X83.799 Y104.461 E.0108
G1 X84.129 Y104.297 E.01512
G1 X84.129 Y84.968 E.79296
G1 X84.208 Y84.611 E.015
G1 X84.422 Y84.33 E.01448
G1 X84.618 Y84.205 E.00953
G1 X84.968 Y84.129 E.01468
G1 X108.297 Y84.129 E.95705
G1 X108.461 Y83.799 E.01512
G1 X108.852 Y83.629 E.01747
G1 X111.032 Y83.629 E.08945
G1 X111.306 Y83.675 E.0114
G1 X111.539 Y83.799 E.0108
G1 X111.703 Y84.129 E.01512
G1 X135.032 Y84.129 E.95705
G1 X135.382 Y84.205 E.01468
G1 X135.664 Y84.416 E.01445
G1 X135.829 Y84.705 E.01366
G1 X135.871 Y84.968 E.01091
G1 X135.871 Y108.297 E.95705
G1 X136.201 Y108.461 E.01512
G1 X136.325 Y108.694 E.0108
G1 X136.371 Y108.968 E.0114
G1 X136.371 Y111.032 E.08469
G1 X136.325 Y111.306 E.0114
G1 X136.201 Y111.539 E.0108
G1 X135.907 Y111.685 E.01348
G1 X135.536 Y111.534 F18000
G1 F1500
G1 X135.536 Y135.032 E.96397
G1 X135.464 Y135.29 E.01098
G1 X135.316 Y135.448 E.0089
G1 X135.153 Y135.521 E.00731
G1 X134.236 Y135.536 E.03763
G1 X111.534 Y135.536 E.93131
G1 X111.336 Y135.934 E.01823
G1 X111.102 Y136.036 E.01048
G1 X108.968 Y136.036 E.08754
G1 X108.803 Y136.008 E.00684
G1 X108.664 Y135.934 E.00648
G1 X108.466 Y135.536 E.01823
G1 X84.968 Y135.536 E.96397
G1 X84.758 Y135.49 E.00881
G1 X84.556 Y135.322 E.01076
G1 X84.472 Y135.118 E.00904
G1 X84.464 Y134.25 E.03562
G1 X84.464 Y107.534 E1.09598
G1 X84.066 Y107.336 E.01823
G1 X83.964 Y107.102 E.01048
G1 X83.964 Y104.968 E.08754
G1 X83.992 Y104.803 E.00684
G1 X84.066 Y104.664 E.00648
G1 X84.464 Y104.466 E.01823
G1 X84.464 Y84.968 E.79988
G1 X84.536 Y84.71 E.01098
G1 X84.641 Y84.585 E.00668
G1 X84.847 Y84.479 E.00952
G1 X85.764 Y84.464 E.03763
G1 X108.466 Y84.464 E.93131
G1 X108.664 Y84.066 E.01823
G1 X108.898 Y83.964 E.01048
G1 X111.032 Y83.964 E.08754
G1 X111.197 Y83.992 E.00684
G1 X111.336 Y84.066 E.00648
G1 X111.534 Y84.464 E.01823
G1 X135.032 Y84.464 E.96397
G1 X135.242 Y84.51 E.00881
G1 X135.444 Y84.678 E.01076
G1 X135.528 Y84.882 E.00904
G1 X135.536 Y85.75 E.03562
G1 X135.536 Y108.466 E.93189
G1 X135.934 Y108.664 E.01823
M73 P2 R52
G1 X136.008 Y108.803 E.00648
G1 X136.036 Y108.968 E.00684
G1 X136.036 Y111.032 E.08469
G1 X136.008 Y111.197 E.00684
G1 X135.934 Y111.336 E.00648
G1 X135.571 Y111.516 E.01659
G1 X135.2 Y111.2 F18000
;TYPE:Outer wall
G1 F1500
G1 X135.2 Y135.032 E.97767
G1 X135.131 Y135.168 E.00624
G1 X135.032 Y135.2 E.00427
G1 X111.2 Y135.2 E.97767
G1 X111.2 Y135.532 E.01363
G1 X111.08 Y135.7 E.00845
G1 X108.968 Y135.7 E.08667
G1 X108.867 Y135.666 E.00438
G1 X108.8 Y135.532 E.00613
G1 X108.8 Y135.2 E.01363
G1 X84.968 Y135.2 E.97767
G1 X84.831 Y135.129 E.00634
G1 X84.8 Y135.032 E.00416
G1 X84.8 Y107.2 E1.14176
G1 X84.468 Y107.2 E.01363
G1 X84.3 Y107.08 E.00845
G1 X84.3 Y104.968 E.08667
G1 X84.334 Y104.867 E.00438
G1 X84.468 Y104.8 E.00613
G1 X84.8 Y104.8 E.01363
G1 X84.8 Y84.968 E.81358
G1 X84.859 Y84.84 E.00576
G1 X84.968 Y84.8 E.00477
G1 X108.8 Y84.8 E.97767
G1 X108.8 Y84.468 E.01363
G1 X108.92 Y84.3 E.00845
G1 X111.032 Y84.3 E.08667
G1 X111.133 Y84.334 E.00438
G1 X111.2 Y84.468 E.00613
G1 X111.2 Y84.8 E.01363
G1 X135.032 Y84.8 E.97767
G1 X135.169 Y84.871 E.00634
G1 X135.2 Y84.968 E.00416
G1 X135.2 Y108.8 E.97767
G1 X135.532 Y108.8 E.01363
G1 X135.7 Y108.92 E.00845
G1 X135.7 Y111.032 E.08667
G1 X135.666 Y111.133 E.00438
G1 X135.532 Y111.2 E.00613
G1 X135.24 Y111.2 E.01199
G1 E-2.1 F3600
;WIPE_START
G1 F1500
G1 X135.237 Y113.2 E-.9
;WIPE_END
G1 Z.7 F18000
G1 X139.147 Y78.154 Z.7
G1 Z.3
G1 E3 F2400
;TYPE:Bottom surface
;WIDTH:0.400012
G1 F1800
G1 X141.593 Y80.6 E.14192
G1 X141.786 Y81.195 E.02569
G1 X141.795 Y81.276 E.00335
G1 X138.74 Y78.222 E.17723
G1 X138.405 Y78.15 E.01407
G1 X138.194 Y78.15 E.00864
G1 X141.851 Y81.807 E.21214
G1 X141.871 Y82 E.00797
G1 X141.842 Y82.273 E.01127
G1 X137.719 Y78.15 E.23919
