; HEADER_BLOCK_START
; generated by OrcaSlicer 2.3.1-dev on 2025-11-02 at 21:59:58
; total layer number: 150
; filament_density: 1.27,1.27
; filament_diameter: 1.75,1.75
; max_z_height: 30.00
; HEADER_BLOCK_END

; THUMBNAIL_BLOCK_START

;
; THUMBNAIL_BLOCK_END

; THUMBNAIL_BLOCK_START

;
; THUMBNAIL_BLOCK_END

; external perimeters extrusion width = 0.40mm
; perimeters extrusion width = 0.45mm
; infill extrusion width = 0.45mm
; solid infill extrusion width = 0.40mm
; top infill extrusion width = 0.40mm
; support material extrusion width = 0.40mm
; first layer extrusion width = 0.40mm

; EXECUTABLE_BLOCK_START
M73 P0 R40
;TYPE:Custom
start_print BED_TEMP=80 EXTRUDER_TEMP=240 CHAMBER_TEMP=0

G90
G21
M83 ; use relative distances for extrusion
; filament start gcode
; MANUAL_TOOL_CHANGE T0
;LAYER_CHANGE
;Z:0.2
;HEIGHT:0.2
;BEFORE_LAYER_CHANGE
;0.2
G92 E0

G1 E-3.3 F3600
;_SET_FAN_SPEED_CHANGING_LAYER
SET_VELOCITY_LIMIT ACCEL=300 ACCEL_TO_DECEL=150
SET_VELOCITY_LIMIT SQUARE_CORNER_VELOCITY=8
SET_VELOCITY_LIMIT SQUARE_CORNER_VELOCITY=8
G1 Z.6 F18000
G1 X96.212 Y96.212
G1 Z.6
G1 Z.2
G1 E3.3 F2400
;TYPE:Skirt
;WIDTH:0.4
G1 F3000
G1 X99.117 Y93.307 E.11587
G1 X100.91 Y92.564 E.05474
G1 X119.09 Y92.564 E.51282
G1 X120.883 Y93.307 E.05474
G1 X126.693 Y99.117 E.23175
G1 X127.436 Y100.91 E.05474
G1 X127.436 Y119.09 E.51282
G1 X126.693 Y120.883 E.05474
G1 X120.883 Y126.693 E.23175
G1 X119.09 Y127.436 E.05474
G1 X100.91 Y127.436 E.51282
G1 X99.117 Y126.693 E.05474
G1 X93.307 Y120.883 E.23175
G1 X92.564 Y119.09 E.05474
G1 X92.564 Y100.91 E.51282
G1 X93.307 Y99.117 E.05474
G1 X96.184 Y96.24 E.11475
G1 X96.436 Y96.493 F18000
G1 F3000
G1 X99.369 Y93.56 E.117
G1 X100.91 Y92.921 E.04703
G1 X119.09 Y92.921 E.51282
G1 X120.631 Y93.56 E.04703
G1 X126.44 Y99.369 E.23175
G1 X127.079 Y100.91 E.04703
G1 X127.079 Y119.09 E.51282
G1 X126.44 Y120.631 E.04703
G1 X120.631 Y126.44 E.23175
G1 X119.09 Y127.079 E.04703
G1 X100.91 Y127.079 E.51282
G1 X99.369 Y126.44 E.04703
G1 X93.56 Y120.631 E.23175
G1 X92.921 Y119.09 E.04703
G1 X92.921 Y100.91 E.51282
G1 X93.56 Y99.369 E.04703
G1 X96.408 Y96.521 E.11362
; printing object Voron_Design_Cube_v7(R2).stl id:897202880 copy 0
G1 E-2.31 F3600
;WIPE_START
G1 F3000
G1 X97.822 Y95.107 E-.99
;WIPE_END
G1 Z.6 F18000
G1 X124.321 Y118.851 Z.6
G1 Z.2
G1 E3.3 F2400
;TYPE:Inner wall
;WIDTH:0.399999
G1 F1500
G1 X118.851 Y124.321 E.21823
G1 X101.149 Y124.321 E.4993
G1 X95.679 Y118.851 E.21823
G1 X95.679 Y101.149 E.4993
G1 X101.149 Y95.679 E.21823
G1 X118.851 Y95.679 E.4993
G1 X124.321 Y101.149 E.21823
G1 X124.321 Y118.811 E.49817
G1 X124.7 Y119.008 F18000
;TYPE:Outer wall
G1 F1500
G1 X119.008 Y124.7 E.22707
G1 X100.992 Y124.7 E.50814
G1 X95.3 Y119.008 E.22707
G1 X95.3 Y100.992 E.50814
G1 X100.992 Y95.3 E.22707
G1 X119.008 Y95.3 E.50814
G1 X124.7 Y100.992 E.22707
G1 X124.7 Y118.968 E.50702
G1 E-2.31 F3600
;WIPE_START
G1 F1500
G1 X123.291 Y120.387 E-.99
;WIPE_END
G1 Z.6 F18000
G1 X112.222 Y101.984 Z.6
G1 Z.2
G1 E3.3 F2400
;TYPE:Inner wall
G1 F1500
G1 X112.771 Y102.147 E.01615
G1 X113.567 Y102.475 E.02428
G1 X114.325 Y102.883 E.02428
G1 X115.362 Y103.629 E.03603
G1 X116.025 Y104.249 E.0256
G1 X116.812 Y105.212 E.0351
G1 X117.277 Y105.952 E.02465
G1 X117.656 Y106.725 E.02428
G1 X117.954 Y107.533 E.02428
G1 X118.166 Y108.367 E.02428
G1 X118.291 Y109.219 E.02428
G1 X118.327 Y110.079 E.02427
G1 X118.295 Y110.733 E.01848
G1 X118.176 Y111.578 E.02408
G1 X117.97 Y112.414 E.02428
G1 X117.678 Y113.224 E.02428
G1 X117.304 Y114 E.02428
G1 X116.852 Y114.732 E.02428
G1 X116.327 Y115.414 E.02428
G1 X115.734 Y116.039 E.02428
G1 X115.08 Y116.598 E.02428
G1 X114.372 Y117.088 E.02428
G1 X113.617 Y117.501 E.02428
G1 X112.792 Y117.848 E.02524
G1 X111.592 Y118.173 E.03508
G1 X110.726 Y118.296 E.02465
G1 X109.866 Y118.327 E.02428
G1 X109.007 Y118.268 E.02428
G1 X108.159 Y118.122 E.02428
G1 X107.33 Y117.888 E.02428
G1 X106.53 Y117.57 E.02428
G1 X105.767 Y117.172 E.02428
G1 X105.148 Y116.762 E.02092
G1 X104.384 Y116.149 E.02763
G1 X103.779 Y115.537 E.02428
G1 X103.241 Y114.865 E.02428
G1 X102.756 Y114.113 E.02524
G1 X102.227 Y112.987 E.03509
G1 X101.956 Y112.156 E.02465
G1 X101.776 Y111.314 E.02428
G1 X101.685 Y110.458 E.02428
G1 X101.682 Y109.597 E.02428
G1 X101.768 Y108.741 E.02428
G1 X101.942 Y107.897 E.02428
G1 X102.202 Y107.077 E.02428
G1 X102.559 Y106.256 E.02524
G1 X103.202 Y105.191 E.03509
G1 X103.743 Y104.505 E.02466
G1 X104.343 Y103.888 E.02428
G1 X105.005 Y103.337 E.02428
G1 X105.747 Y102.838 E.02524
G1 X106.862 Y102.287 E.03508
G1 X107.688 Y102 E.02466
G1 X108.526 Y101.804 E.02428
G1 X109.38 Y101.695 E.02428
G1 X110.241 Y101.676 E.02428
G1 X111.099 Y101.745 E.02428
G1 X111.945 Y101.903 E.02428
G1 X112.183 Y101.973 E.007
G1 X112.117 Y102.347 F18000
;TYPE:Outer wall
G1 F1500
G1 X112.662 Y102.509 E.01606
G1 X113.421 Y102.824 E.02318
G1 X114.144 Y103.216 E.02318
G1 X115.14 Y103.936 E.03465
G1 X115.748 Y104.508 E.02356
G1 X116.519 Y105.452 E.03437
G1 X116.956 Y106.152 E.02328
G1 X117.316 Y106.89 E.02318
G1 X117.598 Y107.662 E.02318
G1 X117.799 Y108.459 E.02318
G1 X117.916 Y109.273 E.02318
G1 X117.949 Y110.093 E.02317
G1 X117.917 Y110.713 E.01751
G1 X117.802 Y111.525 E.02311
G1 X117.603 Y112.322 E.02318
G1 X117.322 Y113.095 E.02318
G1 X116.964 Y113.834 E.02318
G1 X116.531 Y114.532 E.02318
G1 X116.028 Y115.182 E.02318
G1 X115.461 Y115.777 E.02318
G1 X114.835 Y116.31 E.02318
G1 X114.158 Y116.776 E.02318
G1 X113.436 Y117.169 E.02318
G1 X112.668 Y117.489 E.02347
G1 X111.492 Y117.808 E.03437
G1 X110.675 Y117.921 E.02328
G1 X109.854 Y117.948 E.02318
G1 X109.034 Y117.891 E.02318
G1 X108.224 Y117.749 E.02318
G1 X107.434 Y117.524 E.02318
G1 X106.671 Y117.219 E.02318
G1 X105.943 Y116.837 E.02318
G1 X105.358 Y116.448 E.01982
G1 X104.626 Y115.858 E.02653
G1 X104.049 Y115.272 E.02318
G1 X103.537 Y114.629 E.02318
G1 X103.088 Y113.929 E.02347
G1 X102.57 Y112.826 E.03437
G1 X102.316 Y112.041 E.02328
G1 X102.147 Y111.236 E.02318
G1 X102.061 Y110.419 E.02318
G1 X102.06 Y109.597 E.02318
G1 X102.144 Y108.78 E.02318
G1 X102.312 Y107.975 E.02318
G1 X102.562 Y107.192 E.02318
G1 X102.896 Y106.43 E.02347
G1 X103.526 Y105.387 E.03437
G1 X104.039 Y104.74 E.02328
G1 X104.614 Y104.153 E.02318
G1 X105.246 Y103.628 E.02318
G1 X105.938 Y103.166 E.02347
G1 X107.03 Y102.626 E.03437
G1 X107.81 Y102.358 E.02328
G1 X108.611 Y102.173 E.02318
G1 X109.427 Y102.071 E.02318
G1 X110.248 Y102.054 E.02318
G1 X111.067 Y102.122 E.02318
G1 X111.875 Y102.275 E.02318
G1 X112.079 Y102.335 E.00599
G1 E-2.31 F3600
;WIPE_START
G1 F1500
G1 X112.662 Y102.509 E-.30162
G1 X113.421 Y102.824 E-.40679
G1 X113.922 Y103.095 E-.28159
;WIPE_END
G1 Z.6 F18000
G1 X118.578 Y95.786 Z.6
G1 Z.2
G1 E3.3 F2400
;TYPE:Bottom surface
;WIDTH:0.401072
G1 F1800
G1 X124.054 Y101.261 E.21907
G1 X124.054 Y101.768 E.01433
G1 X118.232 Y95.946 E.23291
G1 X117.726 Y95.946 E.01433
M73 P1 R40
G1 X124.054 Y102.274 E.25317
G1 X124.054 Y102.781 E.01433
G1 X117.219 Y95.946 E.27344
G1 X116.713 Y95.946 E.01433
G1 X124.054 Y103.287 E.2937
G1 X124.054 Y103.794 E.01433
G1 X116.206 Y95.946 E.31397
G1 X115.7 Y95.946 E.01433
G1 X124.054 Y104.3 E.33423
G1 X124.054 Y104.807 E.01433
G1 X115.193 Y95.946 E.3545
G1 X114.687 Y95.946 E.01433
G1 X124.054 Y105.313 E.37476
G1 X124.054 Y105.82 E.01433
G1 X114.18 Y95.946 E.39503
G1 X113.674 Y95.946 E.01433
G1 X124.054 Y106.326 E.41529
G1 X124.054 Y106.833 E.01433
G1 X113.167 Y95.946 E.43556
G1 X112.661 Y95.946 E.01433
G1 X124.054 Y107.339 E.45582
G1 X124.054 Y107.846 E.01433
G1 X112.154 Y95.946 E.47609
G1 X111.648 Y95.946 E.01433
G1 X124.054 Y108.352 E.49636
G1 X124.054 Y108.859 E.01433
G1 X111.141 Y95.946 E.51662
G1 X110.635 Y95.946 E.01433
G1 X124.054 Y109.365 E.53689
G1 X124.054 Y109.872 E.01433
G1 X110.128 Y95.946 E.55715
G1 X109.622 Y95.946 E.01433
G1 X124.054 Y110.378 E.57742
G1 X124.054 Y110.885 E.01433
G1 X109.115 Y95.946 E.59768
G1 X108.609 Y95.946 E.01433
G1 X124.054 Y111.391 E.61795
G1 X124.054 Y111.898 E.01433
G1 X108.102 Y95.946 E.63821
G1 X107.596 Y95.946 E.01433
G1 X114.126 Y102.476 E.26125
G1 X114.536 Y102.7 E.01323
G1 X115.523 Y103.416 E.0345
G1 X116.203 Y104.049 E.0263
G1 X117.077 Y105.122 E.03915
G1 X117.556 Y105.907 E.026
G1 X124.054 Y112.404 E.25996
G1 X124.054 Y112.911 E.01433
G1 X117.987 Y106.844 E.24273
G1 X118.253 Y107.617 E.02312
G1 X124.054 Y113.417 E.23208
G1 X124.054 Y113.924 E.01433
G1 X118.419 Y108.289 E.22546
G1 X118.512 Y108.888 E.01716
G1 X124.054 Y114.43 E.22174
G1 X124.054 Y114.937 E.01433
G1 X118.57 Y109.453 E.21938
G1 X118.591 Y109.98 E.01491
G1 X124.054 Y115.443 E.21858
G1 X124.054 Y115.95 E.01433
G1 X118.575 Y110.471 E.2192
G1 X118.538 Y110.941 E.01333
G1 X124.054 Y116.456 E.22067
G1 X124.054 Y116.963 E.01433
G1 X118.475 Y111.384 E.22322
G1 X118.395 Y111.81 E.01229
G1 X124.054 Y117.469 E.2264
G1 X124.054 Y117.976 E.01433
G1 X118.293 Y112.215 E.2305
G1 X118.185 Y112.613 E.01169
G1 X124.054 Y118.482 E.23481
G1 X124.054 Y118.74 E.00729
G1 X123.929 Y118.864 E.00498
G1 X118.048 Y112.983 E.23529
G1 X117.912 Y113.353 E.01116
G1 X123.676 Y119.117 E.23062
G1 X123.423 Y119.371 E.01013
G1 X117.748 Y113.696 E.22705
G1 X117.581 Y114.035 E.01071
G1 X123.169 Y119.624 E.2236
G1 X122.916 Y119.877 E.01013
G1 X117.399 Y114.36 E.22076
G1 X117.204 Y114.672 E.0104
G1 X122.663 Y120.13 E.21841
G1 X122.41 Y120.384 E.01013
G1 X117.004 Y114.978 E.2163
G1 X116.783 Y115.263 E.01021
G1 X122.156 Y120.637 E.215
G1 X121.903 Y120.89 E.01013
G1 X116.562 Y115.549 E.21371
G1 X116.318 Y115.812 E.01014
G1 X121.65 Y121.143 E.21332
G1 X121.397 Y121.397 E.01013
G1 X116.072 Y116.072 E.21305
G1 X115.815 Y116.322 E.01013
G1 X121.143 Y121.65 E.21318
G1 X120.89 Y121.903 E.01013
G1 X115.541 Y116.554 E.21401
G1 X115.267 Y116.787 E.01017
G1 X120.637 Y122.156 E.21484
G1 X120.384 Y122.41 E.01013
G1 X114.974 Y117 E.21646
G1 X114.673 Y117.206 E.01031
G1 X120.13 Y122.663 E.21834
G1 X119.877 Y122.916 E.01013
G1 X114.36 Y117.399 E.22075
G1 X114.033 Y117.578 E.01055
G1 X119.624 Y123.17 E.2237
G1 X119.371 Y123.423 E.01013
G1 X113.703 Y117.755 E.22678
G1 X113.346 Y117.905 E.01094
G1 X119.117 Y123.676 E.23091
G1 X118.864 Y123.929 E.01013
G1 X112.99 Y118.055 E.23503
G1 X112.6 Y118.172 E.01151
M73 P2 R40
G1 X118.482 Y124.054 E.23534
G1 X117.976 Y124.054 E.01433
G1 X112.202 Y118.281 E.23098
M73 P2 R39
G1 X111.805 Y118.389 E.01166
G1 X117.469 Y124.054 E.22663
G1 X116.963 Y124.054 E.01433
G1 X111.385 Y118.476 E.22316
G1 X110.939 Y118.537 E.01272
G1 X116.456 Y124.054 E.22072
G1 X115.95 Y124.054 E.01433
G1 X110.468 Y118.572 E.2193
G1 X109.979 Y118.59 E.01384
G1 X115.443 Y124.054 E.2186
G1 X114.937 Y124.054 E.01433
G1 X109.45 Y118.567 E.2195
G1 X108.897 Y118.52 E.01572
G1 X114.43 Y124.054 E.22139
G1 X113.924 Y124.054 E.01433
G1 X108.285 Y118.415 E.2256
G1 X108.108 Y118.385 E.00509
G1 X107.608 Y118.244 E.0147
G1 X113.417 Y124.054 E.23243
G1 X112.911 Y124.054 E.01433
G1 X106.551 Y117.694 E.25445
G1 E-2.31 F3600
;WIPE_START
G1 F1800
G1 X107.965 Y119.108 E-.99
;WIPE_END
G1 Z.6 F18000
G1 X113.457 Y102.314 Z.6
G1 Z.2
G1 E3.3 F2400
G1 F1800
G1 X107.089 Y95.946 E.25477
G1 X106.583 Y95.946 E.01433
G1 X112.393 Y101.756 E.23245
G1 X112 Y101.64 E.0116
G1 X111.718 Y101.588 E.00809
G1 X106.076 Y95.946 E.22574
G1 X105.57 Y95.946 E.01433
G1 X111.1 Y101.477 E.22126
G1 X110.55 Y101.433 E.01562
G1 X105.063 Y95.946 E.2195
G1 X104.557 Y95.946 E.01433
G1 X110.024 Y101.413 E.21872
G1 X109.529 Y101.425 E.014
G1 X104.05 Y95.946 E.21919
G1 X103.544 Y95.946 E.01433
G1 X109.063 Y101.465 E.2208
G1 X108.612 Y101.521 E.01284
G1 X103.037 Y95.946 E.22305
G1 X102.531 Y95.946 E.01433
G1 X108.191 Y101.607 E.22647
G1 X107.779 Y101.701 E.01196
G1 X102.024 Y95.946 E.23024
G1 X101.518 Y95.946 E.01433
G1 X107.392 Y101.82 E.23502
G1 X107.013 Y101.948 E.01131
G1 X101.136 Y96.071 E.23516
G1 X100.883 Y96.324 E.01013
G1 X106.655 Y102.097 E.23098
G1 X106.316 Y102.264 E.0107
G1 X100.629 Y96.577 E.22754
G1 X100.376 Y96.831 E.01013
G1 X105.977 Y102.432 E.22411
G1 X105.638 Y102.599 E.0107
G1 X100.123 Y97.084 E.22068
G1 X99.87 Y97.337 E.01013
G1 X105.329 Y102.797 E.21843
G1 X105.026 Y103 E.01032
G1 X99.616 Y97.59 E.21646
G1 X99.363 Y97.844 E.01013
G1 X104.734 Y103.214 E.21488
G1 X104.457 Y103.444 E.01017
G1 X99.11 Y98.097 E.21396
G1 X98.857 Y98.35 E.01013
G1 X104.181 Y103.675 E.21304
G1 X103.929 Y103.929 E.01013
G1 X98.603 Y98.603 E.21306
G1 X98.35 Y98.857 E.01013
G1 X103.678 Y104.184 E.21316
G1 X103.443 Y104.456 E.01016
G1 X98.097 Y99.11 E.2139
G1 X97.844 Y99.363 E.01013
G1 X103.217 Y104.737 E.215
G1 X102.997 Y105.023 E.01022
G1 X97.59 Y99.616 E.21634
G1 X97.337 Y99.87 E.01013
G1 X102.807 Y105.339 E.21884
G1 X102.616 Y105.655 E.01044
G1 X97.084 Y100.123 E.22135
G1 X96.83 Y100.376 E.01013
G1 X102.425 Y105.971 E.22385
G1 X102.248 Y106.3 E.01058
G1 X96.577 Y100.629 E.22689
G1 X96.324 Y100.883 E.01013
G1 X102.095 Y106.653 E.23089
G1 X101.943 Y107.008 E.01091
G1 X96.071 Y101.136 E.23494
G1 X95.946 Y101.26 E.00498
G1 X95.946 Y101.518 E.00729
G1 X101.821 Y107.393 E.23506
G1 X101.7 Y107.778 E.01142
G1 X95.946 Y102.024 E.23019
G1 X95.946 Y102.531 E.01433
G1 X101.608 Y108.192 E.22652
G1 X101.522 Y108.613 E.01214
G1 X95.946 Y103.037 E.22307
G1 X95.946 Y103.544 E.01433
G1 X101.467 Y109.064 E.22086
G1 X101.421 Y109.525 E.0131
G1 X95.946 Y104.05 E.21903
G1 X95.946 Y104.557 E.01433
G1 X101.416 Y110.026 E.21884
G1 X101.424 Y110.541 E.01457
G1 X95.946 Y105.063 E.21917
G1 X95.946 Y105.57 E.01433
G1 X101.484 Y111.108 E.22157
G1 X101.509 Y111.341 E.00665
G1 X101.588 Y111.718 E.01088
G1 X95.946 Y106.076 E.22571
G1 X95.946 Y106.583 E.01433
G1 X101.752 Y112.389 E.2323
G1 X101.948 Y113.01 E.01842
G1 X102.021 Y113.164 E.00483
G1 X95.946 Y107.089 E.24305
G1 X95.946 Y107.596 E.01433
G1 X102.471 Y114.12 E.26103
G1 X102.546 Y114.281 E.00501
G1 X102.996 Y114.984 E.02362
G1 X103.585 Y115.721 E.0267
G1 X104.16 Y116.308 E.02325
G1 X104.883 Y116.907 E.02656
G1 X105.638 Y117.407 E.02562
G1 X105.886 Y117.536 E.00792
G1 X112.404 Y124.054 E.26077
G1 X111.898 Y124.054 E.01433
G1 X95.946 Y108.102 E.63821
G1 X95.946 Y108.609 E.01433
G1 X111.391 Y124.054 E.61794
G1 X110.885 Y124.054 E.01433
G1 X95.946 Y109.115 E.59768
G1 X95.946 Y109.622 E.01433
M73 P3 R39
G1 X110.378 Y124.054 E.57741
G1 X109.872 Y124.054 E.01433
G1 X95.946 Y110.128 E.55715
G1 X95.946 Y110.635 E.01433
G1 X109.365 Y124.054 E.53688
G1 X108.859 Y124.054 E.01433
G1 X95.946 Y111.141 E.51662
G1 X95.946 Y111.648 E.01433
G1 X108.352 Y124.054 E.49635
G1 X107.846 Y124.054 E.01433
G1 X95.946 Y112.154 E.47609
G1 X95.946 Y112.661 E.01433
G1 X107.339 Y124.054 E.45582
G1 X106.832 Y124.054 E.01433
G1 X95.946 Y113.168 E.43556
G1 X95.946 Y113.674 E.01433
G1 X106.326 Y124.054 E.41529
G1 X105.819 Y124.054 E.01433
G1 X95.946 Y114.181 E.39503
G1 X95.946 Y114.687 E.01433
G1 X105.313 Y124.054 E.37476
G1 X104.806 Y124.054 E.01433
G1 X95.946 Y115.194 E.3545
G1 X95.946 Y115.7 E.01433
G1 X104.3 Y124.054 E.33423
G1 X103.793 Y124.054 E.01433
G1 X95.946 Y116.207 E.31396
G1 X95.946 Y116.713 E.01433
G1 X103.287 Y124.054 E.2937
G1 X102.78 Y124.054 E.01433
G1 X95.946 Y117.22 E.27343
G1 X95.946 Y117.726 E.01433
G1 X102.274 Y124.054 E.25317
G1 X101.767 Y124.054 E.01433
G1 X95.946 Y118.233 E.2329
G1 X95.946 Y118.739 E.01433
G1 X101.422 Y124.214 E.21907
; stop printing object Voron_Design_Cube_v7(R2).stl id:897202880 copy 0
;LAYER_CHANGE
;Z:0.4
;HEIGHT:0.2
;BEFORE_LAYER_CHANGE
;0.4
G92 E0

G1 E-2.31 F3600
;WIPE_START
G1 F1800
G1 X100.007 Y122.8 E-.99
;WIPE_END
;_SET_FAN_SPEED_CHANGING_LAYER
SET_VELOCITY_LIMIT ACCEL=2500 ACCEL_TO_DECEL=1250
SET_VELOCITY_LIMIT SQUARE_CORNER_VELOCITY=8
M140 S80 ; set bed temperature
; printing object Voron_Design_Cube_v7(R2).stl id:897202880 copy 0
SET_VELOCITY_LIMIT ACCEL=2000 ACCEL_TO_DECEL=1000 SQUARE_CORNER_VELOCITY=8
G1 Z.8 F18000
G1 X124.396 Y119.05 Z.8
G1 Z.4
G1 E3.3 F2400
SET_VELOCITY_LIMIT ACCEL=2500 ACCEL_TO_DECEL=1250
;TYPE:Inner wall
;WIDTH:0.449999
G1 F7757.448
G1 X119.05 Y124.396 E.24313
G1 X100.95 Y124.396 E.58203
G1 X95.604 Y119.05 E.24313
G1 X95.604 Y100.95 E.58203
G1 X100.95 Y95.604 E.24313
G1 X119.05 Y95.604 E.58203
G1 X124.396 Y100.95 E.24313
G1 X124.396 Y119.01 E.58074
